/* XPM */
static const char *ghost_clyde_north_2[] = {
/* columns rows colors chars-per-pixel */
"11 11 21 1 ",
"  c #FE9C00",
". c #FF9C00",
"X c #FE9D00",
"o c #FF9D00",
"O c #FE9C01",
"+ c #FF9C01",
"@ c #FE9D01",
"# c #FF9D01",
"$ c #0000FE",
"% c #0101FE",
"& c blue",
"* c #0100FF",
"= c #0001FF",
"- c #0101FF",
"; c #FEFEFE",
": c #FFFEFE",
"> c #FEFFFE",
", c #FFFEFF",
"< c #FEFFFF",
"1 c white",
"2 c None",
/* pixels */
"2222...2222",
"22.......22",
"2.&&...&&.2",
"21&&1.1&&12",
".1111.1111.",
"..11...11..",
"...........",
"...........",
"...........",
"...........",
"2..2...2..2"
};
