/* XPM */
static const char *ghost_inky_east_2[] = {
/* columns rows colors chars-per-pixel */
"11 11 24 1 ",
"  c #0000FE",
". c #0100FE",
"X c #0001FE",
"o c #0101FE",
"O c blue",
"+ c #0001FF",
"@ c #0101FF",
"# c #00FEFE",
"$ c #01FEFE",
"% c #00FFFE",
"& c #01FFFE",
"* c #00FEFF",
"= c #01FEFF",
"- c cyan",
"; c #01FFFF",
": c #FEFEFE",
"> c #FFFEFE",
", c #FEFFFE",
"< c #FFFFFE",
"1 c #FEFEFF",
"2 c #FFFEFF",
"3 c #FEFFFF",
"4 c white",
"5 c None",
/* pixels */
"5555---5555",
"55-------55",
"5--44---445",
"5-44  -44  ",
"--44  -44  ",
"---44---44-",
"-----------",
"-----------",
"-----------",
"-----------",
"5--5---5--5"
};
