/* XPM */
static const char *ghost_pinky_north_1[] = {
/* columns rows colors chars-per-pixel */
"11 11 19 1 ",
"  c #0000FE",
". c blue",
"X c #0100FF",
"o c #0001FF",
"O c #FECCE6",
"+ c #FFCCE6",
"@ c #FECDE6",
"# c #FFCDE6",
"$ c #FECCE7",
"% c #FFCCE7",
"& c #FECDE7",
"* c #FFCDE7",
"= c #FFFEFE",
"- c #FEFFFE",
"; c #FFFFFE",
": c #FFFEFF",
"> c #FEFFFF",
", c white",
"< c None",
/* pixels */
"<<<<###<<<<",
"<<#######<<",
"<#XX###XX#<",
"<,XX,#,XX,<",
"#,,,,#,,,,#",
"##,,###,,##",
"###########",
"###########",
"###########",
"###########",
"##<##<##<##"
};
