/* XPM */
static const char *ghost_blinky_east_1[] = {
/* columns rows colors chars-per-pixel */
"11 11 20 1 ",
"  c #FE0000",
". c red",
"X c #FE0100",
"o c #FF0100",
"O c #FE0001",
"+ c #FF0001",
"@ c #FE0101",
"# c #FF0101",
"$ c #0101FE",
"% c blue",
"& c #0100FF",
"* c #0001FF",
"= c #FFFEFE",
"- c #FEFFFE",
"; c #FFFFFE",
": c #FEFEFF",
"> c #FFFEFF",
", c #FEFFFF",
"< c white",
"1 c None",
/* pixels */
"1111+++1111",
"11+++++++11",
"1++,,+++,,1",
"1+,,%%+,,%%",
"++,,%%+,,%%",
"+++,,+++,,+",
"+++++++++++",
"+++++++++++",
"+++++++++++",
"+++++++++++",
"++1++1++1++"
};
