/* XPM */
static const char *ghost_clyde_north_1[] = {
/* columns rows colors chars-per-pixel */
"11 11 22 1 ",
"  c #FE9C00",
". c #FF9C00",
"X c #FE9D00",
"o c #FF9D00",
"O c #FE9C01",
"+ c #FF9C01",
"@ c #FF9D01",
"# c #0000FE",
"$ c #0100FE",
"% c #0101FE",
"& c blue",
"* c #0001FF",
"= c #0101FF",
"- c #FEFEFE",
"; c #FFFEFE",
": c #FEFFFE",
"> c #FFFFFE",
", c #FEFEFF",
"< c #FFFEFF",
"1 c #FEFFFF",
"2 c white",
"3 c None",
/* pixels */
"3333   3333",
"33       33",
"3 ##   ## 3",
"3>##> >##>3",
" >>>> >>>> ",
"  >>   >>  ",
"           ",
"           ",
"           ",
"           ",
"  3  3  3  "
};
