/* XPM */
static const char *ghost_clyde_south_1[] = {
/* columns rows colors chars-per-pixel */
"11 11 23 1 ",
"  c #FE9C00",
". c #FF9C00",
"X c #FE9D00",
"o c #FF9D00",
"O c #FE9C01",
"+ c #FF9C01",
"@ c #FE9D01",
"# c #FF9D01",
"$ c #0000FE",
"% c #0100FE",
"& c #0001FE",
"* c #0101FE",
"= c blue",
"- c #0100FF",
"; c #0001FF",
": c #FFFEFE",
"> c #FEFFFE",
", c #FFFFFE",
"< c #FEFEFF",
"1 c #FFFEFF",
"2 c #FEFFFF",
"3 c white",
"4 c None",
/* pixels */
"4444XXX4444",
"44XXXXXXX44",
"4X,,XXX,,X4",
"4,,,,X,,,,4",
"X,%%,X,%%,X",
"XX%%XXX%%XX",
"XXXXXXXXXXX",
"XXXXXXXXXXX",
"XXXXXXXXXXX",
"XXXXXXXXXXX",
"XX4XX4XX4XX"
};
