/* XPM */
static const char *ghost_inky_south_2[] = {
/* columns rows colors chars-per-pixel */
"11 11 21 1 ",
"  c #0000FE",
". c #0001FE",
"X c blue",
"o c #0100FF",
"O c #0001FF",
"+ c #0101FF",
"@ c #00FEFE",
"# c #01FEFE",
"$ c #00FFFE",
"% c #01FFFE",
"& c #00FEFF",
"* c #01FEFF",
"= c cyan",
"- c #01FFFF",
"; c #FEFFFE",
": c #FFFFFE",
"> c #FEFEFF",
", c #FFFEFF",
"< c #FEFFFF",
"1 c white",
"2 c None",
/* pixels */
"2222%%%2222",
"22%%%%%%%22",
"2%>>%%%>>%2",
"2>>>>%>>>>2",
"%>OO>%>OO>%",
"%%OO%%%OO%%",
"%%%%%%%%%%%",
"%%%%%%%%%%%",
"%%%%%%%%%%%",
"%%%%%%%%%%%",
"2%%2%%%2%%2"
};
