/* XPM */
static const char *ghost_pinky_east_1[] = {
/* columns rows colors chars-per-pixel */
"11 11 22 1 ",
"  c #0000FE",
". c #0100FE",
"X c #0101FE",
"o c blue",
"O c #0100FF",
"+ c #0001FF",
"@ c #FECCE6",
"# c #FFCCE6",
"$ c #FECDE6",
"% c #FFCDE6",
"& c #FECCE7",
"* c #FFCCE7",
"= c #FECDE7",
"- c #FFCDE7",
"; c #FEFEFE",
": c #FEFFFE",
"> c #FFFFFE",
", c #FEFEFF",
"< c #FFFEFF",
"1 c #FEFFFF",
"2 c white",
"3 c None",
/* pixels */
"3333###3333",
"33#######33",
"3##>>###>>3",
"3#>>  #>>  ",
"##>>  #>>  ",
"###>>###>>#",
"###########",
"###########",
"###########",
"###########",
"##3##3##3##"
};
