/* XPM */
static const char *ghost_pinky_east_2[] = {
/* columns rows colors chars-per-pixel */
"11 11 23 1 ",
"  c #0000FE",
". c #0100FE",
"X c blue",
"o c #0100FF",
"O c #0001FF",
"+ c #0101FF",
"@ c #FECCE6",
"# c #FFCCE6",
"$ c #FECDE6",
"% c #FFCDE6",
"& c #FECCE7",
"* c #FFCCE7",
"= c #FECDE7",
"- c #FFCDE7",
"; c #FEFEFE",
": c #FFFEFE",
"> c #FEFFFE",
", c #FFFFFE",
"< c #FEFEFF",
"1 c #FFFEFF",
"2 c #FEFFFF",
"3 c white",
"4 c None",
/* pixels */
"4444%%%4444",
"44%%%%%%%44",
"4%%22%%%224",
"4%22OO%22OO",
"%%22OO%22OO",
"%%%22%%%22%",
"%%%%%%%%%%%",
"%%%%%%%%%%%",
"%%%%%%%%%%%",
"%%%%%%%%%%%",
"4%%4%%%4%%4"
};
