/* XPM */
static const char *ghost_pinky_west_1[] = {
/* columns rows colors chars-per-pixel */
"11 11 23 1 ",
"  c #0000FE",
". c #0100FE",
"X c #0001FE",
"o c blue",
"O c #0100FF",
"+ c #0001FF",
"@ c #FECCE6",
"# c #FFCCE6",
"$ c #FECDE6",
"% c #FFCDE6",
"& c #FECCE7",
"* c #FFCCE7",
"= c #FECDE7",
"- c #FFCDE7",
"; c #FEFEFE",
": c #FFFEFE",
"> c #FEFFFE",
", c #FFFFFE",
"< c #FEFEFF",
"1 c #FFFEFF",
"2 c #FEFFFF",
"3 c white",
"4 c None",
/* pixels */
"4444&&&4444",
"44&&&&&&&44",
"411&&&11&&4",
"OO11&OO11&4",
"OO11&OO11&&",
"&11&&&11&&&",
"&&&&&&&&&&&",
"&&&&&&&&&&&",
"&&&&&&&&&&&",
"&&&&&&&&&&&",
"&&4&&4&&4&&"
};
