/* XPM */
static const char *ghost_inky_north_1[] = {
/* columns rows colors chars-per-pixel */
"11 11 20 1 ",
"  c #0000FE",
". c #0001FE",
"X c #0101FE",
"o c blue",
"O c #00FEFE",
"+ c #01FEFE",
"@ c #00FFFE",
"# c #01FFFE",
"$ c #00FEFF",
"% c #01FEFF",
"& c cyan",
"* c #01FFFF",
"= c #FEFEFE",
"- c #FFFEFE",
"; c #FEFFFE",
": c #FFFFFE",
"> c #FFFEFF",
", c #FEFFFF",
"< c white",
"1 c None",
/* pixels */
"1111&&&1111",
"11&&&&&&&11",
"1&XX&&&XX&1",
"1<XX<&<XX<1",
"&<<<<&<<<<&",
"&&<<&&&<<&&",
"&&&&&&&&&&&",
"&&&&&&&&&&&",
"&&&&&&&&&&&",
"&&&&&&&&&&&",
"&&1&&1&&1&&"
};
