/* XPM */
static const char *ghost_inky_west_1[] = {
/* columns rows colors chars-per-pixel */
"11 11 22 1 ",
"  c #0000FE",
". c #0001FE",
"X c #0101FE",
"o c blue",
"O c #0100FF",
"+ c #0101FF",
"@ c #00FEFE",
"# c #01FEFE",
"$ c #00FFFE",
"% c #01FFFE",
"& c #00FEFF",
"* c #01FEFF",
"= c cyan",
"- c #01FFFF",
"; c #FEFEFE",
": c #FFFEFE",
"> c #FEFFFE",
", c #FEFEFF",
"< c #FFFEFF",
"1 c #FEFFFF",
"2 c white",
"3 c None",
/* pixels */
"3333@@@3333",
"33@@@@@@@33",
"3>>@@@>>@@3",
"OO>>@OO>>@3",
"OO>>@OO>>@@",
"@>>@@@>>@@@",
"@@@@@@@@@@@",
"@@@@@@@@@@@",
"@@@@@@@@@@@",
"@@@@@@@@@@@",
"@@3@@3@@3@@"
};
