/* XPM */
static const char *ghost_blinky_north_2[] = {
/* columns rows colors chars-per-pixel */
"11 11 19 1 ",
"  c #FE0000",
". c red",
"X c #FE0100",
"o c #FF0100",
"O c #FE0001",
"+ c #FF0001",
"@ c #FE0101",
"# c #FF0101",
"$ c #0000FE",
"% c #0100FE",
"& c blue",
"* c #0100FF",
"= c #FFFEFE",
"- c #FEFFFE",
"; c #FFFFFE",
": c #FFFEFF",
"> c #FEFFFF",
", c white",
"< c None",
/* pixels */
"<<<<+++<<<<",
"<<+++++++<<",
"<+%%+++%%+<",
"<>%%>+>%%><",
"+>>>>+>>>>+",
"++>>+++>>++",
"+++++++++++",
"+++++++++++",
"+++++++++++",
"+++++++++++",
"<++<+++<++<"
};
