/* XPM */
static const char *ghost_pinky_south_1[] = {
/* columns rows colors chars-per-pixel */
"11 11 20 1 ",
"  c #0000FE",
". c #0001FE",
"X c blue",
"o c #0100FF",
"O c #FECCE6",
"+ c #FFCCE6",
"@ c #FECDE6",
"# c #FFCDE6",
"$ c #FECCE7",
"% c #FFCCE7",
"& c #FECDE7",
"* c #FFCDE7",
"= c #FFFEFE",
"- c #FEFFFE",
"; c #FFFFFE",
": c #FEFEFF",
"> c #FFFEFF",
", c #FEFFFF",
"< c white",
"1 c None",
/* pixels */
"1111***1111",
"11*******11",
"1*,,***,,*1",
"1,,,,*,,,,1",
"*,XX,*,XX,*",
"**XX***XX**",
"***********",
"***********",
"***********",
"***********",
"**1**1**1**"
};
