/* XPM */
static const char *ghost_pinky_south_2[] = {
/* columns rows colors chars-per-pixel */
"11 11 19 1 ",
"  c #0000FE",
". c #0001FF",
"X c #FECCE6",
"o c #FFCCE6",
"O c #FECDE6",
"+ c #FFCDE6",
"@ c #FECCE7",
"# c #FFCCE7",
"$ c #FECDE7",
"% c #FFCDE7",
"& c #FEFEFE",
"* c #FFFEFE",
"= c #FEFFFE",
"- c #FFFFFE",
"; c #FEFEFF",
": c #FFFEFF",
"> c #FEFFFF",
", c white",
"< c None",
/* pixels */
"<<<<###<<<<",
"<<#######<<",
"<#>>###>>#<",
"<>>>>#>>>><",
"#>..>#>..>#",
"##..###..##",
"###########",
"###########",
"###########",
"###########",
"<##<###<##<"
};
