/* XPM */
static const char *menu_background[] = {
/* columns rows colors chars-per-pixel */
"960 500 200 2 ",
"   c #080708",
".  c #150607",
"X  c #0E0C12",
"o  c #110E15",
"O  c #161419",
"+  c #11140D",
"@  c #270407",
"#  c #2D0E11",
"$  c #152614",
"%  c #302A10",
"&  c #1E1C21",
"*  c #061927",
"=  c #221D23",
"-  c #361527",
";  c #15302F",
":  c #262328",
">  c #353332",
",  c #4E0E13",
"<  c #6F151A",
"1  c #4F1C28",
"2  c #6F1C23",
"3  c #4E2B32",
"4  c #702830",
"5  c #523012",
"6  c #314937",
"7  c #294228",
"8  c #7A671D",
"9  c #4D4B37",
"0  c #796A2D",
"q  c #635323",
"w  c #223A46",
"e  c #70384D",
"r  c #533447",
"t  c #1C464F",
"y  c #2B5250",
"u  c #2A5A69",
"i  c #336A73",
"p  c #32625B",
"a  c #51504D",
"s  c #6B4F56",
"d  c #716D4F",
"f  c #71716E",
"g  c #5D6365",
"h  c #951C1E",
"j  c #88191E",
"k  c #9A1E21",
"l  c #891B22",
"z  c #A21F23",
"x  c #AA1F30",
"c  c #9C2124",
"v  c #982B34",
"b  c #8E2D34",
"n  c #A82327",
"m  c #B9272B",
"M  c #A82A33",
"N  c #BB2B31",
"B  c #B33339",
"V  c #A11D1F",
"C  c #C12A2E",
"Z  c #C22D31",
"A  c #C63236",
"S  c #CA3538",
"D  c #8A7527",
"F  c #967C29",
"G  c #887838",
"H  c #877029",
"J  c #896724",
"K  c #913A45",
"L  c #B03A45",
"P  c #843E63",
"I  c #8F4854",
"U  c #AB4A53",
"Y  c #887A4D",
"T  c #91536C",
"R  c #AA5874",
"E  c #906B76",
"W  c #B16A75",
"Q  c #AF694F",
"!  c #CB5D6B",
"~  c #C43C44",
"^  c #6E876E",
"/  c #7C8031",
"(  c #99852C",
")  c #998835",
"_  c #918635",
"`  c #A48D33",
"'  c #988846",
"]  c #948A52",
"[  c #AA944D",
"{  c #928D71",
"}  c #B2A670",
"|  c #ACA064",
" . c #D4B165",
".. c #F8DD4B",
"X. c #F6DC55",
"o. c #ECD353",
"O. c #FAE14C",
"+. c #F8E154",
"@. c #EDE25C",
"#. c #D7C96B",
"$. c #F0D76D",
"%. c #F9E46E",
"&. c #D6CB5F",
"*. c #D5BC41",
"=. c #387888",
"-. c #36778F",
";. c #487A8A",
":. c #737589",
">. c #947186",
",. c #B36E8C",
"<. c #B06288",
"1. c #CA7499",
"2. c #C97092",
"3. c #D57CA5",
"4. c #CB7BA3",
"5. c #E87897",
"6. c #3C8595",
"7. c #3E8BA3",
"8. c #488998",
"9. c #4596AA",
"0. c #479CB3",
"q. c #4F94A8",
"w. c #6D99AA",
"e. c #4BA5BA",
"r. c #57A7B9",
"t. c #6CA7B6",
"y. c #6B8F97",
"u. c #4DABC4",
"i. c #54ADC5",
"p. c #4EB4CC",
"a. c #53B6CD",
"s. c #4FB7D0",
"d. c #56BBD3",
"f. c #58AFD1",
"g. c #69B5CD",
"h. c #709DC1",
"j. c #5BC4DA",
"k. c #59C2CD",
"l. c #62C8DD",
"z. c #74C5D8",
"x. c #63CCE1",
"c. c #68D2E6",
"v. c #75D2E6",
"b. c #5EC9E1",
"n. c #918E8F",
"m. c #AE8C96",
"M. c #B2AE92",
"N. c #B792A5",
"B. c #8DACB8",
"V. c #B3AFAF",
"C. c #919AA6",
"Z. c #D985AB",
"A. c #DD8BB3",
"S. c #DB94B8",
"D. c #C98FAB",
"F. c #E38DB6",
"G. c #E595BC",
"H. c #EA8AAD",
"J. c #CBAFB5",
"K. c #EAA9B5",
"L. c #D6A093",
"P. c #D1CCB0",
"I. c #E5DBB0",
"U. c #F0E7B7",
"Y. c #DBD096",
"T. c #90B2CD",
"R. c #AFB2CD",
"E. c #B19BC6",
"W. c #D399C5",
"Q. c #EA9CC3",
"!. c #F09DC6",
"~. c #D1B2C7",
"^. c #EDA2C7",
"/. c #F1A5CA",
"(. c #F0B5CE",
"). c #B4C9D2",
"_. c #9CD4E2",
"`. c #C9C7C9",
"'. c #D8CCD3",
"]. c #DBDADC",
"[. c #D3D0CF",
"{. c #E4D9DA",
"}. c #EDCED1",
"|. c #E9E5DA",
" X c #F1EDCE",
".X c #DEDEE1",
"XX c #CADBE3",
"oX c #E3DDE2",
"OX c #F8D8E6",
"+X c #DDE2E4",
"@X c #D3F2F8",
"#X c #E7E7E8",
"$X c #F2ECEA",
"%X c #F5F3EA",
"&X c #EEEEF0",
"*X c #F2EEF2",
"=X c #F3F2F3",
"-X c #EDF2F2",
";X c #DCE3D4",
":X c #B2C69E",
/* pixels */
"o o o o o o o o o o o X o o o o o o o o o o o o o o o o o o o o o o o o o o o o X X o X X o o o o o o o o o o o o X o o o o X o o o o o o o o o o o o o o o o o o o o o o o o o o o o o o o o o o o o o o o o o o o o o o o o o o o o o o o o o X X o o o o o o o o o o o o o o o o o o o o o o o o o o o o o o o o o o o o o o o o o o o o o o o o o o o X o o o o o o o o o o o o o o o X o o o o o o o o o o o o o o o o o o o o o o o o o o o o o o o o o o o o o o o o o o o o X o o o o o o o o o o o o o o o o X o o o o o o o o o o o o o o o o o o o X X o o o o o o o o o o o o o o o o o o o o o o o o o o o X X o o o o o o o o X o o o o o o o o o o o o o o o o o o o o o o o o o o o o o o o o o o o o o o o o o o o o o o o o o o o o o o o o o o o o o o o o o o o o o o o o o o o o o o o o o o o o o o o o o o o o o o o o o o o o o o o o o o o o o o o o o o o o o o o o o o o o o o o o o o o o o o o o o o o o o o o o o o o o o o o o o o o o o o o o o o o o o o o o o o o o o o o o o o o o o o o o o o o o o o o o o o X o o o o o o o o o o o o o o o o o o o o o o o o o o o o o o o o o o o o o o o o o o o o o o o o o o o o o o o o o o o o o o o o o o o o o o o o o o o o o o o o o o o o o o o o o o o o o o o o o o o o o o o o o o o o o o o o o o o o o X o o o X o o X X o o o o o o o o X o o o o X o o o o X X o X + + X X o + X X X X   + . # [ Y.$.$.$.$.$.$.$.$.$.$.$.$.$.$.$.$.$.%.$.$.$.$.$.$.$.$.$.$.$.%.$.$.%.%.$.$.$.$.$.%.$.$.$.$.$.$.%.%.$.$.$.%.$.$.$.%.$.$.$.$.%.$.$.$.$.$.$.$.$.$.$.$.$.$.$.$.$.$.$.%.%.%.$.$.$.$.%.$.$.$.$.$.$.$.$.$.$.$.$.$.$.%.$.$.$.$.$.$.$.$.%.%.%.%.$.$.$.$.%.%.$.$.$.$.$.$.$.$.$.$.$.%.%.$.$.%.%.%.%.$.$.%.%.$.%.%.$.$.$.$.$.$.$.%.%.$.$.%.$.$.$.%.$.$.$.$.$.$.$.$.$.$.$.$.$.$.$.$.%.$.$.%.%.$.$.%.%.%.%.%.%.$.$.%.%.$.$.$.$.%.$.$.$.$.$.$.$.$.$.$.%.%.$.%.$.$.%.$.%.%.%.%.$.$.$.$.%.$.$.$.$.$.$.$.$.$.$.$.%.%.%.%.%.$.$.$.$.$.%.$.$.$.$.$.$.$.$.$.$.$.$.$.$.$.$.$.$.$.$.$.$.$.$.$.$.$.$.$.$.%.$.$.$.$.$.$.$.$.$.%.",
"o o o o o o o o o o o o o o o o o o o o o o o o o o o o X X o o o o o X o o o o X X X X X X o o o o o o o o X o o o o o X X o X o o o o o o o o o o o o o o o o o o o o o o o o o o o o o o o o o o o o o o o o o o o o o o o o o o o o o o o o o o o o o o o o o o o o o o o o o o o o o o o o o o o o o o X X o o o o o o o o o o o o o o o o o o o o o o o X o o o o o o o o o o o o o o X o o o o o o o o o o o o o o o o o o o o o o o o o o o o o o o o o o o o o o o o o X X o o o o o o o o o o o o o o X X o o o X X o o o o o o o o o o o o o o o o o o o o o o o o o o o o o o o o o X o o o o o o o o o o X X o o o o o o o o o X X X o o o o o o o o o o o o o o o o o o o o o o X o o o o o o o o o o o o o o o o o o o o o o o o o o o o o o o o o o o o o o o o o o o o o o o o o o o o o o o o o X X o o o o o o o o o o o o o o o o o o o o o o o o X o o o o o o X o o o o o o o o o o o o o o o o o o o o o o o o o o o o o o o o o o o o o o o o o o o o o o o o o o o o o o o o o o o o o o o o o o o o X o o o o o o o o o X o o o o o o o o o o o o o o o o o o X o o o o o o o o o o o o o o o o o o o o o o o o o o o o o o o o o o o o o o o o o o o o o o o o o o o o o o o o o o o o o o o o o X X X X o o o o o o o o o o o o o o o o o o o o o o o o o o o o o o o X o X o o o o o o X X X o o X X o o o o o o o o o o X X X   + o X X     X X X . . @ ' $.@.X.X.@.@.+.+.+.+.@.+.+.@.@.+.+.X.+.+.+.X.+.X.X.+.+.@.@.@.+.+.+.+.+.@.+.+.+.X.X.+.+.+.X.X.+.+.+.+.+.+.+.+.+.+.X.+.@.+.+.+.+.+.X.X.X.X.X.+.+.X.X.X.X.X.X.X.X.X.X.+.+.+.@.@.+.@.+.+.@.+.@.X.+.+.+.+.+.+.+.@.@.@.@.@.@.+.+.+.X.@.@.@.@.@.+.+.+.@.@.+.+.+.+.+.+.@.+.+.+.+.+.@.+.+.+.+.@.@.@.+.@.@.+.+.+.+.@.@.@.+.+.+.@.@.@.@.@.@.@.@.@.+.+.+.@.@.@.@.@.@.@.+.+.+.+.+.@.+.@.+.+.+.+.+.+.+.+.+.+.+.+.+.+.+.+.@.X.@.+.X.+.+.+.@.X.X.X.@.@.+.X.X.@.+.+.@.@.@.+.+.+.@.@.@.+.@.@.@.+.+.+.@.@.@.+.+.@.@.+.+.+.+.+.+.+.+.+.+.+.+.+.+.+.+.+.@.@.@.@.X.@.@.@.@.@.+.+.+.+.@.+.X.@.+.+.+.+.+.+.+.@.@.@.@.+.+.@.@.@.+.",
"o o o o o o o o o o o o o o o o o o o o o o o o o o o X X o o o o o o o o o o o o o o o o o o X o o o o o o o o o o o o X o o X o o o o o o o o o o o o o o o o o o o o o o o o o o o o o o o o o o o o o o o o o o o o o o o o o o o o o o o o o o o o o o o o o o o o o o o o o o o o o o o o o o o o o o o o o o X o o o o o o o o o o o o o o o o o o o X X o o o o o o o o o o o o o o o X o o o o o o o o o o o o o o o o o o o o o o o o o o o o o o o o o o o o o o o o X o o o o o o o o o o o o o o o X X o o o X o o o o o o o o o o o o o o o o o o o o X o o o o o o o o o o o o o o o o o o o o o o X o X X o o o o o o o o o X X o o o o o o o o o X o o o o o o o o o o o o o X o o o o o o o o o o o o o o o o o o o o o o o o o o o o o o o o o o o o o o o o o o o o o o o o o o o o o o o o o X o o o o o o o o o o o o o o o o X o o o o o o o o o o o X o o o o o o o o o o o o o o o o o o o o o o o o o o o o o o o o o o o o o o o o o o o o o o o o o o o o o o o o o o o o o o o o o o o o o o X X X o o o o o o o o o o o o o o o o o o o o o o o o o o o o o o o o o o o o o o o o o o o o o o o o o o o o o o o o o o o o o o o o o o o o o o o o o o o o o o o o o o o o o o o o o o o o o o o o X X o o o o o o o o o o o o o o o o o o o o o o o o o o o o o o o o o o o o o o o o o X o o o X o o X o o o o o o o X X X X X X o o X     X X . + @ G $.X.O.O.O...O...O.O.O...O.O...O.O.O.O.O.O.O.O.O.O.O.O.O.O.O.O.O.O.O.O.O.O.O.O.O.O.O.O.....O.O.O.O.O.O.O.O.O.O.O...................O.............O.O.....O.O.....O.....O.O.O.O.O.O.O.O...O.O.O...O...O.O.O.O.O.O.O.O.O.O.O.O.O.O.O.O.O.O.O.O.O.O.O.O.O.O.O.....O.O.O.O.O.O.O.O.O.O.O.O.O.O.O.O.O.O.O.O.O.O.O.O.O.O.O.O.O.O.O.O.O.O.O.O.O.O.O.O.O.O.O.O.O.O.O.O.O.O.O.O.O.O.O.O.O.O.O.O.O.O.O.O.....O.O.O.O.O.O.O.O.O.O.O.O.O.....O.O.O.O.O.O.....O.O.O.O.O.O.+.+.O.O.O.O.O.+.O.O.O.O.O.O.O.O.O.O.O.O.O.O.O.O...O.O.O.O.O.O.O.O.O.O.O.O.O.O.O.O.O.O.O.O.O.O.O.O.O.O.O.O.O.O.O.O.O.O.O.O.O.O.O.O.O.O.O.O.O.O.",
"o o o o X o o o o o o o X X o o o o o o o o o o o o o o o o o o o o o o o o o o o o o o o o o X X o o o o o o o o o o o o o X X o o o o o o o o o o o o o o o o X o o o o o o o o o o o o o o o o o o o o o o o o o o o o o o o o o o o o o o o o o o o o o o o o o o o o o o o o o o o o o o o o o o o o o o o o o o o o o o o o o o o o o o o o o o X X X o o o o o o o o o o o o o o o o o X o o X X o o o o o o o o o o o o o o o o o o o o o o o o o o o o o o o o o o o o o o o o o o o o o o o o o o o o o o o o o o o o o o o o o o o o o o o o o o o o o o o o o o o o o o o o o o o o o X o o o o o o o o o o X o o o o o o o o o o X o o o o o o o o o o o o o o o o o o o o o o o X o o o o o o o o o o o o o o o o o o o o o o o o o o o o o o o o o o o o o o o o o o o o o o o o o o o o o o o o o o o o o o o o o o o o o o o o o o o o o o o o o o o o o o o o o o o o o o o o o o o o o o o o o o o o o o o o o o o o o o o o o o o o o o o o o o o o o o o o o o o o o o o o o o o o o o o o o o o o o o o X X o o o o o o o o o o o o o o o o o o o o o o o o o o o X o o o o o o o o o o o o o o o o o o o o o o o o o o o o o o o o o o o o o o o o o o o o o o o o o o o o o o o o o o o o o o o o o o o o o o o o o o o o o o o o o o o o o o o o o o o o o o o o o o o o o o o X X o o o o o o o o X o o X X X X X X o o o X X X X X X o o X     X + . . 0 $.@...O...........................O.O.O...O.O...O.O.........O...O.O.......O...O.....O.......O.O...O.O...O.O.O.....O.O.............................O.O.O.....O.O.O.O.O.O.O.O.O.O.O.O.O.O.O.O.O.O.......O.O.O.O...O.O.O.O...O.O.O.O.O.O.O.O.O.........O.O.O.O.O.O.....O.O.O.O.O.O.O.O.O.O.O.O.O.O.O.O.O.O...O.O.O.O.O.O.O.O.O...O.O.O.O.O.O.O.O.O.O.O.O.O.O.O.O.O.O.+.O.O.O.O.O.O.O.O.O.O.O.O.O.O.O.O.O.O.O.O.O.O.O...O.O.O...O.O.O.O.O.O.O.O.O.....O.O.O.O.O.O.O.O.O.O.O.O.O.O.O.O.O.O.O.O.O.O.O.O.O.O.O.O.O.O.O.....O.O.O.O.O.O.O.O.O.O.O.O.O.O.O.O.O.O.O.O.O.O.O.O.O.O.O.O.O.O.O.O.O.O.O.O.O.O.O.O.O.O.O.O.",
"o o o o o o o o o o o o X X o o o o o o o o o o o o o o X o X X o o o o o o o o o o o o o X o o o o o o o o o o o o o o o o o X o o o o o o o X o o o o o o o o o o o o o o o o o o o o o o o o o o o o o o o o o o o o o o o o o o o o o o o o o o o o o o o o o o o o o o o o X o o o o o X o o o o o o o X o o o o o o o o o o o o o o o o o o o o o X o o o X o o o o o o o o o o o o o o X o o o o o o o X o o o o o o o o o o o o o o o o o o o o o o o o o o o o o o o o o o o o o o o o o o o o o o o X o o o o o o o o o X o o o o o o o o o o o o o o o o o o o o o o o o o o o X o o o o o o o o o o o o o o o o o o o o o o o o o o o o o o o o o o o o o o o o o o o o o o X o o X o o o o o o o o o o o o o o o o o o o o o o o o o o o o o o o o o o o o o o o o o o o o o o o o o o o o o o o o o X o o o o o o o o o o o o o o o o o o o o o o o o o o o o o o o o o o o o o o o o o o o o o o o o o o o o o o o o o o o o o o o o o o o o o o o o o o o o o o o o o o o o o o o o o o o o o o X o o o o o o o o o o o o o o o o o o o o o o o o o o o o o o o o o o o o o o o o o o o o o o o o o o o o o o o o o o o o o o o o o X o o o o o o o o o o o o o o o o o o o o o o o o o o o o o o o o o o o o o o o o o o o o o o o o o o o o o o o o o o o o o o o o o X o o o o X X o X o o o o o o o o o o o o o X X X X X X X X X X X X X X o o + X X X o . q #.o.X.X.X.X.X.O.O.......O.O...O.....O.O.O.....O.....O.O.O.O...........O.......O.O.O.O.....O.O.+.+.O.O.O.O.O...O.....O.O.O.......O.O.O.O.....O.O.O.O.O.O.O.O...O.O.O.O.O.O.O...O.O.O.O.O.O.O.O.O.O...O.O.O.O...O.O.O...O.O.O.O.O.O.O.O.O.O.O...O.O.........O.O.O.O.O.....O.O.O.O.O...O.O.O.O.....O.O.O.O.O.O.O.O.O.O.O.O.O.O...O...O.O.....O.O.O.O.O.O.O.O.O.O.O.O.+.O.O.O.O.O.O.O.O.O.O.O.O.O.....O.O.O.O.......O.O.O.O.O.O.O.O.O.O.O.O.O.O.O.O.O.O.O.O.O.O.O.O.O.O.O.O.+.O.O.O.O.O.O.O.O.O.O.O.O.O.O.O.O.O.O.O.O.O.O.O.O.O.O.O.O.O.O.O.O.O.O.O.O.O.O.O.O.O.O.O.O.O.O.+.O.O.O.O.O.O.O.O.O.O.O.O.O.O.O.O.O.O.O.",
"o o o o o o o o o o o o o o o o o o o o o o o o o o o o o o o o o o o o o o o o o o o X o o o o o o o o o o o o o o o o o o o o o o o o o X X o o o o o o o o o o o o o o o o o o o o o o X o o o o o o o o o o o o o o o o o o o o o o o o o o o o o o o o o o o o o o o o o o o X o o o o o o o o o o o o o o o o o o o o o o o o o o o o o o o o o o o o o o o o o o o o o o o o o o o o o o o o o o o o o o o o o o o o o o o o o o o o o o o o o o o o o o o o o o o o o o o o o o o o o o o o o o o o o o o o o o o o o o o o o o o o o o o o o o o o o o o o o o o o o o o o o o o o o o o o o o o o o o o o o o o o o o o o o o o o o o o o o o o o o o o o o o o o o o o o o o o o o o o o o o X o o o o o o o o o o o X X o o o o o o o o o o o o o o o o o o o o o o o o o o o o o o o o o o o o o o o o o o o o o o o o o o o o o o o o o o o o o o o o o o o o o o o o o o o o o o o o o o o o o o o o o o o o o o o o o o o o o o o o o o o o o o o o o o o o o o o o o o o o o o o o o o o o o o o o o X o X X o o o o o o o o o X o o o o o o o o o o o o o o o o o o o o o o o o o o o o o o o o o o o o o o o o o o o o o o o o o o o o o o o o o o o o o o o o o o o o o o o o o o o o o o o o o o o o o o o X X o o o o o o o o o o o o o o o o o o o o o o o o o o o o o o o o o o o o o o o o o o o o o o o o o X X X X X X X X X X X o o X o X X X + . 5 #.X...O.O.+.O.....O.O.....O.O.O.O.O.....O.O.O.O.O.O...O.O.O.O.O.O.O.....O.O.O.....O.O.....O...O.O.O.O.O.O.O.O.O...O.O.O.O.O.O.O.O.O.O.O.O.O.O.O.O.O.O.O.O.O.O.O.O.O.O.O.O.O.O.O.O.O.O.O.O.O.O.O.O.O.....O.O.....O...O.O.....O.O.O.O.O.O.O.O.O...O.O.O.O.......O.O.O.O.O.O.O.O.O.O.O.......O...........O.O.O.O.O.O.O.O.O.+.+.O.O.O.O.O.O.O.O...O.O.O.O.O.O.O.O.O.O.O.O.O.O.O.O.O.O.O.O.O.O.O.O.O.O.....O.O.O.O.O.O.O.O.O.+.+.O.O.O.O.O.O.O.O.O.O.O.............O.O.O.O.O.O.O.O.O.O.O.O.O.O.O.O.O.O.O.O.O.O.O.O.O.O.O.O.O.O.O.O.O.O.O.O.O.O.O.O.O.O.O.O.O.+.O.O.+.O.O.O.O.O.O.O.O.O.O.O.O.O.....O.O.O.O.O.O.O.O.O.",
"o o o o o o o o o o o o o o o o o o o o o o o o o o o o o o X o o o X o o o o o o o o X X o o o o o o o o o X o o o o o o o o o o o o o o o o o o o o o o o o o o o o o o o o o o o o X o o o o o o o o o o o o o o o o o o o o o o o o o o o o o o o o o o o o o o o o o o o o o X o o o o o o o o o o o o o o o o o o o o o o o o o o o o o o o o o o o o o o o o o o o o o o o o o o o o o o o o o o o o o o o o o o o o o o o o o o o o o o o o o o o o o o o o o o o o o o o o o o o o o o o o o o o o o o o o o X o o o o o o o o o o o o o o o o o o o o o o o o o o o o o o o o o o o o o o o o o o o o o o o X o o o o o o o o o o o o o o o o o o o o o o o o o o o o o o o o o o o o o o o o o o o X o o o o o o o o o X o o o o o o o o o o o o o o o o o o o o o o o o o o o o o o o o o o o o o o o o o o o o o o o o o o o o o o o o o o o o o o o o o o o o o o o o o o o o o o o o o o o o o o o o o o o o o o o o o o o o o o o o o o o o o o o o o o o o o o o o o o o o o o o o o o o o o o X o o X X o X X o o o o o o o o o o o o o o o o o o o o o o o o o o o o o o o o o o X o o o o o o o o o o o o o o o o o o o o o o o o o o o o o o o o o o o o o o o o o o o o o o o o o o o o o o o o o o o o o o o o o o o o o o o o o o o o o o o o o o o o o o o o o o o o o o o o o o o o o o o o o o o o o o o o X X X X o o X X X + X o X X X X X . . # } $.X.....O.O.O.O.....O.O.O.O.O.O.O.O.......O.O.O.O.........O.O.O.O.O.O.O.O.O.O.O.O.......................O.O.O.O...O.O...O.O.O.O.O.O.O...O.O.O.O.O.O.O.O.O.O.............O.O...O.O.O.O.O.O.O.....O.O.O.......O.......O.O.O...O.O.O.O.O.O.O.O.O.O.O.O.O.O.O.O.O.O.O.O.O.O.O.O.O.O.O.O.O.O.O.O.O.O.O.O.O.O.....O.O.O.O.O.O.O.O.O.+.O.O.O.O.O.+.O.O.O.+.O.O.O.O.O.O.O.O.O.O.O.O.....O...O.O.O.O.O.O.O.O.O.O.O.O.O.O.O.O.O.O.O.O.O.O.O.O.O.O.O.O.O.O.O...............O.O.O.O.O.O.O.O.O.O.O...O.O.O.O.O.O.O.O.O.O.O.O.O.O.....O.O...O.O.O.O.O.O.O.O.O.O.O.O.O.O.O.O.O.O.O.O.O.O.O.O.O.O.O...O.O.......O...O.O.O.O.O.O.",
"o o o o o X o o o o o o o o o o o o o o o o o o o o o o o o o o o o o o o o o o o o o o o o o o o o o o o o o o o o o o o o o o o o o o o o o o o o o o o o o o o o o o o o o o o o o o o o o o o o o o o o o o o o o o X o o X o o o o o o o o o o o o o o o o o o o o o o o o X o o o o o o o o o o o o X X o o o o o o o o o o o o o o o o o o o X o o o o o o o o o o o o o o o o o o o o o o o o o o o o o o o o o o o o o o o o o o o o o o o o o o o o o o o o o o o o o o o o o o o o o o o o o o o o o o o o o o o o o o o o o o o o o o o o o o o o o o o o o o o o o o o o o o o o o o o o o o o o o o o o X X X o o o o o o o o o o o o o o o o o o o o o o o o o o o o o o o X o X o o o o o o o o o o o o o o o o o X o o o o o o o o o o o o o o o o o o o o o o o o o o o o o o o o o o o o o o o o o o o o o o o o o o o o o o o o o o o o o o o o o o o o o o o o o X o o o o o o o o o o o o o o o o o o o o o o o o o o o o o o o o o o o o o o o o o o o o o o o o o o o o o o o o o o o o X o o o X o o o o o o o o o o o o o o o o o o o o o o o o o o o o o o o o o o o o o o o o o o o o o o o o o o o o o o o o o o o o o o o o o o o o o o o o o o o o o o o o o o o o o o o o o o o o o o o o o o o o o o o o o o o o o o o o o o o o o o o o o o o o o o o o o o o o o o o o o o o o o o o o o o o o o o o X X X X X X X X X X + + X X X   . . G $.X.......O.O.O.O...........O.O.O.O.O.......O.O.O.O.O.O.....O.O.O.O.O.O.O.O.O.O.O.O.O.O.O.O.O.O.....O.O.O.O.....O.O...O.O.O.O.O.O.....O.O.O.O.....O.O.O.O.....O.............................O.O.......O.O.O.O.O.O.....O.O.O.O.O.O.O.O.O.O.O.O.O.O.O.O.O.O.O.O.O.O.O.O...O.O.O.O.O.O.O.O.O.O.O.O.O.O...O.O.O.O.......O.O.O.O.O.O.O.O.O.O.O.O.O.O.O.O.O.O.O.O.O.O.O.O.O.O.O.O.O.O.O.O.O.O.O.O.O.O.O.O.O.O.O.O.O.O.O.O.O.O.O.O.O.O.O.O.O.O.O.O.O.O.O.O.O.O.O.O.O.O.O.O.O.O.O.O.O.O.O.O.O.O.O...O.O...O.O.O.O.O.O.O.O.O.O.O.O.O.O...O.O.O.O.O.O.O.O.O.O.O.O.O.O.O.O.O.O.O.O.O.O.O.O.O...O.O.O.O.O.....O.O.O.O.O.O...O.",
"o o o o o o o o o o o o o o o o o o o o o o o o o o o o o o o o o o o o o o o o o o o o o o o o o o o o o X o o X o o o o o o o o o o o o o o X o o o o o o o o o o o o o o o o o o o o o o o o o o o o o o o o o o o o X o o o o o o o o o o o o o o o o o o o o o o o o o o o X o o o o o o o o o o o o o X o o o o X o o o o o o o o o o o o o o o X o o o o o o o o o o o o o o o o o o o o o o o o o o o o o o o o o o o o o o o o o o o o o o o o o o o o o o o o o o o o o o o o o o o o o o o X o o X o o X o o o o o o o o o o o o o o o o o o o o o o o o o o o o o o o o o o o o o o o o o o o o o o o o o o o o o o o o o o o o o o o o o o o o o o o o o o o o o o o o o o o X o o o o o o o o o o o o o o o o o o o X o o o o o o o o o o o o o o o o o o o o o o o o o o o o o o o o o o o o o o o o o o o o o o o o o o o o o o o o o o o o o o o o o o o o o o o o o o o o o o o o o o o o o o o o o o o o o o o o o o o o o o o o o o o o o o o o o o o o o o o o o o o o o o o o o o o o o o o o o X o o o X o o o o o o o X o o o o o o o o o o o o X X X o o o o o o o o o o o o o o o o o o o o o o o o o o o o o o o o o o o o o o o o o o o o o o o o o o o o o o o o o o o o o o o o o o o o o o o o o o o o o o o o o o o o o o o o o o o o o o o o o o o o o o o o o o o o o o o o o o o o o o o o o o X o o X X X o o o o o X X         X + . q #.X...O...X...................O.......O.........O.............O.O...O.O.O.......O.O.O.O.O.O.O.O.O.O...O.O.O.O.O...........O.O.O.O.O.O.O.O.O.O.O.O.O.O.O.O.O.......O...............O.O.O.O.....O.O.....O.O.O.O.O.O.O.O.......O.O.O.O.O.O...O.O.O.O.O.O.O.O.....O.O.O.O.O.O.O.O.O.O.O.O.O.O...O.O.O.O.O...O.O.O.O.O.O.O.O.O.O.O.O.O.O.O.O.O.O.O.O.O.O.O.O.O.O.O.O.O.O.O.O.O.O.O...O.O.O.O.O.O.O.O.O.O.O.O.O.O.O.O.O.O.O.O.O.O.O.O.O.O.O.O.O.O.O.O.O.O.O.O.O.O.O.O.O.O.O.O.O.O.O.O.O...O.O.O.O.O.O.O.O.O.O.O.O.O.O.O.O.O.O.O.O.O.O.O.O.O.O.O.O.O.O.O.O.O.O.O.O.O.O.O.O.O.O...O.O.O.O.O.O.O.O.O.O.O.O.O...O.O.O.O.O.....",
"o o o o o o o o o o o o o o o o o o o o o o o o o o o o o o o o X o o o o o o o o o o o o o o o o o o o o X o o o o o o o o o o o o o o o o o o o o o o o o o o o o o o o o o o o o o o o o o o o o o o X o o o o o o o o o o o o o o o o o o o o o X o o o o o o o o o o o o o o o o o o o o o o o o o o o o o o o o o o o o o o o o o o o o o o o o o o o o o o o o o o o o o o o o o o o o o o o o o o o o o o o o o o o o X o o o o o o o o o o o o o o o o o o o o o o o o o o o o o X o o o o o o o o o o X o o o o o o o o o o o o o o o o o o o o o o o o o o o o o o o o o o o o o o o o o o o o o o o o o o o X o o o o o o o o o o o o X o o o o o o o o o o o o o o o o o o o o o o o o o o o o o o o o o o o o o o o o o o o o o o o o o o o o o o o o o o o o o o o o o o o o o o o o o o o o o o o o o o o o o o o o o o o o o o o o o o o o o o o o o o o o o o o o o o o o o o o o o o o o o o o o o o o o o o o o o o o o o o o o o o o o o o o o o o o o o o o o o o o o o o o o o o o o o o o o o X o o o o o o o o o o o o o o o o o o o o o o o o o o o o o o o o o o o o o o o o o o o o o o o o o o o o o o o o o o o o o o o o o o o o o o o o o o o o o o o o o o o o o o o o o o o o o o o o o o o o o o o o o o o o o o o o o o o o o o o o o o o o o o o o o o o o o o o o o o o o o o o o o o o o o o X X X X X X X X o X X X           . 5 #.$...O.O.O...........O.O.O.O.O.O.O.O...................O.............O.O...O.........O.O.O.O.O.O.O.O.O.O...O.O.O.O...O.O.........O.O.O.O.O.O.O.O.O.O.O...O.O.O.O.O.O.O.O.O.O.O.....O.O.O.O.O.....O.O.O.O.O.O.O.O.O.O.O.O.........O.O...O.O...O.O.......O.O.O.O.....O.O.O.O.O.O.O.O.O.O.......O.....O.....O.O.O.O.O.O.O.O.O.O.O.O.O.O.O.O.O.+.O.O.O.+.O.O.O.O.O.O.O.O.O.O.O.O.O.O.O.O.O.O.O.O.O.O.O.O.......O.O.O.....O.O.O.O.O.O.O.O.O.O.O.O.O.O.O.O.....O.O.O.O.O.O.O.......O.O.O.O.O.O.O.O.O.O.O.O.O.O.+.O.O.O.O.O.O.O.O.O.O.O.O.O.O.O.O.O.O.O.O.O.O.O.O.O.O.O.O.O.O.O.O.O.O.O.......O.O.O.....O.O.....O.....O.O...",
"o o o o o X o o o o o o o o o o o o o o o o o o o o o o o o o o o o o o o o o o o o o o o o o o o o o o o o o o o o o o o o o o o X o o o o o o o o o o X X o o o o o o o o o o o o o o o o o o o o o o o o o o o o o o o o o o o o o o o o X X o o o o o o X o o o o o o o o o o o o o o o o o o o X X X X o o X o o o o o o o o o o X o o o o o o o o o o o o o o o o o o o o o o o o o o o o o o o o o o o o o o o o o o o o o o o o o o o o o o o o o o o o o o o o o o o o o o o o o o o o o o o o o o o o o o o o o o o o o o o o o o o o o o o o o o o o o o o o o o o o o o o o o o o X o o o o o o o o o o X X o o X o o o o o o o o o o o o o o o o o o o o o o o o o o X X o o o o X o o o o o o o o o o o o o o o o o o o o o o o o o o o o o o o o o o o o o o o o o o o o o o o o o o o o o o o o o o o o o o o o o o o o o o o o o o o o o o o o o o o o o o o o o o o o o o o o o o o o o o o o o o o o o o o o o o o o o o o o o o o o o o o o o o o o o o o o o o o o o o o o o o o o X o o o o o o o o o o o o o o o o o o o o o o o o o o o o o o o o X X o o o o o o o o o o o o o o o o o o o o o o o o o o o o o o o o o o o o o o o o o o o o o o o o o o o o o o o o o o o o o o o o o o o o o o o o o o o o o o o o o o o o o o o o o o o o o o X o o o o o o o o o o o o o o o o o o o o X X X X o o o X X X o o X X X o X X X   +     . . % } %...O.O.O.O.O...........O.O.O.O.O.O.O.O.O.O.O.O...........O.O...O.O.........O.O.............O.O.O.O.O.O.O.O.O.O...O.O.O.O.O.O...O.O.O.O.O.O.O...O.O.O.O.O.O.O.O.O.O.O.O.O.O.O.O.O.....O.........O.O.O.O.O.O.O.O.....O.O...O.......O.O.O.O.O.O.O.O.O.O.O...O.O.O.O.O.....O.O.O.O.O...O.O.O...O...O.....O.O...O.O.O.O.O.O.O.O.O.O.O.O.O.O.O.O.O.O.O.O.O.O.O.O.O.O.O.O.O.O.O.O.O.O.O.O.O.O.O.O.O.O.O.O.O.O.....O.O.O.......O.O.O.O.O.O.O.O.O.O.O.O.O.O.O.O.O...O.O...O.O.O.O.O.O.....O.O.O.O.O.O.O.O.O.O.O.O.O.O.O.O.O.O.O.O.O.O.O.O.O...O.O.O...O.O.O.O.O.O.O.O.O.O.O.O.O.O.O.O.O.O.O.O.O.O.O.O.O.O.O.O.O.......O...O...",
"o o o o o X X o o o o o o o o o o o o o o o o o o o o o o o o o o o o o o o o o o o o o o o o o o o o X X X X o o o o o o o o o o X o o o o o o o o o o X o o o o X X o o o o o o o o o o o o o o o o o o o o o o o o o o o o o o o o o o o o o o o o o o o o o o o o o o o o o o o o o o o o o o o o o X X o o o o o o o o o X o o o o o o o o o o o o o o o o o o o o o o o o o o o o o o o o o o o o o o o o o o o o X o o o o o o o o o o o o o o o o o o o o o o o o o o o o o o o o o o o o o o o o o o o o o o o o o o o o X X o o o o o o o o o o o o o o o o o o o o o X o o o o o X X o o o o o o o o o X X X X X X X o o o o o o o o o o o o o o o o o o o o o o o o o o o o o o X X o o X o o o o o o o o o o X o o X X o o o o o o o o o o o o o o o o o o o o o o o X X o o o o o o o o o o o o o o o o o o o o o o o o o o o o o o o o o o o o o o o o o o o o o o o o o o o o o o o o o o o o o o o o o o o o o o o o o o o X o o o o o o o o o o o o o o o o o o o o o o o o o o X X o o o o o o o o o o o o o o o o o o o o o o o o o o o o o o o X o X X o o o o o o o o o o o o o o o o o o o o o X o o o o o X o o o o o o o o o o o o o o o o o o o o o o o o o o o o o o o o o o o o o o o o o o o o o o o o o o o o o o o o o o o o o o o o o o o o o o o o o o o o o o o o o o o o o o o o X X o X o o o X X X o o X X X X X X X X X   . . . ] $.X.O.O.O.O.O.O.O.O.......O.O.O.O.O.O.O.O.O.O.O.O.....O.O.........O.O.O.O.....O.O.O.O...............O.O.O.O.O.O.O.O.O.O.O.O.O.O.O.......O.O.....O.........O.O.O.O...O...O.O...O.........O.O.O.O.O.O.O.O.O.O.O.O.O.........O.O.......O.O.O.O.O.O.O.O.O.O...O.....O.O.O.O.........O.O.O...O.O.O.O.....O.O.O.O.O.O.O.O.O.O.O.O.O.O.O.O.O.O.O.O.O.O.O.O.O...O.O.O.O.O.O.O.O.O.O.O.O.O.O.O.O.O.O.O.O.O.O.O.O.O.O...O.O.O.O...O.O.O.O.O.O.O.O.O.O.O.O.O.O.O.O.O.O.O.O.O.O.O.O.O.....O.......O.O.O.O.O.O.O.O.O.O.O.O.O.O.O.O.O.O.O.O.O.O.O.O.O.O.O.......O.O.O.O.O.O.O.O.O.O.O.O.O.O.O.O.O.O.O.O.O.O.O.O.O.O.O.O.O.O.O.O.O.O.O.",
"o o o o o o o o o o o o o o o o o o o o o o o o o o o o o o o o o o o o o o o o o o o o o o o o o o o o o o o o o o o o o o o o X X X o o o o o o o o o X o o o o o o o o o o o o o o o o X o o o o o o o o o o o o o X X X X o X X X o X X o o o o o o o o o o o o o o o o o o o o o o o o o o X o o o X X o o o o o o o o o o o o o o o o o o o o o o o o o o o o o o o o o o o o o o o o o o o o o o o o o o o o o o o o X X o o X o o o o o o o o o o o o o o o o o o o o o o o o o o o o o o o o o o o o o o o o o o o X X o X X X o o X X o o o o o o o o o o o o o o o o o o o o o o o o o o o o o o o o X X X X X X X X o o o o o o o o o o o o o o o o o o o o o o o o o X X X X X X X X X X X o o o o o o o o o o o o o o o o o o X o o o o o o o o X o o o o o o o o o o X o o o o o o o o o o o o o o o o o o o o o o o o o o o o o o o o o o o o o o o o o o o o o o o o o o o o o o o o o o o o o o o o o o o o o o o o o o o o o o o o o o o o o o o o o o o o o o o o o o o o o o o o o o o o o o o o o o o o o o o o o o o o o o o o o o o o o o o X o X o o o o o o o o o o o o o o o o o o o o o o X o o o o o o o o o o X o o o o o o o o o o o o o o o o o o o o o o o o o o o o o X o o o o o o o o o o o o o o o o o o o o o o o o o o o o o o o o o o o o o o o o o o o o o o o o o o o o o X o o X o o o X X X X o o o + X X X   X X . . . 0 $.X.X.O.O.O.O.O.O.O.......O.O...O.O...O.O.O.O.O.O.O.....O.O.O.O...........O.O.O...O.O.O.O.......O.......O.O.O.O.O.O.O.O.O.O.O.O.O.O.O.O.O.O.O...........O.O.O.O.O.O.O.O.O.O.O.O.O.O.O.O.O.O.O.O.O.O.....O.O.O.O.O.O.O...........O.O.O.O.O.O.O.O.O...O.O.O.O.O.....O.O.O.O...O.O...O.O.O.O.....O.O.O.O...O.O.O.O.O.O.O.O.O.O.O.O.O.O.O.........O.O.O.O.O.O...O.O.O.O.O.O.O.O.O.O.O.O.O.O.O.O.O.O.O.O.O.O.O.O.O.O.O.O.O.O.O.O.O.O.O.O.O.O.O.O.O.O.O.O.O.O.O.O.O.O.O.O.O.O.O.O.O.O.O.......O.O.O.O.O.O.O...O.O.O.O.O.O.O.O.O.O.O.O.O.O.O.O.O.O.O.O.O.O.O.O...O.O.O.O.O.O.O...O.........O.O.O.O.O.....O.O.O.O.O.O.O.O.O.O.O.O.",
"o o o o o o o o o o o o o o o o o o o o o o o o o o o o o o o o o o o o o o o o o o o o o o o o o o o o o o o o o o o o o o o o X o o o o o o o o o o o o o o o o o o o o o o o o o o o o o o o o o o o o o o o o o o X X X X X X X X X X X o o o o o o o o o o o o o o o o o o o o o o o o o o o o X X o o o o o o o o o o o o o o o o o o o o o X o o o o o o o o o o o o o o o o o o o o o o o o o o o o o o o o o o X X X X X X X o o o o o o o o o o o o o o o o o o o o o o o o o o o o o o X o o o o o o o o o o o X X X o X X X X X X o X o o o o o o o o o o o o o o o o o X o o o o o o o o o o o X X X X X X X X X X o o o o o o o o o o o o o o o o o o o o o o o o o o o o X X X X X X X X X o o o o o o o o o o X o o o o o o o o o o o o o o o o o o o o o o o o o X o X X o o o o o o o o o o o o o o o o o o o o o o o o o o o o o o o o o o o o o o o o o o o o o o o o o o o o o o o o o o o o o o o o o o o o o o o o o o o o o o o o o o o o o o o o o o o o o o o o o o o o o o o o o o X o o o o o o o o o o o o o o o o o o o o o o o o o o o o o X o o o o o o o o o o o o o o o o o o o o o o o o o o o o o o o o X o o o o o o o o o o o o o o o o o o o o o o o o o o o o o o o o o o o o o o o o o o o o o o o o o o o o o o o o o o o o o o o o o o o o o o o o o o o o o o o o o o o o X X X o X X X X X X X X X + X X     X   . . 5 #.X...O.O.O.....................................O.O.O.O...O.O.....O.O...O.....O.O.O.O.O.O.O.O.....O.O.O.O.O.O.O.O.O.O.O.O.O.O.O.O.O.O.O.O.O.O.O.O.....O.O...O.O.O.O.O.O.O.O.O.......O.O.O.O.O.......O.O.O.O.O.O.O.O...O.............O.O.O.O.O.O.......O.O.O.O.O.O.O.O.O.O...O.O.........O.O.......O.O.O.O.O.O.O.O.O.O.O.O.O.O.O.O.O.O.O.O.O.......O.....O.O.O.O.....O...O.O...O.O.O.O.O.O.O.O.O.O.O.O.O.O.O.O.O.O.O.O.O.O.O.O.O.O.O.O.O.O.O.O.O.O.O.O.O.O.O.O.O.O.O.O.O.O.O.O.O.O.O.O.O.O.O.O.O.O.O.O.O.O.O.O.O.O.O.O.O.O.O...O.O.O.O.O.O.O.O.O.O.O.O...O.O.O.O.O.O.O.O.O.O.O...O.O.O.O...O.O.O.O.O.........O.O.O.O.......O.",
"o o o o o o o o o o o o X o o o o o o o o o o o o o o o o o o o o o o o o o o o o o o o o o o o o o o o o o o o o o o o o o o o o o o o o o o o o o o o o o o o X o o o o o o o o o o X X o o o o o o o o o o o o o o X X X X X X X X X X X o o o o o o o o o o o o o o o o o o o o o o o o o o o o o o o o o o o o o o o o o o o o o o o X o X o o o o o o o o o o o o o o o o o o o o o o o o o o o o o o o o o o o o o X X X X X X X X X o o o o o o o o o o o o o o o o o o o o o o o o o X X o o o o o o o o o o o X X X X X X X X X X X o X X o o o o o o o o o o o o o o o o o o o o o o o o o o o o X X X X X X X X X X X o o o o o o o o o o o o o o o o o o o o o o o X X X X X X X X X X X X X X o o o o o o o o o o o o o o X o o X o o o o X X X X o X X X X X X X X X X X X o o X o o o o o o o o o o o o o o o o o o o o o o o X o o o o o X o o o o o o o o o o o o o o o o o o o o o o o o o o o o o o o o o o o o o o o o o o o o o o o o o o o o o o o o o o o o o o o o o o o o o o o o o o o o o o o o o o o o o o o o o o o o o o o o o o o o o o o o o o o o o o o o o o o o o o o o o o o o o o o o o o o X X o o o o o o o o o o o o o o o o o o o o o o o o o o o o o o o o o o o o o o o o o o o o o o o o o o o o o o o o o o o o o o o o o o o o o o o o o o o o o o o o o o o o o o o X X o o o o o o X X X X X X X X X X       . % } %.X.O...O.O.O...O.....O.........O.O.O.........O.O...O.O.......O.................O.O...O.O.O.O.......O.O.....O.O.O.O.O.O.O.....O.................O.O.O.O.O.O...O.......O.O.O.O.O.O.O.O.O.O.O.O...........O.O.O...O.O.O.O.O...O.........O.O.O.O.O.O.....O.O.O.O.O.O.O.O.O.O.O.O.O.O.O.................O.O.O.O.O.O.O.O.O.O.O.O.O.O...O.O.O.O.O.O.O.O.O.O.O.O.O.O.O.O.O.O.O.O.O.......O.O.O.O.O.O.O.O.O.O.O.O.O.O.O.O.O.O.O.O.O.O.O.O.O.O.O.O.O...O.O.O.O.O.O.O.O.O.O.O.O.O.O.O.O.O.O.O.O.O.O.O.O.O.O.O.O.O.O.O.O.O.O.O.O.O.................O.O.O.O.O.O.O.O.O.O.O.O.O.O.O.O.O.O.O.O.O.O.O.O.O.O.O...O.O.O.O.O.O.O.O.O.O.O.O.O.O.",
"o o o o o o o o o o o o o o o o o o o o o o X X o o X X X X X X X X X X X X X X X X X X X X X X X X o o o o X X X o o X o X X o o o o o o o o o o o o o o o o o o o o o o o o o o o o o o o o o X o o o o o o o o o o X X X X X X X X X X X o X X o o o o o o o o o o X o X o o o o o o o o o o X o o X o o o o o o o o o o o o X X o o o o X X X o X o o o X X o o o o o o o o o o o o o o o o o o o o o o o o o o o X X X X X X X X X X X X X X o o o o o o o o o X X o o o o o o o o o o X o o o o o o o o o o o o X X X X X X X X X X X X X X X o o o o o o o o o o o o o o o o o o o o o o o o o o o o X X X X X X X X X X X o o o o o o o o o o o o o o o o o o o o o o o o o X X X X X X X X X X X X X X o o o o o o o o o o o o o o o o o o X X X X X X X X X X X X X X X X X X X X X X o o o o o o o o o o o o o o o o o o o o o o o o o o o o o o o o o o o o o o o o o o o o o o o o o o o o o o o o o o o o o o o o o o o o o o o o o o o o o o o o o o o o o o o o o o o o o o o o o o o o o o o o o o o o o o o o o o o o o o o o o o o o o o X o o o o o X o o o o o X o o o o o o o o o o o o o o o o o o o o o o X o o o o o o o o o o o o o o o o o o o o o o o o o o o o o o o o o o o o o o o o o o o o o o o o o o o o o o o o o o o o o o o o o o o o o o o o o o o o o o o o o o o o o o o X X o o o o o o X X X X X X X X X X X X   . . ' $.X.O.O.O.O.O.O.O.O.O.....O...........O.O.O.....O.....O.....O.....O.................O.O.....O.O.O.O...........O.O.O.O.O...O.O.O.O.O.O.......O.O...O.O.........O.............O...O.O.O.O.O.O.O.O.O.O...O.....O.O.O.O.O.O.....O.O.O.......O.O.O.O.O...O.O.O.O.O.O.O.O.O.O.O.O.O.O.O.O.O.O.O...O...O.O...O.O.O.O...O.O.O.O.O.O.O.O.O.O.O.O.O.O.O.O.O.O.O...O.O.......O.O.O.O.O.O.O.O.O.O.O.O.O.O.O.O.O.O.O...........O.O.O.O.O.O.O.O.O.O.O.O.O.O.......O.O.O.O.O.O.O.O.O.O.O.O.O.O.O.O.O...O.O.O.O.O.O.O.O.O.O.O.O...O.O.O.O.O.O.O...O.....O.O.O.O.O.O.O.O.O.O.O.O.O.O.O.O.O.O.O.O.O.O.O.O.O.O.O.O...O.O.O.O.O.O.O.O.O.O.O.O.O.O.",
"o o o o o o o o o o o o o o o o o o o o o X X o o X X X X X X X X X X X X X X X X X X X X X X X X X X o X X X X X X X X X X X X o o o o o o o o o o o o o o o o o o o o o o o o o o o o o o o o o o o o o o o o X X X X X X X X X X X X X X X X X X o o o o o o o o o X o o o o o o X o o o o o o o o o o o o o o o o o o o o o o X X X o o o o X X X X X X o o X o o X o X X o X X o o o o o o o o o o o o o o o o o X X X X X X X X X X X X X X X o o o o o o o o X X X X o o o o o o o o o o o o X o o o o o o o X X X X X X X X X X X X X X X o o o o o o o o o o o o o o X o o o o o o o o o o o o X X X X X X X X X X X X X X o o o o o o o o o o o o o o o o o o o o o o o X o X X X X     X X X X X X X o o o o o o o o o o o o o o X X X X X X X X X X X X X X X X X X X X X X X X X X o o o o o o o o o o o o o o o o o o o o o o o o o o o o o o o o o o o o o o o o o o o o o o o o o o o o o o o o o o o o o o o o o o o o o o o o o o o o o o o o o o o o o o o o o o o o o o o o o o o o o o o o o o o o o X X o o o o o X X o X X o o X o o X o o o o o o X o o o X o o o o X X X X X X X o o o o o o o o o o o X X o o o o o o o o o o o o o o o o o o o o o o o o o o o o o o o o o o o o o o o o o o o o o o o o o o o o X o o o o o o o o o o o o o o o o o o o o o o o o o o o o o o o o o o X X o o o o o o X X o o X X X X X X X o . . 5 #.X.O.O.O.O.O.O.O.O...........O.O.O.O.....O.O.....O.O.O.O.....O.....O.O.O.O.O.O.........O.O.........O.O.O.O...O.O.O.O.O.O.O.O.O.O.O.O.O.O.O.O.O.O.O.O.O.O.O.O.O.O.O...O.O...........O.O.O.O.O...O...O.O.O.O.O.O.O.O.O.O.O.O.O.O.O.O.O.O.O.O.O.O.O.O.O.O...O.O.O.....O.O.O.O.O.O.O.O.O...O.O.O.O.O.O.O.O.O.O.O.O.O.......O.O...O.O.O.O.O.O.O.O...O.O.......O.O.......O.O.O.O.O.O.O.O.O.O.O.O.O.O.O.O.O.O.O.O.O.O.O.O.O.O.O.O.O.O.O.O.O.O.O.O.O.O.O.O.O...O.O.O.O.O.O.O.O.O.O.O.O.O.O.O...O.O...........O.O.O.O.O.O.O.O.O.O.O.O.O.O.O.O.O.O.O.O.O.O.O.O.O.O.O.O.O.O.O.O.O.....O.O.O.O.O.O.O.O.O.O.O.O.O.O.O.O.O.O.O.O.O.O.O.O.O.O.",
"o o o o o o o o o o o o o o o o o o o o o X o X X X X X X X X X X X X X X X X X X X X X X X X X X X X X X X X X X X X X X X X X X X o o X o o o o o o o o o o o o o o o o o o o o o o o o o o o o o o o o o o o X X X X X X X X X X X X X X X X X X o o o o o o o o o o o o o o o o o o o o o o o o o o X o o o o o o o o o o o X X o o X X X X X X X X X X X X X X X X X X X X X X X o o o o o o o o o o o o o o o o X X X X X X X   X X X X X X X o X o o o o o o o o X o o o o o o o o o o o o o o X o o o o X X X X X X X X X         X X X X X o o o o o o o o o o o o o o o o o o o o o o o o o o X X X X X X X       X X X X X o o o o o o o o o o o o o o o o o o o o o o X X X X           X X X X X X X o o o o X X X o o o o o o X X X X X X X X X X X X X X X X X X X X X X X X X X X o o o o o o o o o o o o o o o o o o o o o o o o o o o o o o o o o o o o o o o o o o o o o o o o o o o o o o o o o o o o o o o o o o o o o o o o o o o o o o o o o o o o o o o o o o o o o o o o X X o o X o o o o o X X X o o o o o X o o o o o o o o o o o o X X o X X o o o o o o o o o o o o o o o o X X o o X X o o X o X X X X o o o X o X X o o o X o o X o o o o o o o o X o o o o o o o o o o o o o o o o o o o o o o o o o o o o o o o o o o o o o o o o o o o o o o o o o o o o o o o o o o o o o o o o o o X X X o o o X X o X X X X     X + . % | %.X.O.O.O...O.O.O.O.......O.O.O.......................O.O.....O.O...O.O.O.O.O.O.O.........O.O...........O.O.O...O.O.O.O.O.O.O.O.O.O.O.....O.O.O.O.O.O.O.O.O.O.O.O.O.O.....O.O.O.O.O.....O.O.O.O.O.O.O...O.O.O.O.O.O.O.O.O.O.O.O.O.......O.O.O.O...O.O.O...............O.O.O.O.O.O.O.O.O.O.O.O.O.O.O...O.O.O.O.O.O.....O.O.O.O.O.....O.O.O.O.O.O...O.O.O.O.O.....O.O.O...O.O.O.O.O.O.O.O.....O.....O.....O.O.O.O.O.O.O.O.O.O.O.O.O.O.O.O.O.O.O.O.O.O.O.O.....O.O.O.O.O.O.O.O.O.O.O.O.O.O.O.......O.O.O.O.O.O.O.O.O.O.O.O.O.O.O.O.O.O.O.O.O.O.O.O.O.O.O.O.O.O.O.O.O.O.O.O.O.O.O.O.O.O.O.O.O.O.O.O.O.O.O.O.O.O.O.O.O.O.O.O.O.O.O.O.",
"o o o o o o o o o o o o o o o o o o o o o X X X X X X X X X X X X X X X X X X X X X X X X X X X X X X X X X X X X X X X X X X X X X X o o o o o o o o o o o o o o o o o o o o o o o o o X o o o o o o o o o o o X X X X X X X X X X X X X X X X X o o o o o o o X o o o o X o o X o o o o o o o X X X X X o o o o X X o o o o o X X o X X X X X X X X X X X X X X X X X X X X X X X X o X o o o o o o o o o o o o o X X X       X       X X X X X X X X o o o o o o o o o o o X o o X X X o o o X X o o X o o o X X X X X X X X             X X X X X o o o o o o o o o o o o o o X o o o o o o o X o X X X X X X X   X X   X X X X X X X o o o o o o o o o o o o o o o o o o o o X X X X             X X X X X X X X o X X X X X o o X X X X X X X X X         X X X X           X X X X X X X X X o o o o o o o o o o o o o o o o o o o o o o o o o o o o o o o X o o o o o o o o o o o o o o o o o o o o o o o o o o o o o o o o o o o o o o o o o o o o o o o o o o o o o o o o o o o o o o o X X X o X o o o o o X X X X X X o o o o X o o o o o o o o o o o o o X X o o X o o o o o o o o o o o o o X o o o o o X X o o o X X X o o o X o X X o o o X o o o o X o o X X X X X X o o o X X o o o o o o o o o o o o o o o o o o o o o o o o o o o o o o o o o o o o o o o o o o o o o o o o o o o o o o o X X X o o o X X o o X X X X X X           + . G $.X.O.O.O.......O.O.O.O.......O.........O.O.....O.O...........O...O.O.O...O.O.O.O.O.O...O.....O.O.O.O.........O.O.O.O.O.O.O.O.O.O.O.O.O.O.O...O.O.O.O.O.O.O.O.O.O.O...O.O.O.........O...O.O.O.O.O.O...O.........O.O.O.O.O...O...O...O.O.........O.O.O.O.O.......O.O...........O.O.O.O.O.O.O.O.O.O.O.O.....O.O.O.O.O.O.O...O.O.O.+.O.O.O.O.O.O.O.O...O.O.O.O.......O...............O.O.O.O.O.O.O...O.....O.O...O.O.O.O.O.O.O.O...O.O...O.O.O.O.O.O.O.O.O.O.O.....O.O.O.O.O.O.O.O.O.O.O.O.O.O.O.....O.O.O.O.O.O.O...O.O.O.O.O.O.O.O.O.O.O.O.O.O.O.O.O.O.O.O.O.O.O.O...O.O.O.O.O.O.O.O.......O...O.O.O.O.O.....O.O.O.O.O.O.O.O.O.O.O.",
"o o o o o o o o o o o o o o o o o o o o o X X X X X X X X X X X X X X X X X X X X X X X X X X X X   X X X X X X X X X X X X X X X X X X o o o o o o o o o o o o o o o o o o o o o o o o o o o o o o o o o o o X X X X X   X X         X X X X X X X X o o o o o X o o o o o o o o o o X o o o o o o o X o o o o o o o o o X X X X X X X X X X X X X X X X X X X X X X X X X X X X X X o X o o o o o o o o o o o o o X X     >               X X X X X o o o o o o o o o o o o o o o o X o o o o o o o o o o o X o X X X X X X             = +   o X o o o o o o o o o o o o o o o o o o o o o o o X X X X X X X X             X X X X X o o X o o o o o o o o o o o o o o o o o o X X X X   = O           X X X X X o X X X o o o o o o o X X X X X X                                     X X X X X X X o o o o o o o o o o o o o o o o o o o o o o o o o o o o o o o o o o o o o o o o o o o o o o o o o o o o o o o X o o o o o o o o o o o o o o o o o o o o o o o o o o o o o o o o o X o o o X X X o o X X o o o o o o X o o o o o o o o X o o o o o o o o o o o X o o o o o o X o o o o o o o o X o X o o o o o o X o X o o X X o o o o o o o o o o o X X o X o o o o o o o o o X X o o o o X X o X o X X X X o o o o o o o o o o o o o o o o o o o o X o o o o o o o o o o o o o o o o o o o o o o o o X X X X X o o o o o X o X X X X X       . . q #.$.X.O.O.O.O.....O.O.O.O.O.O...O.O...................O.O.........O.O.......O.O...................O.......O.O.....O.O.O.O.O.O.O.O.O.O.O.O.O.O.......O.O.O.O.O.O...O.O.....O.O.O.......O.......O.O.O.O...O.O...O.O.O.O.O.O...........O.O.............O...O.O.........O.O.O...O.O.O.O.O.....O.O.O.O.O.O...O.O.O.O.O.O.....O...O.O.O.O.O.O.O.O.O.O.O.O.O.O.O.O.O.O.O.O.....O.O.........O.O.O.O.O.O.O.O.O.O.O.O.O...O.O.O.O.O.O.O.O.O.O.O.O.O.O.O.O.O.O.O.O.O.O.O.O.O.O.O.O.O.O.O...O.O.O.O.O.O.O.O.O.O.O.O.O.O.O.O.O.O.O.....O.O.O.O...O.O.O.O.O.O.O.O.O.O.O.O.O.O.O.O.....O.O.O.O.O.O.O.O.............O.O.O.O.O.O.O...O.O.O...O.....O.",
"o X o o o o o o o o o o X o o o o o o X X X X X X X X X         X X X X     X X X X X X X X   X X   X X X X     X X X X X X X X X X X X X o o o o o X o o o o o o o o o o o o o o o o o o o o o o o o o o o X X X X X   X               X X X X X o o o o o o o o o o o o o X o o X o X X X o o o o o o o o o o o o o o X X X X X X X X X X X X X     X         X X X X X X X X X X X X X X X X X o o o o o o o o o X X X   m.f       X   X   X X X X X X o o o o o o o o o o o o o o o o o o o o o o o o o X X X X X                   a M.O   o X X X o o o o o o o o o o o o o o o o o o o o X X o X X X X X X               X X X X X X X X o o o o o o o o o o o o o o o o o X o X X   9 V.=           X X X X X X X X X o o X X X X X X X X                                           X X X X X o o o o o o o o o o o o o o o o o o o o o o o o o o o o o o o o o o o o o o o o X o o o o o o o o o o o o o o o o o o o o o o o o o o o o o o o o o o o o o o o o o o o o X X o o X o o o o X o o o o o o o X o o o o o o o X o o X o o o o o o X o o o o o o X o o o o o o o X o o o X o o o o o o X o o o o o o X X X o o o o o o o o o o o X o o X X o o X o o o o o o o o X X X o o o o X o o o o o o o X o o X X X o o X X o o o o X X o o o o o X o o o X X X X X o o o o o o o o o o o o o o o o X X o X X o X X X X + o o + + X X X   . . %  .$.X.O.O.O.O.O...................O.O.O.O...............O.O...O.O...O.O.O.O.O.O.O.O.O.....................................O.O.O.O.O.O.O.O.O.O...O.O.....O.O.O.O.O...............O.O.....O.O.O.....O.O.O.O.O.........O.....O.O.O.......O.......O.O.O.........O.O.O.......O.O.O.........O.........O...O.O.O.O.O.O.O.O.O.O.O.O...O.O.O.O.O.O.O.O.O.O.O.O.O.O.....O.O.O.O.O.O...O.O.O...O.O.O.O.O.O.O.O.O.O.O.O.O.O.O.O.O.O.O.O.O.O.O.O.O.O.O.O.O.O.O.O.O.O.O.O.O.O.O.O.O.O.O...O.........O.O.O.O.O.O.O.O.O.O.O.O.O.O.O.O.O.O.O.O.O.O.O.O.......O.O.O.O.O.O.O.O.O.O.O.O.O.O.O.O.O.O.O.O.O.O.O.O.O.O...O.O.O.O.O.O.O.O.O...O.O.O...O.......",
"o o o o o o o o o o o o o o o o o o o X X X X X X X X X                                                           X X X X X X X X X X X X o o o o o o o o o o X o o o o o o o o o o o o o o o o o o o o o o o X X X X           g E       X X X X o o o o o o o o o o o o o o o o o o o o o o X X o o o o o o o o o X o X X X X X X X X X X X X X                         X X   X X X X X X X X X o o o o o o o o o X X .   M.$X{           X X X X X X X X o o o o o o o o o o o o o o o o o o o o o o X X X X X X X                 f %XJ.+   o X X X o o o o o o o o o o o o o o o o o o o o X X o X X X X X       . M.a     X X X X X X X X o o o o o o o o o o o o o o o o X X X X X   > |.P.>             X X X X X X X X o X X X X X X X                                                 X X X X o o o o o o o o o o o o o o o o o o o o o o o o o o o o o o o o o o o o o o o o o o o o o o o o o o o o o o o o o o o o o o o o o o o o o o o o o o o o o o o o o X o o o o o o o o o o X X X o o o o o o o o X o o o o o o o o o o o o o o X o o o o o o o o o o o o o o o o o o o o o o o o o o o o o o o X X X o o o X o X o o o o o o o X o o o o o o X X o o X o o X X X o X o o o o X o o o o o o o o o X X X X o X X X o o X X X X X o o o X X o o o X X X o o o o o X X o o o o o o o o o o o o o X o o o o X X o o o o +   X X   . . . ' $.X.X.O.O.O.O.........................O.O.......O.............O.O...O...O.O.O.O.....O.O.............O...O.....O.O.....O...O.........O.O.O.O.O.O.O.O.....O.O.O.O.O.O.O...........O.O.O...........O.O.O.O.O...O.O.......O.O.O.O.O.........O.O...O.O.O.O...O.O.O.O.O.O.O.......O.........O.O.O.O.....O...O.O.O.O.O.O.O.O.O.O.........O.O.O.O.O.O.....O.O.O.O...........O.O.O.O.O.O.O.O.O.O.O.O.O.O.O.O.O.O.O.O.O.O.O.O.O.O.O.O.O.O.O.O.O.O.O.O.O.O.O.O.O.O.O.O.O.O.O.O.O.O.O.O.O.O.O.O.O.O.O.O.O.O.O.O.O.......O.O.O...O.O.O.O.O.O.O.O.O.O.O.O.O.O.......O.O.O.O.O.O.O.O.O.O.O.O.O.O.O.O.O...O.O.O.O.O.O.O.O.O.O.O.O.O.O.........O.O.O.O.",
"o o o o o o o o o o o o o o o o o o o X X X X X X X X                                                                 X     X X X X X X X X X o o o o o o o o o o o o o o o o o o o o o o o o o o o o o o o o X X X X         & [.[.:     X X X X o o o o o o o o o o o o o o o o o o o X X o o o o o o o o o o X X X o X X X X X X X X X X X                                     X X   X X X X X o X o o o o X X o X X     M.|.|.n.+           X X X X X X X X o o o o o o o o o o o o o o o o o o o o X X X X X X X               { %X%XJ.+   o X X X o o o o o o o o o o o o o o o o o o o o X X X X X X X         d =XM.      X X X X X X X o o o o o o o o o o o o o o o o o o o X X   > {.%X{.a             X X X X X X X X X X X X X X X                                                 X X X X o o o o o o o o o o o o o o o o o o o o o o o o o o o o o o o o o o o o o o o o o o o o o o o o o o o o o o o o o o o o o o o o o o o o o o o o o o o o o o o X X X o o o o o o o X o o X o o o o o o o o o o o o o o o o o o o o o X o o o X o o o o o o X X o o o X o o o o o o X o o o o o o o o o o o o o o o o o o o o o o o o o o o o o o o o o o o o o o o o o o o X X X o o o o o o o o o o o o o o o o o o o o X o o o o o o o o X o o o o o o o o o o o o o o o o o o o o X o o X X X o o o o o o o o o o o o o o o o X X     . . . q #.@.X.....O.O.O.O.O.O...........O.......O.O.O.O.......O.........O.............O.O.O.....O.O.O.O.O.......O...O.O.O.O.....O.O.O.O.O.O.O.O.O.O.O.O.O.....................O.O...O.O.........O.O.O.....O.O.O.O.O.O.O.O.O...........O.O.O.........O.......O.O.O.O.O.O.O.O.O.O.O.O.....O.....O.O...O.O.O.O.O.....O.O.O.O.O.O.O.O.O.........O.O.O.O.O.O.O.O.O.O.O.O.O.O.O.O.....O.O.O...O.O.O.O.....O.O.O.O.O.O.O...O.O.O.O.O.O.O.O.O.O.O.O.O.O.O.O.O.O.O.O.O.O.O.O.O.O.O.O.O.O.O.O.O.O.O.O.O.O.O.O.O.O.O.O.O.O.O.O...O.O.O.......O.O.O.O.O.O.O.O.O.O.O.O.O.O.O.O.O.O.O.O.O.O.O.O.O.O.O.O.O...O.O...O.O.O.O.O.....O.....O.O.O.O.O.O.O.O.O.O.O.O.",
"o o o o X o o o o o o o o o o o o o o X X X X X X X                                                                           X X X X X X X X X o o o o o o o o o o o o X o o o o o o o o X o o o o o o o X X X X X           { |.|.{   .   X X X X o o o o o o o o o o o o o o o X o o X X o o o o o o o o o X X X X X X X X X X   X X X                                       X       X X X X X X X X X o o X o o X X     M.|.{.|.M.O           X X X X X X X X o o o o o o o o o o o o o o o o o o o X X X X X X X           + n.%X|.$XP.+   X X X X X o o o o o o o o o o o o o o o o o o X o o X X X X X       : {.$X|.a       X X X X X X o o o o o o o o o o o o o o o o o o X X     > |.$X%X|.f             X X X X X X X X X X X                                                         X X X X o o o o o o o o o o o o o o o o o o o o o o o o o o o o o o o o o o o o o o o o o o o o o o o o o o o o o o o o o o o o o o o o o o o o o o o o o o o o o X X X o o o o X o X o o X X o X X X X o o o o o o o o o o o o o o o o o o o o o o o o o o o o o X o o X X o o o o o X o o o o o X X o o o o o o o o o o o o o X o o o o o o o X X o o o o o o o o o o X o o o o X X o o o X X o X o o o X o o o o X X X X X X X o X X X o o o X X X o o o o o o o o o o o o X o o o o X X o o o o o o X X X X o o o o o o o o o X X X X     . . % } $.X.O.....O.O.O...O.............O...........O.O.O.................O.O.O...O.....O.O.....O.....O.O.O...........O.O.O.O.....O.O.O.O.O...O.O.O.O.O.O.O.....................O.O.O.O.O...O.O...O.O...........O.......O.O.O.O...O...O.O.O.O.............O.O...O.O.O.O.O.O.O.O.O.O.O.O.O.O...O.O.O.O.O.O.O.O.O.O.O.O.O.O.O.....O.O.O.......O.O.O.O.O.O.O...O.O.O.O.O.O.O.O.O.......O.........O.O.O.O.O.O.O.O.O.O.O.O.O.O.O.O.O.O.O.O.O.O.O.O.O.O.O.O.O.O.O.O.O.O.O.O.O.O.O.O.O.O.O.O.O.O.O.O.O.O.O.O.O.O.O.O.O.O.O.O.O.O...O.O.O.O.O.O.O.O.O.O.O.O.O.O.O.O.O.O.O.O.O.O.O.O.O.O.O.O.O.O.O.O.O.O.O.O.O.O.O.O.O.O.O.O.O...O.O.O.O.O.O.O.O.O.O.O.O.",
"o o o o o o o o o o o o o o o o o o X X X X X X                                                                                   X X X X X X X X X X X X X X o o o o o X o o o o o o o o o o o o o o o o X X X X           > {.{.{.;X>   X     X X X X X X X o o o o o o o o o o o o X o o o o o o o o o o o X X X X X X X X X X X                                                         X X X X X X X X X X X X X X X   m.|.{.{.$XV.:           X X X X X X X o o o o o o o o o o o o o o o X X X X X X X X X X X         + M.%X|.|.%XJ.+   o X X X X o o o o o o o o o o o o o o o o o X o o X X X X X         m.%X|.%XJ..       X X X X X o o o o o o o o o o o o o o o o o X X X X   > |.%X|.$X%X{             X X X X X X X X X X   & > : : : : : : : : : : : : : : : > > > > > : > > : O   X X X X o X o o o o o o o o o o o o o o o o o o o o o o o o o o o o o o o o o o o o o o o o o o o o o o o o o o o o o o o o o o o o o o o o o o o o o o o o o o X X X o o o o o o o o X X o o o X X X o o o o o o X o o o o o o o o o o o o o o o o o o o o o o o o o o o o o X o o o o o o o o X o o o o o X o o o o o o X X o o o o X X o o o o o o o o o o o o o o o X o X X o o X o o o X o o o o o o o o o o o o X o o X X X X X o o o o o o X o o o X X o o o o o o o o o o o o o o o o o o o o X X X X o o o o o o X X +   X X X     . . G $.o.O.......O.O.........O.O...................O.O.O.O.............O.....O.O.O.O...O.O.O...O.O.......O...............O.........O.O.O.O.O.O.O.O.....O.O.O.......O.O.............O.O.................O.O.................O...........O.O...O.O.........O.O...O.O.O.O.O.O.O.O.O...O.O.O.O.O.O...O.O.O.O.....O.O.O.O.O.O.O.O.O.....O.O.O.O.O.O.O.O...O.O...O.O.O.O.O.O.O.O.O.O...O.O.O.........O.O.O.O.O.O.O.O.O.O.O.O.O.O.O.O.O.O.O.O.O.O.O.O.O.O.O.O.O.O.O.O.O.O.O.O.O.O.O.O.O.O.O.O.O.O.O.O.O.O.O.O.O.O.O.O.O.O.O.O.O.O.O.O.O.O.O.O.O.O.O.O.O.O.O.O.O.O.O.O.O.O.O.O.O.O.O.O.O.O.O.O.O.O.O.O.O.O...O.O.O.O.O.O.O.O.O.O.O.O.O...O.O...O.O.O.O.",
"o o o o o o o o o o o o o o o o o o X X X X X       + + + +                             .                                           X X X X X X X X X X X o o o o X X o o o o o o o o o o o o o o o o o X X X X             V.|.;X;X|.m.        X X X X X X X X o o o o o o o o o o o X o o o o o o o X o o X X X X X X X X                               + + O + .                             X X X X X X X X X X X X     n.$X{.|.|.$XP.>           X X X X X X X o o o o o o o o o o o o o o o o X X X X   X             & V.%X|.|.|.%XJ.+   o X X X X o o o o o o o o o o o o o o o o o X o X X X X X X       a %X$X$X$X%Xf       X X X X X X X o o o o o o o o o o o o o o o o o X X   : |.%X$X$X$X%Xn.+           X X X X X X X   X   f $X'.[.{.[.;X;X;X;X;X;X;X;X].{.{.|.|.;X;X;X{.;X{.;X9   X X X X o X o o o o o o o o o o o o o o o o o o o o o o o o o o o o o o o o o o o o o o o o o o o o o o o o o o o o o o o o o o o o o o o o o o o o o o o o o o o o o o o o o o o o o o o o o o o o o o o o o o o o o o o o o o o o o o o o o o o X o o o o o o o o o o o o o o o o o o o o o o o o o o o o o o o o o o o o o X o o o o o o o o o o o o o o o o o X o o o o X o o o o o o o o o o o o o o o o o o o X o o o o o o o o o o o X o o o o o X o o o o o o o o o o o o o o o o o o o o o o o o X X o o X o X X X X     X X     + . 5 #.X.....O.........O.O.O.O.O.O.O.....................O.O.O.O.......O.O...O.O.O...O.O.O.O.O.O.O.O.O...O.O.O.O.........O.O.O.O.O.O.O.O...O.O.O.O.O.O.....O.O.O.O.O.O.O.O.O.O.O.O.O.O.O.O...........O.O.O.+.O...O.O.O.O.O.O.O.O.O.........O.....O...O.O.O.O.O.O.O...O.O.O.O.O.O.O.O.O.O.O.O.O.O...O.O.O.O.O.O.O.O.O.O.O.O.O.O.O.O.O.....O.O.O.O.O.O.......O.O.O.O.O.O.O.O.O.O.O.....O.O.O.O.O.....O.O.O.O.O.O.O...O.O.O.O.O.O.O.O.O.O.O.O.O.O.O.O.O.O.O.O.O.O.O.O.O.O.O.O.O.O.O.O.O.O.O.O.O.O.O.O.O.O.O.O.O.O.O.O.O.O.O.O.O.O.O.O.O.O.O.O.O.O.O.O.O.O.O.O.O.O.O.O.O.O.O.O...O...O.O.O.O.O.O.O.O.O.O.O.O.O.O.O.O.O.O.O.O.O.O.O.+.O.O.O.O.O.O.O.O.",
"o o o o o o o o o o o o o o o o o o X X X X       9 J.J.P.P.M.m.M.M.M.M.M.M.M.M.M.M.M.M.M.V.M.M.M.M.M.V.V.V.M.M.M.n.f 9 +               X X X X X X o X o o o o o o o o o o o o o o o o o o o o o o o o X X X X           g $X{.|.;X{.{.9       X X X X X o o o o o o o o o o o o o o o X o o o o o o o o o X X X X X X X                     + a f { m.V.P.`.`.P.J.V.M.n.f a =                   X X X X X X X X X X X X   n.$X{.|.|.|.$XP.>           X X X X X X X o o o o o o o o o o o o o o o X X X X               = J.$X|.$X$X|.%XV.+   o X X X o o o o o o o o o o o o o o o o o o X X X X X X X       . P.%X$X$X#X$X`.O     X X X X X X o o o o o o o o o o o o o o o X X X X X   : ].$X$X$X$X$X%XV.+           X X X X X X       f %X|.|.|.|.$X|.|.|.|.|.|.|.|.|.$X$X|.|.|.$X|.$X|.$Xa   X X X o o o o o o o o o o o o o o o o o X X o o o o o o o o o o o o o o o o o o o o o o o o o o o o o o o o o o o o o o o o o o o o o o o o X o X X o o o o o o o o o o o o o o o o o o o o o o o o o o o o o o o o o o o o o o X o X o o o o o o o o o o o o o o o o o o o o o o o o X X o o o X X o o o o o o o o o o o o o o o o o o o o o o X o o o o o o o o o o X o o o o o o o o o o o o o o o o o o o o o o o o o X o o o o o o X X o o o o X X X o X o o o o o o o o o o o o o o o o o o X X o o o o o o o X X X X       X     . . @ [ $...O.......O.O.O.O.O.O.O...O.O.O.O.O.O.O.....O.......O.O.O.O.........O.O.....O.O...O.O.O.O.O.O.O.O...O.O.O.O...O.....O.O.O.O.O.O.O...O.......O.O.O.....O.........O.O.O.O.O.O.O.O.O.O.O.O.O...O.O.O.O.O.O.O.O.O.O.O.O.O.O.O.O.O.O.....O.O.....O.O.O.O...O.O.O.O.....O.O.O.O.O...O.O.....O...O.O.O.O...O.O.O.O.O.O.O.O.O.O.O.O.O.O.O.....O.O.O.O.O.....O.O.O.O.O.O.O.O.O.O.O.O...O...O.O.O.O.....O.O.O.O.O.O.O...O.O.O.O.O.O.O.O.O.O.O.O.O.O.O.O.O.O.O.O.O.O.O.O.O.O.O.O.O.O.O.O.O.O.O.O.O.O.O.O.O.O.O.O.O.O.O.O.O.O.O.O.O.O.O.O.O.O.O.O.O.O.O.O.O.O.O.O...O.O.O.O.O.O.O.O.O.O.O.O.O.O.....O.O.O.O.O.O.O.O.O.O.O.O.O.O.O.O.O.O.O.O.O.O.O.O.O.",
"o o o o o o o o o o o o o o o o o o X X X X X     g |.|.|.|.$X$X|.|.$X$X$X|.|.%X$X%X%X%X%X%X%X%X$X$X$X%X%X%X%X%X%X%X%X|.P.n.>                 X X X X o X o o o o o o o o o o o o o o o o o o o o o o o X X X X X       = [.|.{.{.;X;X|.V.        X X X X o o o o o o o o o o o o o o o X o o o o o o o o X X X X X X X                 O a M.`.$X%X%X%X%X%X%X%X|.$X%X%X%X%X%X[.V.f >                 X X X X X X X X       n.$X{.|.$X|.|.%X[.9             X X X X X X o o o o o o o o o o X o o X X X X X             : `.|.|.|.$X|.|.%XV.+   X o X o o o o o o o o o o o o o o o o o o o X X X X X X         f %X|.$X%X$X|.%XE   .   X X X X o o o o o o o o o o o o o o o o X X X X X   : |.$X#X$X$X$X|.%XV.&               X X X       f %X|.|.$X|.%X X X X X X X X X|.%X X X X X%X|.|.$X|.a   X X X o o o o o o o o o o o o o o o o o o o o o o o o o o o o o o o o o o o o o o o o o o o o o o o o o o o o o o o o o o o o o o o o o X o o X o X X o o o o o o o o X X o o X X X o o o o o o o o o o X o o o o o o o o o o o o X o X o o o o o o o o o o o o o o o o o o o o o o o X X o o o X o o o o o o o o o X X X o o o o o o o o o o o o X X X X o o X o X o o o o o o o o o o o o o o o o o o o o o o o o o X o o o o X X o o o o o o o o o X o o X o o o o o o o o X o o X o o X o o o o X X X X X X X X X X X X X     X     . . 0 $.X.....O.O.O.O.O.O.......O...............O.O.............O.O.O.........................O.O.O.O.O.O.O.....................O.O.O.O.O.O...O.O.O.O.O.O.O.O.O.O.O.O.O...O.O.O.O.O...O.O.O.O...O.O.O.O...O.O.O...........O.O...O.O.O.O.O.......O.O.O.O.O.O.............O.O.O.O.O.O.O.....O.O.........O.O...O.O.....O.O.O.O.O.O.O.O.O.O.O.O.O.O.O.O.O.O.O.O.O...O.O.O.O.O.O.O.O.O.O.O.O.O.O.O.O.O.O.O.O.O.O.O.O.O.O.O.O.O.O.O.O.O.O.O.O.O.O.O.O.O.O.O.O.O.O...O.O.O.O.O.O.O.O.O.O.O.O.O.O.O.O.O.O.O.O.O.O.O.O.O.O.O.O.O.O.O...O.O.O.O.O.O.O.O.O...O.O.O.O.O.O.O.O.O.O.O.O.O.O.O.O.O.O.O.O.O.O.O.O...O.O.O.O.O...O.O.O.O.O.O.O.O.O.O.O.O.O.O.O.O.O.O.",
"o o o o o o o o o o o o o o o o o o X X X X   X   g |.|.{.|.|.|.|.|.|.|.|.|.|.|.|.|.|.|.|.|.|.|.|.|.|.|.|.|.|.$X|.|.|.|.|.$X|.m.>             X X X X o o o o o o o o o o o o o o o o o o o o o X o o o X X X X         n.|.{.|.J.[.|.;X|.s       X X X X o o o o o o o o o o o o o o o o o o o o X o o o X X X X X                 > { P.$X$X$X|.|.|.|.|.%X|.%X|.|.|.$X|.|.|.%X%X%X{.m.a                 X X X X X X       n.$X|.|.|.$X$X|.|.[.a           X X X X X X X o o o o o o X X X X o X X X X               > [.|.{.|.|.[.$X|.%XV.+   o X o o o o X o o o o o o o o o o o o o o X X X X X X         : [.$X|.|.[.|.|.$X;X:       X X X o o o X o o o o o o o o o o o o o X X       : ].$X#X#X$X$X|.|.%XP.:                 X   X   f %X|.|.[.P.Y.Y.Y.Y.Y.Y.Y.Y.Y.Y.Y.Y.Y.Y.P.P.|.|.|.|.a   X X X o o o o o o o o o o o o o o o o o o o o o o o o o o o o o o o o o o o o o o o o o o o o o o o o o o o o o o o o o o o o o o o o X X o o X X X o o o o o o o o o X o o o o o o o o o o o o o o o o o o o o o o o o o o o o o X o o o o o o X X o o o o X X X X o o o o o X o o o o o X o o o o o o o o o o o o o X X X X o X X o o o o o o o X o o o o o o o o o o X X o o o o o o o o o o o o o o o o o o o o o X o o o o o o o o o o o o o o o o o o o o o o o o X o o X o o o o X o o o o o o o X X X X X X X X X X     X X   . . %  .%.X...O.O.O.O.O.O.X.......O.O.O.........O...................O...O.........................O.O.O.....O...O.O.O.O...........O.O.O.O.O.O.O.O.O.O.O.O.O.....O.O.O.O.O.O.O.O.......O.O.O.O.O.O.O.O.O.O.O.O.O.O.O.........O...O.O.O.O...O.O.O.O.O.....O.O.O.O.O.O.........O.O.O.O.O.O.O.O.O.O.O.O.....O.O.O.O.O.....O.O.O.....O.O.O.O.O.O.O.O.O.O.O.O.O.O.O.O...........O.O.O.O.O.O.O.O.O.O.O.O.O.O.O.O.O.O.O.O.O.O.O.O.O.O.O.O.O.O.O.O.O.O.O.O.O.O.O.O.O.O.O.O.O.O.O.O.O.O.O.O.O.O.O.O.O.O.O.O.O.O.O.O.O.O.O.O.O.O.O.O.O.O.O.O.O.O.O.O.O.O.O.O.O.O.O.O.O.O.O.O.O.O.O.O.O.O.O.O.O.O.O.O.O.O.O.O.O.O.O.O.O.O.O.O...O.O.O.O.O...O.O.O.O.....O.O.O...O.",
"o o o o o o o o o o o o o o o o o o X X X X X     s |.{.{.P.P.P.P.P.P.P.P.P.P.P.P.P.P.P.P.P.P.P.P.P.P.P.P.P.I.P.I. X X X|.|.|.$X{.n.O         X X X X X X X o o o o o o o o o o o o o o o o o o o o o X X X           a $X{.|.P.{ M. X{.|.P.+   X X X X o o o o o X o o o o o o o o o o o o o o o X o o X X X X                 = n.[.$X|.{.|.|.|. X X XI.I.I.I.P.I. X X X%X X|.|.|.|.%X#XV.9           X X X X X X X       n.$X|.|.M.P.%X|.|.|.;Xs         X     X X X X o o o o o o o o o X X X X X               9 [.|.|.|.|.M.M.$X|.%XJ.+   o X X X o o o o o o o o o o o o o o o o o X X X X X X         m.$X|.|.V.{ ;X|.|.%Xn.    X X X X X X X o o o o o o o o o o o o o o X X       = ;X#X#X`.M.|.$X|.|.$X[.>                   X   f %X|.|.J.] ' [ ' [ ' ' ' ' ' ) ) ) _ ) ' ]  X|.|.$Xa   X X X X X o o o o o o o o o o o o o o o o o o o o o o o o o o o o o o o o o o o o o o o X o o o o o o X o o o o o o X o o X o o X o o o o o o o X X o o o o o o o o o X o o o o o o o X o o o o o o o o o o o X X X X X o o o o o o X o o o X X X X X X o X X X X X X X X o o o X X X o o X X o o X X o o o X X o o X X X o o o o o o X o o o o o o o o o o o o o o o o o o o o o o o o o o o o o o o o o o o o o o X X o o o o o o o o o o o o o o o o o o o o o o o o o X X X X X X o o X X X o o X X X X X X X X X X X       X   . . . G $.X.+.O.O.O.O.O.O.O.O.....O.O.........O.......................O.O...O.................O.......O.O...............O.O.O.......O.O.O.O.O.O.O.O.......O.O.........O.O.O.O.O.O.............O...O.O.O.O.O.O.O.O.............O...O.O.O.O.O.O.......O.O.O...O.O.........O.O...O.O.O.O.O.O.O.O.O...O.O.O.O.O.O.O.O.O.O.O.O.O.O.O.O...O.O.O.O.O.....O.O.O.O.O.O.O.O.O.................O.O.O.O.......O.O...O.......O.O.O.O.O.O.O.O.O.O.O.O.O.O.O.O.O.O.O.O.O.O.O.O.O.O.O.O.O.O.O.O.O.O.O.O.O.O.O.O.O.O.O.O.O.O.O.O.O.O.O.O.O.O.....O.O.......O.O.O.O.O.O.O.O.....O.O.O.O.O.O.O.O.O.O.O...O.O.O.O.O.O.O.O.O.......O.O.O.O.O.O.O.O.O.O.............O...O.O.O.",
"o X o o o o o o o o o o o o o o o o X X X X       s {.{.[.{ d Y G Y ' ' ' ' ' ' ' ' ' ' ' ' ' ' ' ' ' ' ' ' ] ' ] | } Y.;X X|.|.|.%XP.3         X X X X X X o o o o o o o o o o o o o o o o o o o o X X X X         + P.$X{.;X} ] ] I.|.{.|.E   X   X X X o o o o o o o o o o o o o o o o o o o X X o X X o X X               g `.|.|.;X;X|. XI.P.M.} | | | | [ [ | | } } M.Y.I. X X|.|.|.$X|.n.=         X     X X X X X   n.%X|.{.M.Y P. X|.|.|.|.f           X X X X X X X o o o o X X X X X X X X             a ;X|.{.|. XM.] M.|.|.%XJ.+   X X + X o o o X o o o o o o o o o o o o X X X X   X X       a |.|.|.P.] ] M. X|.|.|.9   X X X X X X X o o o o o o X o o o o o o o X X       : ].#X|.P.Y M. X|.|.|.$X;X9                 X   f %X|.|.M.' [ ` [ ` ` ` ` ` ) ` ` ` ( ( _ ] U.|.|.|.a   o X X X X X o o o o o o o o o o o o o o o o o o o o o o o o o o o o o o o o o o o o o o o o o o o o o o o o o o o o o o o o X X o o o o o o o o X o o X o o o o o o o o o o o o o o o o o o o o o o o o o X X X X X o X X X X X o o X X X o X X X o X X o o o o X X X o X o o X X X X o X X o X X X X X o o o o o o o X X X o o o X X X X o o o X o o o o o X X o o X o o X o o o o o o o o X X o o o o o o o o o o X X o o X X X X X X o o o o o o o o o o o o o o o o o o o o o o o o o X o o X o X X X X X X o X X X X X X     . . . 5 #.@.+.O.O.O.O.O.O.O.O.O.O.O.O...............O...........................O.O.............O.O.......O.O.................O.O.O.O.O.O.O.O.O.O...O.O...O.....O.O.O.........O.O.O.O.O.......O...O.O.O.O.O.....O.O.........O.O...O.O.O.O.O.O.O.O.O.O.O...O.O.O.O...................O.O.......O.O.O.O.O.O.O.O.O.O.O.O.O.O.O.O.O.O.O.O.O.......O.O.O.O.O.O.O.O.O.O.O.O.O...O.O...O.O.O...O.O.O.O.O.O.........O.O.....O.O.O.O.O.O.O.O.O.O.....O.O.O.O.O.+.O.O.O.O.O.O.O.O.O.O.O.O.O...O.O.O.O.O.O.O.O.O.O.O.+.O.O.O.O.O.O.O.O.O.O...O.O.O.O.O.O.O.O.O.O.O.O.O.O.....O.......O.O.O.O.O.O.O.O.O.O.O.O.O.O.O.O.O.O.O.......O.O.O.O.O.O.O.O.......O.O.O.O.O.O...",
"o o o o o o o o o o o o o o o o o o o X X X       s |.{.P.d d _ _ _ _ ) ) ) ) _ ) ) ) ) ) ) ) ) ) ) ` ) ) ) _ _ _ _ _ ' | :X;X$X|.|.$X|.g       X   X X X X o o o o o o o o o o o o o o o o o o o X X X X           E %X|.|.:X] ' ' }  X|.|.[.>       X X X o o o o o o X o o o o o o o o o o o X X X X X X X X           O m.$X|.{.;X;XU.P.} [ ' ' ) ) _ ` ` ` ` ` ) ) ) _ [ ] | Y.I. X|.|.|.%X[.a             X X X X X   n.$X|.[.{ ] ] M. X|.|.{.$X{         X X X X X X X o o o X o X X X X X X             g |.|.|.|.I.} ] Y } |.|.%XJ.O X X X o o o o o o o o o o o o o o o o o o o X X X       X   + P.|.|.P.} ' ' ] P. X|.%XM.    X X X X X X X o o o o o o o o o o o o X X X       & '.#X].J.Y Y } I. X|.|.|.|.s               X   f =X|.{.{ G ` ` ` ` ` ` ( ` ` ` ` ` ` ` ) [ U.|.|.$Xa   X X X X X o o o o o o o o o o o o o o o o o o o o o o o o o o o o o o o o o o X X o o o o X o o o o o o o o o X X o o o o o o X o o o o o o o o o o o o o o o o o o o o X o o o o o o o o o o o o o o o o X X X X X X X X o o o o o o o X o X o o o o X X o o o X X X X o o o o X X X o X X o X o o X X X o o o X X o o o o X X X X X X o X X o X X o o o o o o o o o X X X X o o o o o o o o o o o o o o o o o o o o o o X o o X X X o o o o o o o o o o o o o o o o o o o o o o o o o o o o o X X X o X X X X o X X X X X       . . @ [ $.X.O...O.O.O...........O.O.O.O.O.O.................................O.......O.......................O.O.O.O.O.O.O.O...O.O.O.O.O.O.O.O.....O.O.O...........O.O.O.O.O.........O.O.O...........O.O.O.............O.O.............O.O.O.O.O...O.O.O.O.....O.O...O.O.................O.O.O.O.O.O.O.O.O.O.O.O.O.O.....O.....O.O.O...O.O.....O.O.O.O.O.O.O.....O.O...O...O.O.O.O.O.O.O.O.O.O.O.O.O.O.O.......O...O.O.O...O.....O.O.O.O.O.O.O.O.O.O...O.O.O.O.O.O.O.O.O.O.O.O.O.O.O.O.O.O.O.O.O.O.O.O.O.O.O.O.O.O.O.O.O.O.O.O.O.O.O.O.O.O.O.O.O.O.O.O.O.O.O.O.O.O.O.O.O.O.......O.O.O.O.O.O.O.O.O.O.O.O.O.O.O.O.O.O.O.O.O.O.O.O.O.O.O.O...................",
"o o o o o o o o o o o o o o o o o o X X X X X X   s |.[.P.d 0 _ ( ( ) ) ` ) ( ) ` ( ` ( ( ( ( ( ( ( _ ( _ ( ( ` ) ` ` ` ' ' | Y. X|.|.|.$Xg         X X X X X o o o o o o X o o o o o o o o o o o o o X X         > |.$X|.P.| ' ' ' ] Y. X|.$Xn.        X X o o o o o o o o o o o o o o o o o o o X X X X X             > P.$X|.|.|.I.Y.} ' _ ) ( ` ` ` ` ) ` ` ` ` ( ( ) ` ` ) _ ' ] M. X X|.|.$X|.f           X X X X X   n.%X|.P.{ ' ] Y M. X|.|.|.$Xn..           X X X X X X X X o X X X X X             f %X$X|. XI.| ' _ G }  X|.%XJ.+ X X X o o X X o o o o o o o o o o o o o X o X X X           { %X{.;XM.] _ _ ' |  X|.|.%Xs     X X X X X X X X o o o o o o o o o o o X X X X   & [.|.;XM.d Y Y ] I. X|.$X$X$Xf             X   f =X|.;X{ G ) ` ` ` ` ` ` ` ` ` ` ( ` ) ) ] U.|.|.|.a   X X X X X o o o o o o o o o o o o o o o o o o o o o o o X o o o o o o o o o o X X X X o o X X o o o o X X o X X X o o o o o o o o o o o o o o o o o o o o o o o o o o o o o o o o o o o o o o o o X X o X X X X X X X X X o o o o o o o o o o o X o o o o o o o X o o X o X o o o X X o o X X o X o o o o o o o o o o o o o o o o o o o o X X o X X X o o o o o X o o o X X X o o o X X X o o o o o o X o o o o o o o o o o o o o o o o o o o o o o o o o o o o o o o o o o o o o X o o o o o o o X X X X o X X X X X X X X       . . q #.X.+.O.O.O.O.O...................O.O.....O...........................O.O.O.O...O.O.O.O.O...............O.O.O.O.O...O.O...O.O.O.O...O.....O.O.O.O.O.O.............O.O.O.....O.O.O.O.O.............O.O.O...O.O.O.O.O.O.O.O.............O.O.O.O.O.O.O.O.O.O.O.O.O.O.O.O.O.O.O.O.....O...O.O.O.O.O.O.O.O.O.O.O.O.O.......O.O.O.O.O.O...O.O.O.O...O.O.O.O.O.O.O.O.O.O.O.O.O.O...O.O.O.O.O.O.O.O.O.O.O.O.....O.O.O.O.O.O.O.O.O.O.O.O.O.O.O.O.O.O.O.O.....O.O.O.O.O.O.O.O.O.O.O.O.O.O.O.O.O.O.O.O.O.O.O.O.O.O.O.O.O.O.O.O.O.O.O.O.O.O.O.O.O.O.O.O.O.O.O.O.O.O.O.O.O.O.O.O.O.O...O.O.O.O.O.O.O.O.O.O.O.O.O.O.O.O.O.O.O.O.O.O.O.O.O.O.O.O.+.O.O.O.O.O.O.O.O.",
"o o X o o o o o o o o o o o o o o o o X X X X     s |.[.P.d 0 _ ( ( ) ( _ _ _ ( ( ( ) ) ( ( _ ) ( ( ( ( _ ( ( ) ( ( ` ) ) ) ' ' }  X|.|.|.$Xs         X X X X X o o o o o o o o o o o o o o o o X X X X           V.%X|.;X} ' ) ) ) ' |  X|.|.|.3       X X X X o X X o o o o o o o o o o o o X o X X X X X X X X     a |.$X|.|. XP.} ] _ ( ) ) ( ( ( ` ) ( ( ( ( ( ( ( ) ` ( ` ) ) ) ' ] Y. X|.|.|.%X{           X X X     n.$X{.P.] ' ' ' ] }  X|.|.|.$Xm.+         X X X X X X X X X X X X               n.%X|.|. XP.| ' ) ) G }  X|.%XJ.+ X X X o o X o o o o o o o o o o o o o o o X X X X         3 |.|.;XP.] ' _ ( ) ' :X X|.%XP.O   X X X X X X X o o o o o o o o o o o o X X X X   & [.|.;XM.d _ G _ ] P. X|.$X$X%Xf           X   f %X|.;X{ 0 ` ` ` ` ` ` ` ` ` ` ( ` ` ) _ [ U.|.|.|.a   X X X X o X o o o o o o o o o o o o o o o o o o o o o o o o o o o o o o o X o o X X o o o o X X o X o o X o o o o o o o o o o o o o o o o o o o o o o o o o o o o o o o X X o o o o o X o o o X X X X X X X X X X X o X X o o o o X X X o o o o o o o o o o o o o o o o o o o o o o o X o o o o o X o o X X o o o o o o o o o X X X o o o X X o o X o o o o X o o X X o o X X o X o o o o o o X X X X X o X o o o o o o o o o o o o o o o o o o o X o o X o o o o X X o X o o o o o o o o o o o o o X X X X X X X X o X X X       . %  .%.X.....O.O.O.O...............O...............O.......O...O.O.......O.O...........O.O.O.O.......O.O.....O.O.O.O.O.O.......O.O.....O.O.O.O.O.O.O...O.O.O.......O.O.O.O.O.O.O.O.O.O.O.O.O...O.O.......O.....O...O.O.O.O.O.O...O.O.........O.O.O.O.O.O.O.O.O.O.O.O.O.O.O.O.O.O.O.O.O.O.O.O.O.O.O.O.O.O.O.O.......O.O...O.O.O.O.O.O.O.O.O.O.O.O...O...O.O.O.O.O.O.O.O.O.O.O.O.O.O.O.O.O.O...O.O.O.O.O.O.O.O.O.O.O.O.O.O.O.O.O.O.O.O.O.O.O.O.O.O.O.O.O.O.O.O.O.O.O.O.O.O.O.O.O.O.O.O.O.O.O.O.O.O.O.O.O.O.O.O.O.O.O.O.O.O.O.O.O.O.O.O.O.O.O.O.O.O.O.O.O.O.O.O.O...O.O...O.O.O.O.O.O.O.O.O.O.O.O.O.O.O.O.O.O.O.O.O.O.O.O.O.O.O.O.O.O.O.O.O.O.O.O.O.O.O.O.O.",
"o o o o o o o o o o o o o o o o o o X X X X X X   s |.{.P.d G _ ( ( ( ( ( ( ( ) ) ) ( ( ( ( ( _ ( ( ( _ ( ( _ F D ( ( ( ` ` ) ` ' } ;X|.|.$X|.3       X X X X X o o o o o o o o o o o o X o o o X X X X         s %X|.|.P.] ) ) ) ( ) ' Y.|.|.$XM.      X X X X X X o o o o o o o o o o o o o o X X X X X X X       9 |.$X|.|. X:X] _ _ ( ( ( ( ) ) ( ( ( ( ( ` ( ` ` ( ` ` ( ( ( ( ) ) _ ' } I. X|.|.%X{                   n.$X;XP.] G ) _ _ ' | I. X|.{.$XM.O         X X X X X X X X X X X             n.=X|.|.|.P.| ) ) _ ) _ }  X|.%XJ.+ X X X X X o o o o o o o o o o o o o o o X X X X           V.$X|.P.} ' ) ( ( ) ) ]  X$X$X%Xf           X X o o o o o o o o o o o o X X X X X   O [.|.[.M.0 _ _ _ ' ] Y. X|.$X$X%X{         X   f =X|.;X{ G ) ` ( ( ` ` ` ` ` ` ( ( ( ( ) [ U.|.|.|.a   X X X X X X o o o o o o o o o o o o o o o o o o o o o o o o o o o o o o o X o o X X o o o o o o o o o o o o o o o o o o o o o o o X X o o o o o o o o o o o o o o o o o o X o o o o o X X o o X X X o X X o o o X o X X X o o o o o o X X X X o X X o o o o X X X X X X X X X X o o o o o o o X X X X X X o o o o o o o o o o o o X X o o o o o o X X o o o o o o o o o X X X o o o o o o o X X o o X X o X X o o X o o X X o o o X X o o o X X X X X o X X o X X X X X X X X X o X o o o o X X o X o o o X X o o X X           . . G $.X.......O.O.....................O.O.O.............O.O.O.......O.O.O.O.O.............O...O.......O.O.O.O.O...O.....O.O.O...O...O.O...O.O.O.O.O.O.O.O.O.O.O.O.O.O.O.O.O...O.O...O.O.O.O.O.....O.O.O.O.O.....O.O.O.O.O.O.O.O.O.O.O.O.O.O.....O.O.O.O.O.O.O.O.O...O.O.O.O.O.O.O...O...O.O.O.O.O.O.O.O.O.O.O.O.O.....O.O...O.O.O.O.O.O.O.O.O.O.O.O.O...O.O.O.O.O.O.O.O.O.O.O.O.O.O.O.O.O.O.O.......O.O.O.O.O.O.O.O.....O.O.O.....O.O.O.O.O.O.O.O.O.O.O.O.O.O.O.O.O.O.O.O.....O.O.O.O.O.O.O.O.O.O.O.O.O.O.O.O.O.O.O.O.O.O.O.O.O.O.O.O.O.O.O.O.O.O.O.O.O.O.O.....O.O.O.O.O.....O.O.....O.O...O.O.O.O.O.O.....O.O.O.O.O.O.O.O.O.O.O.O.O.O.O.O.O.O.O.O.O.O.O.",
"o o o o o o o X o o o o o o o o o X X X X X X     s |.{.P.d G _ ( ( _ ( ( ( ( ( ) ( ( ( ( ( ( ( ( ( ( ( _ ( D D D D ) ` ` ` ( ` ) ' }  X|.|.$XJ.+     X X X X X o o o o o o X X X o o o o o X X X X X X       O [.%X|.I.{ _ ) ( ( ( ( ) |  X$X|.$Xa     X X X X X X o o o o o o o o o o o o o X X X X X X X       > [.$X|.|.I.M.' ) _ ) ( ( ( ) ) ) ) ` ( ( ( ` ( ( ` ` ` ` ) ` ` ( ( ( _ G G ] P. X|.|.%XE   .             n.%X|.P.Y _ ) D D G ' | I. X{.|.%XV.:           X X X X X X X             + M.%X|.|. XP.| ' ) ) _ ( F }  X|.%XJ.+ X X X o o o o o o o o o o o o o o o o X X X X X         f $X|.;XM.] ' ) ` ( ( ` _ M. X$X%X{.:       X X X o X o o o o o o o o o o o o X X     O [.|.[.M.0 _ _ ' G _ ] :X X%X$X|.%XC.+     +   f %X|.[.{ 0 ) _ ) ) ( ( ` ` ( ` ` ` ( ( ( [  X|.|.|.a   X X X X X o o o o o o o o o o o o o o o o o o o o o o o o o X o o o o o o X o o o o o o o o o o o o o o o o o o o o o o o o o o o o o o o o o o o o o o o o o o o o o o o o o o o o o X X o o o X X o o o o o o o X X o o X o o o o o o X X X X X X X X X X X X X X X X X X X X X o o X X X X X X X X o o o o X X X X o o o o o o o o X X o o o o o o o o o o o o o o o o o o o o o o o o o o X o o o o X o o o X X o X o o X o o X o o o o X o o o X o X X X X X o o o o o X X X X o o o o o X X X X X X X X X X X X X     . . . q #.X.X.O.O.O.O.O.O...................O.O.O.O.............O.O.......O.....O.O.......O.....O.O.O.O.O.O.O.O.O...O.............O.O.....O.O...O.O.O.O.O.O.O...O.O.......O.O.O.O.O.O.O.O.O...O.O.O.O.O.O.......O.O.O.O.O.O.O.O.O.O.O.O.O.O.....O.O.O.O.O.O.O.O.O.O.O.O.O.O.O.O.O.O.O.O.......O.O.O.O.O.O.O...O.O...O.O.......O.O.O.O.O.O.O.O.O.O.O.O.O.O.O.O.O.O.O.O.O.O.O.O.O.O.O.O.O.O.O.O.O.O.....O.O.O.O.O.O.O.O.O.O.O.O.O.O.O.O.O.O.O.O.O.O.O.O.O.O.O.O.O.O.O.O.O.O.O.O.O.O.O.O.O.O.O.O.O.O.O.O.O.O.O.O.O.O.O.O.O.O.O.O.O.O.O.O.O.O.O.O.O.O.O.O.O.O.O.O.O.O.....O.O.O.O.O...O.............O.O.O.O.O.O.O.O.O.O.........O.O.O.O.O.......O.O.O.O.O.O.O.O.O.O.",
"o o o o o o o o o o o o o o o o o X X X X X       s |.[.P.d G _ _ _ _ _ ( ( ( ( ( ( ( ( ( ( ( ( ` ( ( ( _ ( D 8 D D ( ) ` ( ` ( ( ' ' }  X|.|.%XE   + X X X X X X o o o o o o o o o o o o o X X X X           { %X|.|.M.' ' ( ( ` ` ( ) ' M. X|.$XV.+     X X X X X o X X o o o o o o o o X X X o X X X X X X   O P.%X|.|.;XM.] ) ` ) ) ( ( ) ) ) ) ) ) ) ) ) ` ( ) ) ` ( ( ( ( ( ) ( ( _ _ G G ] P. X|.$X%Xg               n.$X|.P.Y G G [ } G ' ' ] P. X|.|.%XP.>           X X X X               O M.%X|.|. XY.[ ' ) ) ) ( ( D }  X|.%XJ.+ X X X o o o o o o o o o o o o o o o o o X X X         : ].|.|.P.] ' ` ` ` ` ` ` ) ] U.%X$X%Xn.        X X X o o o o o o o o X X X X X X X     O [.#X[.M.d G ' Y.| ' ' ] M. X%X$X$X%XV.=   .   f %X|.[.{ 0 _ ( _ ( ( ( ( ` ` ` ` ` ( ` ) [ U.|.|.$Xa   X X X X X o o o o o o o o o o o o o o o o o X X o o X X o o o o o o o o o o o o o o o o o o o o o o o o o o o o o o o o o o o o o o o X X X X X X o o o o o o o o o o o o o o X o o o X X X X X X o o o X X o o o o o o o X o o o X X o o X X o o X X o o o o o X X X o o o o o o X X X X X X X o o X X X X o X X X X X o o X o o o o X o o o o o o o o X o o o o X o o o o o X X o o o o o o o o o o o o o X o o X X X X o o o o o o o X X X X o o X X X X X o o o o X o o o X o o X X X X X X o X X X X X X X X X X       . . % | %.........O.O.O.O.O...................O.O...O...................O.O.......................O.O.O.........O.......O.O.O.O.O.O.O.O.O.O...........O.O.O.O.O.O.O...........O.O...O...O.O.O.O.O.O.....O.O.O.............O...O.O.O.O...O.........O.O...O.O.O.O.O.O.O.O.O.O.O.O.O.O...O.O.......O.O.O.O.O.O.O.O.O.O.O.O.O.O.......O.O.O.O.O.O.O.O.O.O.O.O.O.O.O.O.O.O.O.O.O.O.O.O.O.O.O.O.O.O.O.O.O.O.O.O.O.O.O.O.O.O.O.O.O.O.O.O.O.O.O.O.O.O.O.O.O.O.O.O.O.O.O.O.O.O.O.O.O.O.O.......O.O.....O.O.O.O.O.O.O.O.O.O.O.O.O.O.O.O...O.O.O.O.O.O.O.O.O.O.O.O.O.O.O.O.O.O.O...O.O.O.O...O.O.O.O.O.O.O.O.O.O.O.O.O.O.O.O.O.O.O.O.O.O.O.O.O.O.O.O.O.O.O.O.O.O.O.O.O.O.O.",
"o o o o o o o o o o o o o o o o o o X X X X X     g |.;XP.d G _ _ H G _ _ _ ( ( _ _ _ ( ( ( ) ) _ ( ) ( ( ( D 8 D ( ) ) ( ( ( ( ( _ _ ' Y. X|.$X;X>   X X X X X X o o o o o o o o o o o X X X X             > |.|.|.P.] ' ) ) ` ( ` ` ) ) ] U. X{.$Xf       X   X X X X X X X o o o o o o o o o X X X X X X     n.%X|.|.;X} ' ) ` ) ` ` ` ` ` ` ( ( ( ) ` ) ` ` ) ( ` ( ( ( ( ( ( ) ( F D D D _ G ] I.%X|.%X|.>   .         n.$X;XP.d 0 G | I.} ' G ' ] Y. X|.|.$X`.>             X X             = V.%X|.|. XM.] ) ` ` ` ) ) _ _ }  X|.%XJ.O   X X o X o o o o o o o o o o o o o X X X X           M.$X|.;X} ' ) ) ` ` ( ` ` ) _ M. X$X%X|.3       X X X o o o o o o o o o X X X X X X     O [.#X'.M.d Y ] I.Y.| ' [ ' }  X%X$X$X%XP.:     f $X].[.{ 0 _ ( ) ( ( ` ` ` ` ` ` ` ` ` ) [ U.|.|.$Xs   X X X X X o o o o o o o o o o o o o o o o o o X o X X X o o o o o o o X o o o o o o o X X X o o o o o o o o o o o o o o o o o o o X X X o X X o o o o o o o o o o o o o o o o X o o X o o X X X X X o o X X X X o o o X X o o o X o o X X X X X o X X X o X X o X X X X o o o o X o o X X X X X X X X X X X o o X X X X X X X o o o X X o X o o o o o o X X o o X X X X o o o X X o o o o o X o o X X X X X o o o o o o o X o o o o X X X X X X o o o o X X o o o o X X o o o o o o o o o o X X X X X X X X X X X X X       . . q $.X.O.O.O...O.O.............O.....O.................O...........O...............O.O.O.O.O.O.O.O.O.O.O.O...................O...O.O.O.O.O.O.O.O.....O.O.O...O.......O.......O...........O.....O.........O.O.O...................O.........O.O.O.O.O.....O.O.O.O.O.O.O.O.O.O.O.O...O.O.O.......O.O.O.O.O.O.O.O.O.O.O.O.O.O.O.O.O.O.O.O.O.O.O.O.O.O.O.O...O.O.O.O.O.O.O.O.O.O.O.O.O.O.O.O.O.O.O.O.O.O.O.O.O.O.O.O.O.O.O.O.O.O.O.O.O.O.O.O.O.O.O.O.O.O.O.O.O.O.O.O.O.O.O.O.O.O.O.O.O.O.O.O.O.O.O.O.O.O.O.O.O.O.O.O.O.O.O.O.O.O...O...O.O.O.O.O.O.O.O.O.O.O.O.O.O.O.O.O.O.O.O.O.O.O.O.O.O.O...O.O.O.O.O.O.O.O.O.O.O.O.O.O.O.O.O.O.O.O.O.O.O.O.O.O.O.O.O.O.O.O.O.",
"X o o o o o o o o o o o o o o o o o o X X X X X   s |.[.P.d 0 _ _ ' 8 D _ ( ( ) ` ( ( ) ( ( ( ( _ ( ( ( ( ( D D D _ ) ( ( ( ( ) ( ` ) ' { ;X|.|.%Xf   X X X X X X o o o o o o o o o o X X X X X             V.$X;X;X} ' [ ` ` ` ` ( ` ` ) ) }  X{.|.P.%   X X   X X X X X X o o o o o X o o X X X X X X X X   a $X|.|.;XM.' ) ( ) ) ` ` ` ( ` ` ( ( ( ( ( ( ` ` ` ` ` ( ( _ ` ( ( D ( ( D D ( ( _ ' {  X$X|.%XV.+   X   X   n.|.;XP.d 0 G | U.Y.} Y G ' ] Y. X|.|.|.[.3                         = J.$X{.|.;XM.] _ ) ( ( ` ( ) ) _ }  X|.%XJ.O   X X o X o o o o o o o o o o o o X X X X X         a $X|.|.J.] ) ( ( ( ` ( ( ` ` ) ] I.%X|.%XM.      X X X X o X o o o o o X o X X X X X     O [.#X[.M.d ] | I. XI.| ' [ ] }  X%X|.|.%X`.>   f $X{.[.] 0 ) ) ` ` ( ( ` ` ( ` ` ` ` ` ) [ U.|.|.$Xs   + X X X X X o o o o o o o o o X X X o o o X o o o o X X o o X o o o o o o o o o o X o o o o o o o o o o o o o o o o o o o o o o o X X o X X o o o o o o o o o o o o o o o o o X o o o o o X X X X X X o o o X X X X X X o o o o X X X X X X X X X o X X X X X X X X X X o X X X X o o o o X o o X o X X o X o X X X X X X o X X o o X X X o o X X o o X o o o o o o o X X X X o o o o o X X X X X X X o o X o o o o o o O o o o o O o o o o o o o o o X X X o o o o X X o o o X X o X X X X X X X X X X X X X X X X         . % | $.+.O.O.O.O.O.O.O.O.O.............O.O.....................O.......................O.O.O.O.O...O.O.O.O.O.O.O.O.O...O.O.O.O.O.O.....O.O.O.O.O.......O.O.O.O...........O.......O.O.O.....O.....O.O.........O.O.O.....O.......O.O.O.O.O.O.....O.O.O.O.....O.O.O.O.O.O.O.O.O.O.O...O.O.O.O.O.O.O.O.O.O.O.O.O.O.O.O.O.O.O.O.O.O.O.O.O.O.O.O.O.O.O.O.O.O.O.O.O.O.O.O.O.O.O...O.O.O.O.O.O.O.O.O.O.O.O.O.O.O.O.O.O.O.O.O.O.O.O.O.O.O.O.O.O.O.O.O.O.O.........O.O...O.O.O.O.O.O.O.O.O.O.O.O.O.O.O.O.O.O.O.O.O.O.O.O.O...O.O.O.O.O.O.O.O.O.O.O.O.O.O.O.O.O.O.O.O.O.O.+.O.O.O.O.O...O.O.O.O.O.O.O.....O.O.O...O.O.O.O.O...O.O.O...O.O.O.O.O.O.O.O.O.O.O.O.....O.O.O.O.",
"X o o o o o o o o o o o o o o o o o X X X X X X   s |.;XP.d G _ ' Y.G 0 ) ( ( _ ( ( ( ( ( ( ( ( ) ( ( ( ( ( D ( ( ) ( ` ` ( ) ) ) ( ( ' Y M. X|.$X[.O   X X X X X o o X o o o X o o o o X X X X           f $X{.;XM.] ) ) ) ( ` ( ( ( ( ` ) ' I.|.{.$X{   X X X X X X X X X o o o o o X o o X X X X X         V.%X|.|.:X] ) _ ) ) _ ( ( ( ` ( ( ( ( ) ) ) ( ( ` ( ` ` ( ( ( ( ( D D D ( ( _ ( ) ) ' ' M.|.|.|.%Xf   .   X   n.|.;XP.Y G G | I.M.P.M.G G G ' :X X|.|.|.;Xa                     : P.|.;X;XI.M.' _ ) ) ( ( ( ( _ ) _ }  X|.%XP.O   X X o o o o o o o o o o X X o o X X X   X       O P.|.|.P.{ _ ) ( ( ( ( ` ` ` ` ) _ }  X%X$X%Xa       X X X X o o o o o o X o X X X X X     & '.$X{.M.d ' ] I.P.P.I.| _ [ ' | I. X|.|.$X[.= g %X;X[.{ 0 _ _ ( ( ` ` ` ` ` ( ( ( ` ) ) [ U.|.#X$Xs   X X X X X o o o o o o o o X X X X X o o o X o o o o o o o X X X o o o o o o o o o X X X o o o o o o o o o o o o o o o o o o o o o o X X X o o o o o o X X X o o o X X X o o X X X o X X X X X X X X X o X X o o X o o o o X X o o X X o X X X X X X o X o o o o X o o X X X X X o o o o o o o o X o X X X X X X X X X o o o o o o X X o o o X X X o o X X o o X X o o o X X o o o X X X X X X X o o o O o o X X o o o o X X o o o o o o o o o X X X o o X X o o X X X X X X X X o o o X X X X X X X X X X X X X X         . . G $.X.O.O.O.O.O.O.....O...O.O.O.........O.......O...........O.............................O.O.O.O.O.O.O.O.................O.O.O.O.O.O.O.O.O.O.O.O.O.O.....O.O.O...O.O...O.O.O.....O.O.O.O.O...O.O.......O.............O.......O.O.O.O.O.O.O.O...O.O.O.O...O.O.O.O.O.O.O.O.O.O.O.O.O.O.O.O.O.O...O.O.O.O.O.O.O.O.O.O.....O.O.O.O.O.O.O.O.O.O.O.O.O.O.O.O.O.O.O.O.O.O.O.O.O.O.O.O.O.O.O.O.O.O.O.O.O.O.O.O.O.O.O.O.O.O.O.O.O.O.O.O.O.O.O.O.O.O.O.O.................O.O.O.O.....O.O.O.O.O.O.O.O.O.O.O.O.O.O.O.O.O.O.O.O.O.O.O.O.O.O.O.O.O.O...O.O.O.O.O.O.O.....O.O.O.O.O.O.O.O...............O.O.O.O.O.O.O.O.O...O.O.............O.O.O.O.O.O.O.O.O.O.O.O.O.O.O.O.",
"X o o o o o o o o o o o o o o o o o X X X X X X   s |.[.P.d G _ ' Y.] 0 ) _ _ ( ( _ ( _ _ _ ( ( ( ( ( ( ( ( ) ( ) ) ` ` ( ) ( ( ( ( ( ) _ |  X$X#X%X9   + X X X X o o X X o X o o o o o o X X           : '.|.|.P.] _ ) ) ` ( ( ( ` ( ( ` ) _ }  X{.|.;X>   X X X X X X X X o o o o o o o o X X X X         a $X|.|.P.] ) ) ) ) ) ( ( ( ( ( ) ) ` ( ( ) ( ( ) ` ( ( ( ( ( ( D D 8 D D D ( ` ` ` ` ' ] M.;X|.|.$X{.3         n.$X;XP.d G G | I.{ { Y.} _ G _ ' M. X;X;X|.|.g                 : P.|.;X;XP.} Y _ ) ) ) ` ( ( ( ( _ _ }  X|.$XP.O X X X o X o o o o o o o o o o X o X X     X X     n.%X|.|.M.' ) ( ( ( ( ( ( ( ( ( ) ) ' Y.%X$X%XV.+       X X X o o o o o o o o o o X X       & ].$X;XM.d ' ] I.Y.] Y.I.| _ _ _ ] Y. X|.{.$XJ.m.|.{.[.{ 0 _ ( ( ( ( ( ` ` ` ` ( ( ` ) _ [ U.|.#X$Xg   o o X X X X o o o o o o X o X X o o o o o o o o o X X o X X o X o o o X X o o o o X X o o o o o o o o o o o o o o o o o o o o o o o o X o o o o o o o o X o o o X X X X X X o o o o o X o X X X o X X X o o o o X o o X X X X o o X o o X X X o o X X X X X o X X X o o o o X X o o o o o o o X X X X X X X o X X o o o o o o o o X o o o o o o o o o o X X X X X X X X X o o o o X o X o o o o o o o o o O o X X X X X o X X X X X X o o X X X X X o o X X o X O o X X X X X X X X X X X X X X X X X X X X X X +       . . 5  .X.+.O.O.O.O.O.O.....O.........O.......O.O.............O.....O...........O.................O.O.O.O.O.O.O.O...O.O...............O.O.O.O.O.O.....O.O.O.O...............O.O...O.O.....O.O.O.O.O...O.O.............O.O...O.O.O.O.O.O.O.O.O...O.O.........O.....O.O...O.O.O.O.O.O.....O.O.O.O.O.O.O.O.O.O.O.O.O.O.O.O.O.....O.O.O.O.O.O.O.O.O.O.......O.O.O.O.O.O.O.O.O.O.O.O.O.O.O.O.O...O.O.O.......O.O.O.O.O.O.O.O.O.O.O.O.O.O.O.O.O.O.O...O.O.O.O.O.O.........O.O.....O.O.O.O.O.O.O.O.O.O.O.O.O.O.O.O.O.O.O.O.O.O.O.O.O.+.+.O.O.O.O.O.O.O.O.O.O.O.O.O.O.O.O.O.....O.O.O.O.O...........O.................O.O.O.O.O.O.O.O...O.O.O.O.O.O.O.O.O.O.O.O.O.O.O.O.O.O.",
"X X o o o o o o o o o o o o o o o o X X X X X X   s |.[.P.d 0 _ ' Y.] 0 _ ( ( ( ( _ ( _ ( ( ( ( ( ( ( ( ( _ ) ) ) ) ( ( ( ( ( ) ` ( ` ) _ ' P.$X|.%Xn.  + o X X X o o o o o o o o o o X X X X X         n.$X{.[.} ' ) ) ` ` ( ( ( ` ` ( ( ) ) ' P. X;X|.M.      X X X X X X o X o o o o o o X X X X         V.$X|.;XM.' ) ( ) ( _ ( ( ) ( ( ( ) ( ) ) ( ( ( ) ( ) ) ( ( F D D 8 8 0 D D _ ` ` [ [ ] M.;X|.|.|.|.=XV.+       n.$X;XP.d 0 G | U.| Y [ Y.} ' G _ ' M. X X{.|.|.g             > P.|.;X;XP.| Y _ ( _ ( _ ) ( ( ( ( ( G }  X|.$XJ.O X X X o o o o o o o o o o o o X X X X           3 |.|.|.P.] _ ) ` ` ( ) ( ( ) ( ` ( ) ' |  X|.|.$Xg           X o o X o o o o o o o X X X X   & ].$X;XM.d ' [ I.Y.] ] } Y.| _ _ _ ] Y. X|.|.$X$X|.|.[.{ 0 _ ( ) ` ( ( ( ( ( ` ( ( ( ) _ [ U.|.#X$Xg   o X X X X X o o o o o X X o X o o o o o o X X X o X o o o o o o o o o o X o o o o X X o o o o o o o o o o o o o o o o o o o o o o o o X o o o o o o o o X X X X X X X X X o o o o X o o o X o o o o o o o o o X o o o X o o o o o X X o X o o o o X X X X X X X X X X o X X o X o o o X X X X X X X X X o X X o o o o o o o o X o o o o o X o X o o o o o o o o o o o X o o o o o o o o o o o o o o X X X X o o X X X X X o X X X X X X X o o X o X X o X X o X X o X X X X X X X X X X X X X X X X X X X X X X X       . . G $.X.O.O.O.O.O.O.O.O.O.O.O.........O...O...O.O.......O.O.........O.O.........................O.O.O.O.O.O.O.O.O.O.O.O.O...........O.O.O.O.O.O.O...O.O.O.O.O...............O.....O.O...O.O...O.O.O.O.O.............O...O.O.O.O.....O.O.O.............O...O.O.O.O.O.O...O.O.O.O.O.O.O.O...O.O.O.O.O.......O.O.O.O.O...O.O.O.O.O.........O.O.......O.O...O.O.O.O.O.O.O.O.O.O.O.O.O.O.O.O.O.O.O.O.O.O.......O...O.O.O.O.O.O.O.O.O.O.O.O.O.O.O.O.O.O.O.....O.O.O.O.O.O.O...O.O.O.O.O...O.O.O.O.O.O.O.O.O.O.O.O.O.O.O.O.O.O.O.O.O.O...O.O.O.O.O.O.O.O.O.O.O.O.O.O.O.O.O.O.O.O.O.O.O.O.O.O.........O.O...O...........O.O.O.O.O.O.O.O.O.O.O.O.O.O.O.O.O.O.O.O.O.O.O.O.O.",
"X o o o o o o o o o o o o o o o o o X X X X X X   s |.[.P.d G G ' Y.] 0 _ ( ( ( ( _ ( ( ( ( ( ) ( ( ( ) ( _ G 0 0 _ ' ( ( ( ( ` ` ( ( ( ) G M.%X|.%XV.  o o X X X o o o o o o o o o X X X X X         a |.{.{.J.] _ ) ` ( ( ( ( ( ` ( ( ( ( ) _ | U.;X;X|.a     X X X X X X X o o o o o o o X X X   X     > {.|.{.P.] ' _ _ ( ( ` ( ( ( ( ) ( ( ` ) ( ( ( ) ( _ ) ( ( ( D D 8 D G D D D ( ` [ ' | M.I.|.|.|.%X|.m.3         n.$X{.P.Y G G | U.| G _ [ Y.Y.' _ G ' } U. X|.|.|.f         > `.|.;X XP.| ' _ ( ( ( ( ( ( ( ( _ _ ( G }  X|.$XJ.O   X X o o o o o o o o o o o X X X               V.%X|.;X} ' ) ) ( ( ( ( ( ( ( ( ( ` ) ) Y :X X|.$XJ.+       X X X X X X o o o o o o o o X +   & ].|.{.M.d ' ' I.Y.' ' _ } Y.| _ _ _ ' M. X|.|.$X|.|.[.{ 0 ) ` ( ( ` ` ( ( ( ( ( ( ( ) _ [ U.|.|.$Xg   o X X X X X X X o o o X o o X o o o X o o o o o o o o o o o o o o o o o o o o o o o o o o o o o o o o o o o o o o o o o o X X o o X o X X X o X o o o X X X X X X o o o o o o o o o o o o o . . . . . . X . X X X X X o o o o o O o o o o o o o o X X o o o o X X X X X X X o X o X X X X X X X X X X X X X X o X o o o o o o o X X o o o X o o X o o o X X o o o o o o X X o o X o X o o o o o o o X X X X X X X X o X X X o X X X X X X X o X o X X X X X o o X X X o X X X X X X X X X X X X o X X X X X   + +     . . 5 #.X.X.O.O.O.O.O.O.O.O.................O.........O.........O.........O.O.O.O.O.O...O.O...O.O.....O.O.....O.O.O.O.O.O...O.O.....O.O.O.O...O.O.O.O.O.......O.O.O.............O.O...O.O...........O.O.O.O.O.................O.O.O.O.O.........O.O.O.O...O.O.O.O.O.O...O.O.O.O.O.....O.O.O.O.O.O.O.............O.O.O.O...........O.........O.O.......O.O.O...O.O.O.O...O.O.O.O.O.O.O.O.O.O.O.O.O.O.O.O.O.........O.O.O.O.O.O.O.O.O.....O.O.O.O.O.O.O.O...O.O.O.O.O.O.O.O.O.O.O.O.O.O.O.O.O.O.O.O.O.O.O.O.O.O.O.O.O.O.O.O.O.O.O.O.O...O.O.O.O.......O.O.O.O.O.O.O.O.O.O.O.O.O.O.O.O.O.O.O.O.O.......O.O.O.O.O.O.O.O.O...O.O.O.O.O.O.O.O.O.O.O.O.O.O.O.O.O...O.O.O.O.O.",
"X X o o o o o o o o o o o o o o o o X X X X X X   g |.[.P.d 0 _ ' Y.] 0 ) ( ( ( ( ) ( ( ) ( ( ( ( ( ( ( _ G Y ] Y q _ ) ( ( ` ( ) ( ( ( _ _ }  X|.%X`.+ + o X X o o o o o o o o X o X X X X X       + P.|.{.P.| ' ) ( ( ( ( ( ) ( ` ( ( ) ( ( _ G M. X;X|.V.+     X X X X X X o o o o o o X X X X X       f %X;X[.} ' _ _ _ ( ( ) ( ( ( ( ( ( ( ( ( ` ( ( ` ( ) ( _ D D D D _ D D D D ( ) _ ] } P. X;X{.$X$XV.9             n.|.;XJ.d 0 G | U.| _ _ _ ] Y.Y.[ ( ) ' } I. X|.|.$Xf     9 ].$X|.;XP.| _ _ ( F ( ( ( ( ( ( ) ) ( _ G |  X|.$XP.O   X X X X o o o o o o o o o X X X     X       f %X|.|.:X] ' ) ( ( ( ) ( ( ) ( ( ` ( ( ) ' ] I. X|.$Xf         X X X X X o o o o o o o o   +   & ].$X;XM.d ' [ I.Y.' ) ) _ | Y.} _ ( _ ' M. X|.|.$X|.;X{ 0 ) ) ` ( ` ( ( ( ` ) ( ( ( ( _ [ U.|.#X$Xg   o X X X X o X o o o o o o o o o o o o X X o o o o o o o o o o o o X o o X o o o X X X X o o o o o o o o o o o o o o X o o o o o o X o o X X X X o X X X o o X X o o o o o o o o o o X O . s m.>.>.E T s e r 3 3 - - - # # @ @ . . . . . X X X X o o o o o o o o o o o o o o o o o o o X X o o X X X X o o o o o o X o o o o o o o X o o X o o o o X X X X X X X X X X o o X o o o o X X X X o o o o o o o o o o o X X X X X X X X o o X o o X X o o X X X X o o o X X o o X X X X X X X X X X X X X X X X X   X     + . @ ' $.X.....O.O.....O.O.O.O.O.....O.............O.........O.....O.............O.O.O...........O.....O.O.O.....O.....O.O.O.O.O.O.........O.......O.O.O.O.O.O.O.O.....O.O.O.......O.O.O.O...O.O.........O.O.O.O.O.O.O.O.........O.O.O...O.........O.O.O.....O.O.O.....O.O.O.O.O.O.O.O...O.O.O.O.O.O.O.O.O.O.O.........O.O.......O.O...O.O.O.O.O.O.O...O.O.O.O.O.O.O.O.O.O.O.O.O.....O.O.O.O.O.O.O.O.O.O.O.O.O.O.O...O.O.O.O.O.O.O.O.O.O.O.O.O.O.O.O.O.O.O.O.O.O.O.....O.O.O.O.O.O.O.O.O.O.O.O.O.O.O.O.O.O.O.O.O.O.O.O.O.O.O.O.O.O.O.O.O.O.O.O.O.O.O.O.O.O.O.O.O.O.O.O.O.....O.O.O.O.O.O.O.O.O.O.O.O.O.O.O.O.O.O.O.O.O.O.O.O.O.O.O.O.O.O.O.O.O.O.O.O...............O.O.",
"o X o o o o o o o o o o o o o o o o o X X X       g |.[.P.d G G ' Y.] 0 _ ( ( ( ( ( ( ( ( ( ( ( ( ( ( ( _ ] P.P.P.{ 0 ' ( ( ( ( ( ( ( F F G {  X|.$X'.:   o o o o o o o o o o o X o X X X           { $X{.;XM.' ) ) ( ( ( ( ( ( ( ( ( ) ) ( ) ( _ ] I.|.{.$Xf         X X X X X o o o X o X X X X X       M.|.;XP.] G D _ _ ( ( ( ( ( ( ) ) ( ( ( ( ( ) ( ( ( ( ( ( ( ( ( ( ( ) ( _ _ _ G ] :X[.{.{.|.%X[.g                 { |.;XP.d G G | I.[ _ _ _ G ' #.[ ( ) _ _ | I. X|.|.%Xf a |.|.|.|.P.] _ _ ( ( ( ( ( ( ( ( ( ( _ ) ( G |  X|.%XJ.+   X X o X o o o o o X X o o X X X     X X   : ;X%X|.I.{ ' ) ( ( ( ( ( ) ( ( ( ( ( ( ( _ _ G }  X|.$X[.=       X X X X X o o o o o o X o X X   & ].$X;XM.d ' ' I.Y.' ) ` ) _ [  .) ( ( ) ' }  X|.|.$X;X{ G ) ) ( ( ( ( ( ( ` ( ( ( ( ) _ [  X|.|.$Xa   + X X X X X X X X o o o X o o X X o o X o o o o o o X o o o X X X X o o X o o o o X X o o o o o o o o o o X o X X o o X o o X o o X o X X X X X o X X o o o o o o o o o o o o X X X o o . >.(.S.S.S.S.S.D.D.D.D.,.,.>.,.,.,.>.>.E E s s r 3 - - - # # o o o o X X X X X X X X o X o o o o O O o o o o o o o o o X o o o o o o o X X o o o o X o o o o o o o o o o X o o o X o X o o o o o o o o o o o o o o o o o X X X X X X X X o o o X X X X X o o X X o o o o X X X X X X X X X X X X X X X X X X X X X X       . . 5 #.X.......O...O...O.....O.O.O.O.O.O.O.O.......O.O.O.......O.O...O.O.....O.......O.O.O.O.....O.........O.O.O.......O.O.O.O.O.O.....O.......O.....O.O...O.O.O.O.O.O.O.O.O.O.O.............O...O.O.......O.O.O.O.O.O.O.O.O.......O.......O.O.O.O.O.O.O.O.O.O.O.O...O.O.O.O.O.O.O.O.O.O.O.O.O.O.O.O.O.O.O.....O.O.......O.O.O.....O.O.O.O.O.O.O.O.O.....O...O.O.O.O.O.O.O.O...O.O.O.O.O.O.O.O...O.O.O.O.O.O.O.O.O.O.O.O.O.O.O.O.O.O.O.O.O.O.O.O.O.O.O.O.O.O.O.O.O.O.O.....O.O.O.O.O.O.O.O.O.O.O.O.O.O.O.O.O.O.O.O.O.O.O.O.O.O.O.O.O.O.O.O.O.O.O.O.O.O.O.O.O.O.O.O.O.O.O.O.O.O...O.O.O.O.O.O.O.O.O.O.O.O.O.O.O.O.O.O.O.O.O.O.O.O.O.O.O.O.O.O.O.O.O.O.............O.O.O.",
"o o o o o o o o o o o o o o o o o o o X X X       g |.[.P.d 0 G ' Y.] 0 ) ( ( ( ( F ( ( ( ( ( ( ( ( ( ( _ | P.P.;XM.0 ) ( ( ( ( ( ( F D D 0 {  X|.$X{.>   o o o o o o o o o o o o o X X X         > |.{.;XP.] G ) ( ( ( ( ( ( ( ( ( ( ( ( ) ( ( ) _ M. X{.|.[.:       X X X X X o o o o o o o X X X     : {.|.;XM.Y G D ( ) ) ( ( ( ( ( ) ) ( ( ( ( ( ( ( _ ( ( ( ( ( ( ( ) ( ) [ ) G ] M.I.{.{.|.%X$Xn.O     .   X X       { |.;XP.d G G | I.| _ ( ( _ ( ) ) ( ( ( _ _ | I. X|.|.|.|.$X|. XP.| ' _ ( ( ( ( ( ) ( ( ( ( ( ( _ _ 0 |  X|.%XP.+   X X o o o X o o o o o o o X X X       X   M.%X|. XM.] ' ) ( ( ( ) ) ( ( F ( ( ( ( ( ( _ _ ' I. X{.$X{     X X X X X X o o o X X o o o X X   & [.$X;XM.Y ' ' I.Y.G ) ( ` ` ) ) ( ) ) ) ) ' }  X|.|.;X} G ) ) ( ( ( ( ( ( ( ( ( ( ( ( F ] U.|.|.$Xs   X X X X X X X X X o o o o o o o o o o o o o o o X o o o o X X o o o o o o o o o o o o o o o o o o o o o o X X X X X X X X X X X X o o X o o o X o o o o o o o o o o o o o o o X X o o O @ ,.(.G.Q.G.A.A.Z.Z.Z.Z.3.4.4.4.D.D.D.D.D.S.D.D.D.D.D.N.N.N.,.,.>.>.T s s e r r r 3 3 - - - # # . . . . . . X . X X X X X X X o O O O o o o o o o o o o o o o o o o o X o o o X X X o o o o o o o o o o o o o o X o o o X o o X o o X X X X X o X X X o X X o X X X o o o o o o X o o o o X X X o X X X X X X   X X X     . + . ' $.X...............X.......O...................O.O.O.....O...O.O.....O.O.O.O.O.O...O.O.O.O...O.O.O.........O.O.O.O.O.O.O.O.O.O.O.....O.O.O.O.O.....O.O.O.O.O.O.O.O.O.......O.O.............O.O.O.O.O.O...O.O.O.O.....O.......O.O.......O.O.O.O.O.O.O.....O.O.O.O.......O.O.O.O.O.O.O.O.O.O.O.O.O.O.O.O.O.................O.....O.O.........O.O.O.O.O.O.O.O.O.O.O.O.O.O.O...O.O.O.O.O.O.O.O.O.O.O.O.O.O.O.O.O.O.O.O.O.O.O.O.O.O.O.O.O.O.O.O.O.O.O.O.O.O.O.O.O.O.O.O.....O.O.O.O.O.O.O.O.O.O.O.O.O.O.O.O.O...O.O.O.O.O.O.O.O.O.O.O.O.O.O.O.O.O.O.O.O.O.O.O.O.O.O.O.O.O.O.O.O.O.O.O.O.O.O.O.O.O.O.O.O.O.O.O.O.O.O.O.O.O.....O.O.O.O.O.O...O.O.O.O.O.O.O.O...O.O.O.O.O.",
"X o X o o o o o o o o o X o o o o o o o X X       g |.[.J.d Y _ ] Y.] 0 _ ( ( ( ( ( ( ( ( ( ( ( ( ( ( ( _ ] Y.I.I.} ' ) ( ( ) ) ( D D D 0 0 {  X|.$X{.>   o o o o o o o o o o o X X X X X         V.$X{.[.} G _ ( ) ) ( ( ( F D D D ( ( ( ( ( ( ( ) ] P.|.|.%Xn.      X X X X X o o o o o o o o X X X   a $X].[.} 0 G D F ( ( ( ( ( ( ( ( ( ( ) ( ( ( ( ( _ ( ( ( ( ( ( _ ( ) ) ' ] } P.;X|.|.$X%XV.>         X X X X X X   n.$X;XP.d G G } U.| _ _ ( ( ( ( ( ) ( ( ( ) ' | I. X|.|.|.|. XY.[ _ _ ( ( ( ( ( ( ( ( ( ( ( _ _ ( _ G }  X|.$XP.O   X X o o X X o X X o o o X X X X         a %X$X|.P.] ' ) ( ( ( ( ( ( F D D D ( ( ( ( ( ) ) _ }  X|.|.{.>   X     X X X o o o o o o X X X X   O [.$X].M.d ' ' I.Y._ ) ( ( ( ` ` ( ) ) ( ( ) ) }  X X;X{ G ' ) ( ( ( ( ( ( ( ( ( ( ( ( G ] U.|.|.$Xa   X X X X X X X o o o o o X o o o o o o o o X o o X X o o o o o o o o o X o o o o o o o X o o X X X X X X o o X o X X o X X X o X X o o o X o o X o o o o o X X X o o o o o o o X X o o O - m.(.Q.Q.Q.Q.Q.G.G.G.G.Q.G.F.F.F.F.F.A.A.A.A.A.A.Z.A.D.Z.Z.Z.Z.D.Z.Z.S.S.S.S.S.D.D.D.D.4.,.,.,.>.E E f s e r r 3 r 3 - - # # . . . . . . . . . X o X o o o o O o o O o o O o o o o o o o O o o o o o o o o o o o o X o X o o o o o o X o o o o o o o o o X o o o o X X o X X X X X X X X X X X X X X X X X +     X X   . + . 5 #.%.X.O.O...............................O.O.O.O.O.O.....................O.......................O.O.O.......O.O.O.O.O.O.O.......O.O.......................O.O.O.............O.O.O...O.O.........O.O.O.O.O.O.O.O.O.....O.O.....O.....O.O.O.....O.O.O.O...........O.O...........O.O.O.O.O.O.O.O.O.O.O.O.O.O.................O.O.............O.O.O.O.O...O.O.......O.O.O.O.O.O.O.O.O.O.O.O.O.O.O.O.O.O.O.O.O.O.O.O.O.O.O.O.O.O.O.O.O.O.O.O.O.O.O.O.O.O.O.O.O.O.O.O...O.O.......O.O.O.O.O.O.O.O.O.O.O.O.O.O.O.O.O.O.O.O.O.O.O.O.O.O.O.O.O.O.O.O.O.O.O.O.O.O.O.O.O.O.O.O.O.O.O.O.O.O.O.O.O.O.O.O.O.O.O.O.O.O.O.O.O.O.O.O.O.O.O.O.O.O.O.O.O.O.O.O.O.O.O.O.O.O.O.O.O.O.O.O.",
"o o X o o o o o o o o o o o o o o o o X X X       g |.[.J.d 0 G ' Y.] 0 ) ( ( ( ( ( ( ( ( ( ( ( ( ( ( ( ) _ | } } [ ' ) ( ( ( ( F D D 8 0 0 {  X|.$X].>   o o o o o o o o o X X X X X           f %X{.{.:X] ' ) ( ( ) ( ( F D H 8 D F _ ( ( ` ( ( ` _ }  X|.|.|.3       X X X X X o o X o X X o X X X   f $X{.P.] 0 G D F ( ( F ( ( ( ( ( ( ( ( ( ( ( ( ( ( ( ( ( ( ( ( ) ) _ ' | P.[.|.{.|.%X[.g +     X X X X X X X X X   n.$X{.P.d G G | U.| _ ) ( ( ( ( ( ( ) ( ( ( ) ' [ Y. X X|.;XY.] G ) ( ( ( ( ( ( ( ( ( ( ( ( _ ( ( ( G }  X|.%XJ.+   X X o X X o X X X X X X X X X X       O `.%X|.;X} ' [ ) ( ` ( ( ( F D D 8 D F ( ( ( ( ( ( ) ' I. X|.%Xn.          X X o o o o o o o X X X   O [.$X{.M.d ' ' Y.M.G ) ( ( ` ` ` ` ) ( ( ( ) ) ) } I.U.| G ) ) ( ( ( ) ( ( ( ( ( ( ( ( F ] U.|.|.$Xs   + X X X X X X o o o o X X o o o o o o o o o o X o o X X o o o o X o o o o o o o o X X X o o o X X X X X o o o X X o X X o o o X X X X X X X X X o o X X o X o X X o o o X X o o o o o o - N.(.Q.Q.Q.G.G.G.G.Q.G.Q.Q.G.G.Q.G.Q.Q.Q.Q.Q.Q.Q.Q.Q.Q.Q.G.F.A.F.A.Z.A.A.A.A.Z.Z.A.Z.A.Z.D.Z.D.D.D.D.D.S.S.S.D.D.D.D.D.N.,.>.>.>.E s s s e r r r - - - # # o o . . . . . . . . X o o o o o o o o o O O o O o o o o o o o o o o o o o o o o o o o o o o o o o o o o X X X X X X X X X X X X X X X X X X X X             . . @ ' %.X.+.O.O...................................O.O.O...........................O...........O.......O.O.........O.O.O.O...O.O.......O.O.O.O.....................O.O.................O.......O.O.....O.O.O.O.O.O.O.O.O.O.O.O.O.O.....O.O.O.......O...O.O.O.O.....O.......O.O.O...O.O.O.O.O.O.O.O.O.O.O.O.O.O.O.O.....................O.O.O.O.O.O.O.O.O.O.....O.O...........O.O.O.O.O.O.O.O.O.O.O.O.O.O.O.O.O.O.O.O.O.O.O.O...O.....O.........O.O.O.O.O.O.O.O.O.O.O.O.......O.O.O.O...O...O.O.O.O.O.O.O.O.O.O.O.O.O.O.O.O.O.O.O.O.O.O.O.O.O...O.O.O.O.O.O.....O.O.O.O.O.O.O.O.O.O.O.O.O.O.......O.O.O.O.O.O.O.O.O.O.O.O.O.O.O.O.O.O.O.O.O.O.O.O.O.O.O.O.O.O.O.O.O.O.O.O.O.",
"X o o o o o o o o o o o o o o o o o X X X X X X   d |.[.J.0 0 _ ' Y.] 0 ) ) ( ( ( ( ( ( ) ( ( ) ( ( ( ( F ( F ) ) ) ( ( ( ( F F D D H H 0 0 }  X{.$XP.O   o X o o X o o o X X X X X X         : ].$X|.[.{ ' ) ) ( ( ( ( ( ( D H H D D F ( ( ( ( ( ) ) ' P. X|.%XM.      X X X X X X o X o o X X X X X   { $X{.P.d 0 G D F ( ( ( ( ( ( ( F ( ( ( ( ( ( ( ( ( ( ( ( ( _ ) ) G ] M.I.|.|.$X%X[.f O     .   X X X X X X X X X   n.%X|.P.d Y _ } U.| G _ ( ( _ F ( ( ( ( ( ( ( _ _ ] Y. X;X:X] _ ) ( ( ( ( ( ( ( ( ( ( ( ( ( ( ( ( ( G }  X|.%XJ.+   X X o X X X o o X X X X X X X         { %X|.|.M.] ' ` ( ( ( ( ( ( F D H D D D ( F ( ( ) ( ` _ |  X|.|.|.a         X X X X X o o o X X X X   O [.$X].V.d Y ' Y.M.D ( ( ` ` ( ( ( ` ` ( ( ( ( ) ) | Y.| G ) ) ( ( ) F ( ( ( ) ( ( D F G ] U. X|.$Xs   X X X X X o o o o o o X o o o o X o o o o o o o o o o X o o o o o o o X X X X o o X X X X o o o o o X X o o o X o o X X o o o o o o o o o o o o X X X X o o o X X X X o X X X o o o o o - D./.Q.G.Q.G.G.Q.G.G.!.G.G.Q.Q.Q.G.G.Q.Q.Q.Q.Q.^.Q.!.!./.!.Q.G.G.G.G.G.Q.Q.Q.Q.G.G.Q.Q.G.G.G.A.G.F.G.A.A.A.S.S.A.Z.Z.D.S.S.S.S.S.Q.S.S.D.D.4.D.D.N.D.N.,.,.>.>.T s s s s e e r - - - - - # @ o . . . . . . . X o o o o o o o o O O O O o o o o o o o o o o o o o o o o X X o o X o o X X X X X X X X X X             . . . 5 #.$.O.O.O.O...O.O.........O.O.O.......O.........O...........................O...O.O.O.............O.O...O.O.O.O.O.O.....O...O.........O.O...O.........O.......O.O...........O.O.O.O.....O.O.O.O.O.O.O.O.O...O.O.O.O.O.O.O.O.O.....O.O.........O.....O.O.O.O...O.O...........O.O.O.O.O.O.O.....O.O.O.O.O.O.O.O.O.....O...........O.O.....O.....O.O.....O.........O.........O.O.O.O.O.O.O.O.O.O.O...O.O.O.O.O.O.O.O.O.O.O.O.O...O.O.O.O.O.......O.O.O.O.O.O.O.O.O.O.O.........O.O.O.O...O.O.O.O.O.O.O.O.O.O.O.O.O.O.O.O.O.O.O.O.O.O.O.O.............O.O.O.O...O.O...O.O.O.O.O.O.O.O.O.O.O.O.......O.O.O...O.O.O.O.O.O.O.O.O.O.O.O.O.O...O.O.O.O.O...O.O...O.O.O.O.O.O.O.",
"X X o o o o o o o o o o o o o o o o o X X X X X   g |.[.J.0 0 G ' Y.] 0 ) ) ( ( ( F ( ( ( ( F ( ( ( ( ( ( F ( ( ( ( ( ( F ( D D D 8 8 0 H 0 M.|.{.$XV.    X X X X X o o o o o X X X X X       n.%X|.{.M.' ) ( ( ( ( ( ( F ( F D D D F F F ( ( ( ( ) ) _ |  X|.#X|.a     X X X X X o o o o o X X X X X   n.$X].M.d 0 H D F ( ( ( ( ( ( ( ( ( ( ( ( ( ( ( ( ( ( ( ( ) ' ' ] } P.{.|.|.$X[.{ %             X     X X X X   X   n.%X|.P.Y G G | U.| G ) ( ( ( ( ( ( ( ( ( ( ( ) ) _ ' M.Y.' _ _ ) ( ( ( ( ( ( ( ( ( ( ( ( ( ( F ( F G }  X|.%XJ.+   X X o o o o o X X X X X X           > #X$X|.P.{ ' ` ( ` ( ( ( ( ( F D F H D D ( ( ( ( ( ( ) _ Y Y.%X|.%XV..     X X X X X X o o o o o X X   O ].$X].M.d G _ Y.#.D ( ) ` ` ` ` ( ( ( ` ` ` ( ( ` ) [ [ D ) ) ) ( ( ( ( ) ( F ( ( _ F G [  X|.|.|.a   X X X X X X X X o o o o o o o o o o o o o o o o o o o o X o o o X X X X X X X X X X o o o o o o o o X X X X X X o X X X X X X X o X X X X o o o X X X o o o X X X X X X o o X o o o O o 3 S./.Q.G.G.G.F.G.F.F.G.G.G.G.G.Q.G.G.F.Q.Q.Q.Q.Q.Q.Q.!.Q.!.Q.G.G.F.G.G.G.G.Q.Q.Q.Q.G.Q.Q.G.Q.G.Q.Q.Q.Q.Q.F.Q.G.G.Q.Q.F.Q.^.Q.S.S.G.G.G.A.A.A.D.Z.S.S.S.S.S.S.S.S.D.D.S.S.Q.S.S.D.D.N.N.N.N.,.>.>.T s e e e r 3 - - - - # o o . . . . . X X o o o o o o o o o o o o O O o o o o o X X o X X o o X X X X               . . . G $.X.O.O.O.......O.O.O.O...O.O.O.O.......O...O.O.O.O.O.O.O.................O.O...O.O...O.O.....O.O.....O.O.O.O.O.O.O.....O.O.O.O.............O.O.O...................O.O.....O.O.O.O.O.O...O.O...O.O.O.O.O.........O.O.O.O.O.O.O...O.O.O.O.O...O.O.........O.....O.O.....O.O.O.O.O.O.O.O.O.O.O...O.O...O.......O.O.....O.O.O...O.O.O.O.O.O.O.O.O.O.O...O.O.....O.O.O.O.....O.O...O.O...O.O.O...O.O.O.O...O.O.O.O.O.O.O.O.O.O.O.O.O.O.O.O.O.O.O...O.O.O.....O.O.O.O.O.O.O.O...O.O.O.O.O.O.O.O.O.O.O.O.O.O.O.O.O.O.O.O...O.O.O.O.O.O.....O.O.............O.O.O.O.O.O.O.O.O.O.O.O.O.O.O.O.O.....O...O.O.O.O.O.O...O.O.O.O.O.O.O.O.O.O.O.O.O.O.O.O.O.O.O.O.O.O.O.O.O...O.O.",
"o o o o o o o o o o o o o o o o o o o X X X X X   g |.[.J.0 0 _ ' Y.] 0 ) ( ( ( ( ( F ( ( F ( ( ( ( F F ( ) ( F ( ( ( ( F D D D H 8 8 8 0 Y P.|.{.$X{   X o X X o o o o X o o X             9 $X#X|.P.] _ ( ( ( ( ( ( ( ( F F F F F F ( F F ( ( ( F ( ) G P.|.;X$XV..   X X X   X o o X o o X X X       M.$X;XM.0 0 H J D F F ( ( ( ( ( ( ( ( ( ( ( ( ( ( ( ( ( ) _ ' } P.;X|.|.$X$X|.f                           X X   X   n.$X|.P.d ' _ | I.| G _ F ( ( ( ( ( ( ( ( ( F ( _ _ G _ ) F F ( ( D ( ( ( ( ) ( ( ) ) ( ) ( ( ) F D G }  X|.$XP.o   X X X X o o o o X X X X X           V.=X#X|.} ' ) ) ( ( ( ( ( ( ( ( ( F D D ( ( ( ( ( ( ( ( ) G ]  X$X|.%Xd   + X X X X X o o o o o o X X   O [.$X;XM.d G _ Y. .D ) ` ` ` ( ( ( ( ( ( ` ` ( ( ` ` ( ` ` ( ( ` ( ( ` ` ( ) ( F F F D D ]  X|.#X$Xa   X X X X X o o X X X o o o o X o o o o o o o o o X X X o X X o X X X X X X X o o X o o o X o o o o o X X X X X X X X X o X X X X X X X X X X X X X o o o X o o X X X X X X o X o o o O # 3 W.^.Q.Q.G.G.F.F.G.G.G.!.Q.G.G.G.G.G.F.G.Q.Q.!.!.G.Q.G.Q.Q.G.G.G.G.G.G.G.G.G.Q.F.G.G.Q.Q.G.G.G.Q.Q.Q.Q.^.G.G.Q.F.G.Q.Q.Q.^.^.^.Q.Q./.^.Q.G.Q.Q.Q.Q.Q.Q.Q.Q.Q.G.Q.G.S.A.F.S.S.G.S.S.S.Q.Q.S.Q.Q.Q.S.D.D.S.S.S.S.D.N.N.m.,.>.s s s s s s s r r - - - = O o . . . . . . . X X X X X X X o o o o X o X X X X X           . . %  .$.O.O.O.+.O.O...................O.O.................O.O.O.O.O...........................O.O.O.O.O.O.O...........O.O.O.....O.O.O.O.O.O.O.O.O.........O.........O.....O.O.O.O.O.O.O.O.O.O.............O.O.O.O.......O.O.O.O.O.O.O...O.O.O.O.O.....O.O.............O.O.....O.O...O...O.O.O.O.O.O.O.O.O.....O.......O.O.O...O.O.O.........O.O.O.O.O.O.O.O.O.O.......O.O.O.O.O.O.O.O...O.O...O.O.....O.O.O.O...O.O...........O.O.O.O.O.O.O.O.O.O.O.O.O.O.O.O.....O.O.O.O.O.O.O.O.O.O.O.O.O.O.O.O.O.O.O.O.O.O.O.O.O.O.O.O.O.O.O.O.O.O.O.O.O...O.O.O.O.O.............O.O.O.O.O.O.O.O.O.O.O.........O...O.....O.O.O.O.O...........O.O.O.O.O.O.O.O...O.O.O.O.O.O.O...O.O.O.O.O.",
"o o o o o o o o o o o o o o o o o o X X X X X X   g |.[.M.0 0 G ' Y.] 0 ) ( ( ( F ) ( ( F F F ( F F ( F D D D F D D F D D D H 8 8 H J H 0 ] I.|.{.$X3   X X X o o o o X X o X X X         . V.%X|.[.{ Y ) ) ` ` ( F F F ) ( ( ( ) ( ( ( ( ( F F ( ( ( _ G ] ;X|.|.$Xs     X X X X X o X o o X X X X     M.|.;XM.0 0 0 H D F ) ( ( ` ( ( ( F ( ( ( ( ( F ( ( ( ( F J ] Y.I. X%X|.|.|.|.|.V.f O                           X   { %X|.J.d G ) _ [ ' F F ( ( F ( ( F ( ) ( ( ( ( ) ( _ F F _ ( ) D ( ) ( F ( ) F ( D F ( ( F ( F D D G |  X|.$XP.O   X X X X o X o X X X X X X X       g =X$X|.J.] [ ) ( ` ( ( ( ) ( ( ( _ F F ( ( F ( F ( ( ( ( F ) G :X%X|.$X[.&   X X X X X X o o X X X X X   + '.$X[.M.d G G ' ) ( ` ( ` ` ` ` ( ` ( ( ` ` ( ` ` ) ) ) ) ` ( ( ( ( ` ( ( ( F F D D F G [  X|.|.$Xa   X X X X X o o o o o o o o o X o o o o o o o o X X X X X X X X X X X X o X X o o o X o o o o o X o o X X X X o X X o X X X X X X X X X X o o X X o X X o X o X X X X X X X X X X X o O # r ^./.Q.Q.Q.Q.Q.G.G.F.G.F.F.Q.G.F.F.G.G.G.G.Q.G.Q.Q.Q.Q.Q.Q.Q.G.G.G.Q.F.Q.Q.Q.G.Q.G.F.G.Q.Q.G.G.G.Q.!.G.Q.G.G.Q.F.F.Q.^.Q.Q.^.Q.Q.Q.Q.^.!.^.F.Q.Q.Q.Q.Q.Q.Q.^.^.Q.Q.Q.Q.Q.Q.Q.Q.Q.Q.Q.Q.G.Q.G.G.Q.S.S.G.G.A.S.Q.A.S.D.D.S.S.S.D.D.D.D.S.W.W.S.N.N.m.m.m.,.,.>.E T s e r 3 3 - - - - # @ . . . . . . .   . . X . . . . . . H $.X.O.O.O.O.O.O.O...............O.O.O.................O.O.O.O.O.O.O.O...O...........O.....................O.O.......O.O.......O.O.O.O.O.O.O.O.O...O.............O.O...........O.O.O.O...O.O.......O.O.....O.O.O.O...O.O...O.O.O.O.O.O.O.O.O.O.O.....O.O...........O...O.............O.O.O.O.O.O.O.O.O.O.O.O.O.O.O.O.O.O.O.........O.O.....O.O.O.O.O.O.....O.O...............O.O.O.O.O.O.O.....O.......O.....O.O.....O.O...O.O.O...O.O...O.O.O...O.O...O.O.O.O.O.O.O.......O.O.O.O.....O.O.O.O.O.O.O.O...O.O.O.O.O.O.O.....O.O.O.O.O.O.O.O.O.O.O.O.O.O.O...............O.O.O.O.O.O.O.O.O...O.O...........O.O.O.O.O.O.O.O.O.O.O...O.O.O.O.O.O.O.O.O.O.O.O.O...O.O.O.O.O.O.",
"o o o o o o o o o o o o o o o o o o X X X X   X   g |.[.V.0 G _ ' Y.] 8 ) F ( ( F F ( ( ( ( ( D D D D D 8 D D H D D D H H D J H H D H G 0 M.|.{.|.`.O   X X X X o o o X X X X X X         f %X|.|.P.] _ ) F F ( ( ( ) ) ) ( ) ) ) ) ) ( ( ( ( ( ( F ( ( G 0 M. X|.$XP.+     X   X X X X X o X X X X     C.$X].M.0 0 H H D F ( ) ( ( ` ( ( ( ` ( ( F ( ( ( ( ( ( ) G _ Y ] M.P.|.|.|.|.|.$X$X[.{ 9                 X         n.$X|.P.Y ' _ ( ( ( ( ( ( ( ( ( ( F ( ( ( ( ( ( ( F ( F ( ( F ) ( ( ( ( ( ( F ( ( ( ( ( ( ) ( D D F G }  X|.$XP.O   X X o o o X X X X X X X     X   = [.%X$X[.| Y ) ( F ( ( F ( ( ( ( _ _ F G _ ) F ( ( ( ( ( ( ( ) G ]  X%X|.%Xf       X X X X X X X X X X X   O '.$X;XM.d G D ( ( ` ( ` ` ( ( ( ( ` ` ` ` ( ( ` ( ( ` ( ` ` ( ( ( F ( ( F ( ( F D D D D ]  X|.#X%Xs   o X X X X o o o o o o o o o X o o o o X X X o X X X o X X o o X X o o X X X o X X o X o o o X X X o X o o o X o o o o X X X X X X X o X X o o X o o X o o o X X X X X X X X X X X o O . e (.^.Q.Q.G.G.Q.Q.G.Q.Q.F.A.A.Q.F.F.F.G.G.F.F.G.F.F.F.G.G.A.F.G.F.G.G.Q.F.F.G.G.G.Q.Q.G.G.G.G.G.Q.Q.G.G.Q.Q.Q.Q.G.Q.G.Q.Q.G.Q./.^.G.Q.Q.Q.^.Q.G.Q.Q.Q.Q.G.G.Q.Q.Q.Q.Q.Q.Q.Q.Q.Q.Q.Q.Q.Q.!.Q.Q.Q.Q.Q.Q.G.Q.Q.G.G.Q.Q.^.Q.Q.Q.G.Q.S.A.S.S.S.S.G.Q.S.S.S.S.S.S.S.^.G.S.S.S.S.S.S.S.N.,.,.>.T T T T s s s r 3 3 - - - # # @ #  .%.X.O.O.O.O.....O...O.O.............O.....O.O.O.....................O.....O.O.....O.............................O.....O.O.O...................O.O...O.O.........O.O...O.O.O...............O.......O.................O.O.....O.O...........O.O.O.....O.......O.................................O.....O.O.O.O...O...O.................O...........O.O.O.....O.O.........O.O...........O.O.O.O.....O.O.......O.O.O.......O.........O.O.O.........O...........O.O...O.O.O.O.O.O.O.O.O.O.O.O.O...O.O.O.O.O.O.O.O.O.O.O.O.O.....O.....O.O.....O.O.O.O.O.O.O.O.O.......O.O.O.O.O.O.O.O.O.O.O.O.O.O.O.O.O.O.O.O.O.O.O.O.O.O.O.O.O.O.O.O.O...O.O.O.O.O.O.O.O.O.O.O.O.O.O.O.O.O.O.",
"o o o o o o o o o o o o o o o o o o X X X X       g |.[.J.0 0 G ' Y.] 0 _ F F F ( F ( F F ( D D J H 8 8 0 8 D H D H 8 8 J J J D H F D G ] P.;X].%Xf   o X o X o o o o X X X X X X       : ].$X|.I.{ G ) ( F ( ( ( ( ( ( F ) H 8 q 0 _ ) F ( ( ) ( F F F F G ] I.|.|.%Xf   . X X X X X X X X X X X X     n.$X].M.d 0 0 J J D F ( ( F ( ( ` ` ` ` ( ( F ( ( ( ( ( F ( ) ) _ G Y { :X;X X|.|.|.|.%X|.V.f :         X X X       n.%X|.P.Y G ) ( F ( ( F ( F ( ( F ( ( ( ( F ( ( ( F ( ( ( F ( ( ( ( ( ( ( ( ( F ( ( ( ( ( F D D D D H }  X|.%XP.O   X X X X o X X X X X X X         n.%X|.|.M.] ' ( ( ( ( F F ) ( ( ( D 0 q q 0 _ F ` ( ( ( ( ( F F ) G M.%X$X$X;X:     X X X X X X X X X X X   O [.$X[.M.d G ) ( ` ( ( ( ( ( ( ` ( ` ` ( ` ( ( ( ` ( ( ) ( ( ` ( F F ( ( ( ( ( F D D D H ]  X|.#X$Xa   X X X X X X X X o o o o o o X o o X o X o o o X X X X o X o o X X o o o X X X X X X X X X X X o X X X o X o o X X o o o o X X X o X X X o o o X X X X X X X X X X X X X X X X X o o o . e (.^.Q.^.!.Q.G.Q.G.Q.Q.Q.Q.G.G.!.F.F.F.Q.Q.G.G.G.G.F.Q.Q.G.G.G.Q.F.G.F.Q.F.G.Q.G.F.G.G.G.G.F.G.G.F.G.G.G.Q.^.Q.G.G.G.Q.Q.Q.Q.G.Q.Q.S.G.Q.Q.Q.Q.Q.Q.G.G.G.^.^.Q.Q.Q.Q.Q.Q.Q.Q.Q.Q.Q.Q.Q.Q.Q.Q.Q.Q.Q.Q.G.G.^.Q.Q.Q.Q.^./.^.Q.Q.^.^.^.Q.^./.^.^.Q./.^.Q.^.^.Q.Q.G.G.G.S.A.Z.A.S.S.A.A.A.A.A.D.D.D.A.D.D.D.N.,.,.,.>.E E I I  .#.$.X.%.X.X.+.X...O.O.O.O.O.....O.O...O.....O.O...O.................O.O.O...O.O...........O.O.O.........................................O.O.............O.........O.O.O.O.O.O.O.O.O.....O.O.................................O.O...........O.O.O.O...O.O.O...O.O.O...O.O.O.O.O.O...........O.........O.O...O.O.O.....O...O...O.O.O.....O.O.O.O.O.O.O.O.O.....O.O.......O.O.O.....O.................O.O.O.O.O...O.......O.O.......O.O.O.O.........O.O.O.O.O.O.O...O.O...O.O.O.O.O.O.O.O.O.O.....O.O.O.O.O.O.O.O.O.O.O.O.....O.......O.O.O.O.O.O.O...O.O.O.O.O.....O.O.O.O.O.O.O.O.O.O.O.O.O.O.O.O.O.O.O.O.O.O.O.O.O.O.O.O.O.O.O.O.O.O.O.O.O.O.O.O.O.O.O.O.O.O.O.O.O.O.O.O.",
"o o o o o o o o o o o o o o o o o o X X X X       g |.[.J.0 G G ' Y.] 8 ) ( F ( ( D F F F F D D J 8 8 8 8 8 8 H H H 8 J D D D D D ( _ ] M.{.{.|.[.=   X X X X o o X X X X X X X         n.%X{.{.M.Y _ F F F ( F ( F ( ( F G Y { ] q 0 _ F ( ( ) ( F F F ) _ G }  X|.|.[.:   X X X X X X X X X X X X X   f $X].V.d 0 0 8 J D ( ( ( ( ( ( ( ` ( ( ( ) ( ( ( ( ( ( ( F ( ( ( ) _ G G Y } P. X|.|.|.|.$X%X].n.a +               n.$X{.P.d G ) ( F ( ( F F ( ( ) F F F ( ( ( F ( ( F ( ( F F ( ( F ( ( F ( F ( ( F ( F ` ( F D D D D G }  X|.$XP.O   X X X X o X X X X X X X       9 |.|.|.P.{ ' ) ( ( ( ( ( F F ( ( ) G Y { ] q 8 F ( ( ( ( ( ( ( F ) _ ' I.%X$X%Xn.    X X X X X X o X X X X   O [.$X;XM.d G ( ( ( ( ( ` ( ( ( ( ( ( ( ( ( ( ( ( ( ( ( ( ( ( ( F F F ( F F ( F D H H D H ]  X|.#X$Xa   o X X X X o o o o o o o o o o X X o o o o X X X X X X o X X X X X X o o X X X X X X X X X X X X X X X X o o o o X X X o o o X X X o o o o o X X X X X X X X X X X X X X X X X X X X o . s (.^.Q.S.Q.Q.Q.Q.!.Q.Q.Q.Q.Q.Q.Q.G.G.F.G.Q.G.G.F.F.G.G.Q.G.Q.G.Q.G.Q.Q.G.G.F.G.Q.Q.Q.!.Q.Q.G.G.G.Q.F.G.G.G.Q.Q.Q.G.Q.Q.Q.G.Q.^.G.Q.Q.S.Q.Q.Q.Q.Q.^.Q.Q.Q.^.^.Q.Q.Q.^.Q.^.Q.Q.Q.Q.Q.Q.Q.Q.^.^.Q.Q.Q.^.^.G.Q.^.^.^.^.^././.Q.Q.^./././././.^./.^.Q./.^.^.^.Q.Q.Q.^.Q.Q.Q.^.Q.Q.Q.Q.G.G.G.G.F.A.A.A.A.Z.Z.Z.Z.1.,.,.,.W R I I G [  .$.%.%.X.X.......O.O...O.O.O.O.O.O.O.....O.O...O.O.............O.O.O.....................O.......O.O.O.O.O.............................................O.......O.O.O.O.O.O.O.O.O.O.O.......O.........O.O.O.O.O.O.O.........O.O.O.O.O.O.O...O.O.O.O.O.O.O.O.O.O.O.O.O.O.O.O.O.....O.....O.O.O.O.O.O.O...O.O.....O.O.O.O.O.O.O.O.O.O.O.O.O.O.O.O.O.O...................O.O.O.O.......O.............O.O.....O.O.O.O.O.O.O.O.O.........O.O...........O.....O.O.O.O...O.O...O.O.O.O.O.O.O.O.....O.O.O.O.O.O.O.O.O.O.O.O.....O.O.......O...O.O.O.....O.O.O.O.O.O.O.O.O.O.O.....O.O.O.O.O.O.O.O.O.O.O.O.O.O.O.O.O.O.O.O.O.O.O.O.O.O.O.O.O.O.O.O.O.O.....O.O.O.O.O.O.O.O.O.",
"o o o o o o o o o o o o o o o o o o o X X X X X   g |.[.V.0 G _ ' Y.] 0 F F F ( ( F F F F F D D 8 8 8 8 8 8 D J J D D D F F F ( ( ) ' } [.|.{.%Xf   X X X X o o X X X X X X     X     a $X|.{.P.] G _ F F F F F ( F ( ( ) ' M.P.P.M.q _ F F F ( ( ( ( ) F F G Y P.|.|.%Xn.      X X X X X X X X X X     g $X].P.d q G 8 J D D F ( ` ( ( ) ` ( F F ( ( F ( ( ` ) ( ( ) ( D 8 D G G G G Y { M.;X|.|.|.|.|.$X#XJ.f >           n.%X{.J.d G ) F ( F F F ( ( ( ( F F F F ( ( F ( ( ( F F ( F ( F ( F ( ( ( ( F F ( ( ( ( ( ) F D D D H }  X|.$XP.O   X X X X o X X X X X X         J.$X|.[.} ' ) ( F F ( F F F F ( ( F ] Y.P.P.{ q G ) ( F ( ( ( ( ) F G G } %X|.%X|.3   X X X X X X X X X X X   O [.$X[.M.d _ ( ( ( ( ( ) ( F ( ( ( F ( F ( ( ( F ( ( F ( ( ( F F F ( ( ( ( ( ( D J H H H ]  X|.#X$Xa   o X X X X X o o o o o o o o o o o o o X X X X X X X o o X X X X X X o X X X X X X X X X X X X X o X o o o X X o X o o X X X X X X o o X o X X X X X X X X X X X X X X X X X X X X X o . s (.^.^.G.G.F.G.Q.Q.Q.G.G.G.Q.Q.G.G.!.G.F.G.Q.Q.F.G.G.Q.Q.Q.Q.Q.G.Q.Q.G.G.Q.F.F.Q.Q.!.Q.G.G.G.G.G.G.Q.G.G.Q.Q.Q.G.G.G.G.Q.Q.G.Q.Q.G.^.Q.G.Q.Q.Q.Q.Q.Q.Q.Q.Q.Q.Q.Q.Q.Q.G.G.Q.G.Q.G.Q.Q.Q.G.Q.^.Q.Q.Q.Q.Q./.Q.^.^.Q.Q././.^.G.Q././.^./.^.^.^././.^.^.^.^.Q.Q.G.G.Q.G.Q.!.Q.Q.Q.Q.!.G.Q.G.Q.G.Q.Q.G.G.G.F.A.A.Z.4.2.,.<.R R I I b J F `  .$.%.%.+.X...X.O...O.O.O.O.O.O.O...O.O...O.O.O.............O.O.................................................O.................O.O.O...........O.O...............O.O.O.O.O.........O.O.....O.O.........O.O.O.O.....O.O.O...O.O.O.......O.O...O.O.O.O.O.O.O.O...O.O.....................O.O.O.O.O.O.O.....O.O.O.O.O.O.O.O.O.O.O.O.O.O.O.......O.O...............O.O.O.O.....O.O.O.O...........O.O.O.O.....O.O.O.O.O...O.....O.O...O.......O.O.........O.O.O.O.O...O.O.O.O.O.O.O.O.O.O...O.O.O.O.O.O.O.O.O.O.....O.O.O.....O...O...O.O.O.O.O...O.O.O.O.O.O.O.O.O.....O.O.O.O.O.O.O.O.O.O.O.O.O.O.O.O.O.O.O.O.O.O.O.O.O.O.O.O.O.O.O...............O.O.O.O.O.O.",
"o o o X o o o o o o o o o o o o o o X X X X   X   f |.[.J.0 G G ' Y.] 8 F F F F F F F F F F D 8 8 8 J J H H H D D F F F F ( ( ) ) ' | P.{.{.$XJ.+   X X X X o o X X X X X X         + J.$X{.[.} Y G F F F F F F F F F F ) ' Y.I.;XM.G ) F F ( F ( F ( ) G H G G |  X|.|.{.>     X X X X X X X X X X     > $X{.P.{ q G 0 H J D F ( F F ( ( ( ( F ( F F F ( ` ( ( ( ) F )  .} ] 0 0 H G G 0 0 Y } P. X%X|.|.|.#X%X;XV.9       n.$X].J.d G ) F ( ( ( F F F ( F F F F ( F F F F F ( F F ` F F F F ( F ( F F F F ` ( F ( F F F D D D H }  X|.%XP.O   X X X X X X X X X X         f $X{.;XM.] _ F ( F F F F F F ( F ( F [ I.;XI.M.G _ F ( ( ( ( F ( G G H G Y I.%X|.%XM.      X X X X X X o X X   O [.$X[.M.d G ) ( ( ( ( F ` ( F ( ( F F ( F ( ( F F ( F ( ( ( ( ( ) F F ( F ( F F H 8 H H ]  X|.#X$Xs   X X X o X X o o o o o o o o o o o o o o o X X X X X X o X X o X X X o X X X X X o o X o o X X o X X o X o o X X o X X X X X X X X X X X X X X X X X X X X X X X X X X X X X X X X X o . T (.Q.Q.^.!.Q.^.Q.Q.Q.Q.Q.Q.G.Q.Q.G.F.!.!.Q.G.Q.Q.Q.Q.G.Q.Q.Q.Q.Q.Q.Q.Q.G.G.Q.A.F.G.Q.G.G.G.Q.G.G.G.Q.!.Q.G.F.Q.Q.G.F.Q.Q.Q.Q.G.Q.G.Q.Q.G.Q.Q.Q.Q.Q.Q.Q.Q.Q.Q.Q.G.F.G.G.Q.Q.Q.G.Q.Q.Q.G.G.F.G.G.Q.!.Q.G.Q.^.^.Q.^.Q.Q.^./.^.G.S.Q.Q.Q.^./.^.^.Q.^.Q.Q.Q.Q.Q.Q.Q.Q.Q.G.G.Q.G.G.G.G.G.G.G.!.G.G.Q.G.G.F.F.A.Z.3.1.2.2.<.R T I I e 4 5 5 q J F [ o.%.%.%.X.X...O.O.O.O...O...O.X.X...O.O.........O.....O.................O.O.O.O...........................O.O.O.O.O...........O.....O.....O.O.O.....O.....O.O.O.O.O.O...O.O.........O.O.......O.O.O.O...O.....O.O.O...O.O.O.O.O...............O...O.....O...................O.....O.O...O...........O.O.O.O.O.O.O.O...O.O.O.O.O.O.O.O.O.O.O.O.............O.O.O.O.O.O.O.O.O.O.O.O.O.O.O.O.O...O.O.O.O.O.O.O.O.O.O.O.O.O.O.O.O.O.....O.O.........O.O.O.O.O.O.O.O.O.O.O.O...O.O.O.O...O.O...O.....O.O.O.O.O.O.O.O.O.O.O.O.O.O...O.O.O.O...O.O.O...O.O.O.O.O.O.O.O.O.O.O.O.O.O.O.O.O.O.O.O.O.O...O.O.O.O.O.O.O.O.O.O.O.O.O.O.O.O.O.O.O.O.........O.O.O.O.",
"X X X X o X o o X o o o o o o o o o X X X X X     f |.[.M.0 G _ ' Y.] 8 ) F D F ( F F F ( F D J 8 H D D D F F F ( ( ( ( ( ) ) ' ' | P.;X{.|.|.3   + X X X o o o o X X X X X         { %X{.;XM.Y G ) ) F F F F F ( F ( F ( ) } I.I.| ' ) F F F F ( F ( F Y.| G G Y Y. X{.$XC.    X X X X X X X X X X X   O `.|.[.M.0 0 G H J J D F F F F ( ( ( F ( F F F ( ) ( ( F F ) ) [ Y.Y.Y.} Y G H G G G G 0 | :X X$X|.|.|.{.%Xf       n.$X'.V.d G _ ( F D F F F F F F F F ( F ( F ( ( F ( ( F ( ( F F ( F F F F ( F F ( F F ( F F F F F G H }  X|.%XP.&   X X X X o X X X X         > |.|.{.P.{ G ) F F F F F ( F F ( ( ( ) _ } I.Y.| _ ) ( F F ( ( ( ( ) Y.] G Y |  X|.#X$Xa       X X X X X X X X   O [.$X;XM.0 G F F ( F F F F ( F ( F F F F ( ( ( F ( F ( ( F F ( F F F ( F F F F F D H H H ]  X|.#X$Xs   X X X X X o o X o o o o o X o o X X X o X X o X X X X X X o X X X X o o X X X o X X X o o o o o X X o o o o o X X X X X X X X o X X X X o o o X X o X X X o X X X X X X X X X X X X o . >.(.G.Q.Q.^.Q.Q.Q.G.G.Q.Q.Q.G.G.Q.Q.G.G.G.Q.Q.Q.Q.G.G.Q.Q.G.Q.Q.Q.Q.Q.Q.Q.F.Q.Q.F.G.G.Q.G.Q.Q.Q.G.Q.!.G.G.Q.G.G.Q.Q.G.Q.Q.Q.^.Q.G.Q.Q.Q.G.G.Q.Q.Q.Q.Q.Q.G.Q.Q.Q.G.G.G.Q.Q.Q.Q.Q.Q.Q.Q.Q.G.Q.Q.Q.Q.Q.Q.Q.Q.Q.^.^.^.^.^.Q.Q.^.^.G.G.G.G.^.^.^.^.^.Q.^.Q.^.^.Q.Q.!./.!.Q.G.F.Q.G.G.G.Q.G.G.Q.Q.G.G.F.F.A.A.Z.Z.4.1.2.<.R R I I e e 4 4 2 5 5 5 5 5 F  .$.%.%.@.X.X.+.O.O.O.........O.O...................O.............O.....O.O...............O.........O.....O.O.O.O.........O...............O.O...................O.O.O.O.O.O.........O.....O.O.O...............O...O.O.O.O.O...O.....O.O...O.O...O.O.O.O.....O.............O.O.O.O.O.O.O.O.O.O.O.O...O.O.O.O.O.O.O.O.O.O.O.O.O.O.O.O.O.O.O.O.O.O.O.....O.O.O.O.O.O.O.O.O.O.O.O.O.....O.O.O.O.O.O.O.O.O.O.O.O.O.O.O.O.O.O.O.O.O.O...O...O.O.O.O.O.O.O.O.O.O.O.O.O.O.O.....O.O.O.O.O.O.O.O.O.O.O.O.O.O.O.O.O.O.O.O.O.O.O.O.O.O.....O.O.O.O.O.O.O.O.O.O.O.O.O.O.O.O.O.O.O.O.O.O.O.O.O.O.O.O.O.O.O.O.O.O.O.O.O.O.O.O.O.O.O.O.O.O.O...O.O.O.......O...O.",
"X X X X X o o X X X o o o o o o o o o o X X X X   f |.[.V.0 G G ' Y.] 8 F F F F F F F F ( D J 8 8 8 D D ( ( ( ( ( ` ` ` ` [ ' ' } P.|.|.|.%Xs   + X X X X o o o X X X X X X X     9 |.|.{.P.] G ( ( F F F F F F ( F ( ) ( ) ' | | [ ) ( F F ( F F ( ) G } Y.Y H G ]  X{.|.|.a     X X X X X X X X X       n.%X[.J.d 0 G H H 8 D H D F F F F F ( ( F ( F F ( ( ( ( F F ) F G ' } Y.I.Y.| G 0 H G G G 0 ] M.;X|.|.|.{.>       n.$X[.V.d 0 F F F F F ( F F ( ( F F F F F F ( F F ( F F ( ( ( F ( F F F F F F F F F ( ( F F G H H G 0 |  X|.%XP.&   X X X X o X X X X         M.$X{.[.M.' ) F ( F F F F ( F F F F ( ( ) _ [ [ ' ) ( ( F F ( ( ( ` ' Y.Y.Y G d P.|.|.$XV..     X X X X X o X X   O [.$X[.M.d G ) ( F ( F ( F ( ( ` F F F F F F F F ( F F ` ( F F F F F F F F F F F J 8 H J ]  X|.#X$Xg   X X X X o X X o o o o o o o X X X X X X X o o o o o o o o X X X X X o X X X o o X X X o o o o o o o o o X X X X X X o o o o X o o X X X o o o X X X X X X X X X X X X X X X X X X X X @ ,./.G.Q.G.Q.Q.Q.G.Q.G.Q.G.G.Q.G.G.G.G.G.Q.Q.Q.Q.^.Q.G.F.G.G.Q.G.Q.Q.Q.Q.Q.Q.F.Q.F.G.F.G.G.Q.Q.F.F.Q.Q.Q.Q.Q.Q.F.G.Q.Q.Q.Q.Q.Q.Q.G.F.G.G.G.G.Q.Q.Q.G.Q.Q.F.G.Q.Q.Q.Q.!.^.^.^.Q.!.Q.Q.Q.^.Q.Q.Q.^.Q.G.Q.Q.^.Q.Q.Q.^.^.^.^.^.^.^.^.^.^.^.Q.^.^.^.^.Q.Q.Q.Q.Q.Q.^.Q.Q.^.Q.Q.Q.Q.G.Q.Q.Q.Q.Q.Q.Q.G.G.F.A.A.Z.Z.4.1.2.,.,.<.R T I e e 4 3 1 1 1 5 5 5 5 5 q F | #.%.%.%.+...O.O.O.....O.O.O.O.O.O...................................................................O...O.O.......O.O.O.O.O.O.............................................................O.O.....O.O.O...O.O.O.O.............O.............O.O.......O.O.O.........O...O.O.O.O.O.O.O.O.O.O.O.O.O.O.O.O.O.O.O.O.O.O.O.O.O.O.O.O.O.O.O.O.O.O.........O.O.O.O.O.O.O.O.O.O.O.O.O.O.O.O.O.O.O.O.O.O.O.O.O.O.O.....O.O.O.O.O.O.O.O.O.O.O.O.O.O.O.O.O.O.O.O.O.O.O.O.O.O.O.O.O.O.O...........................O.O.O.O.O.O.O.....O.......O.O.....O.O.O.O.O.O.O.O.O.O.O.O.O.O.O.O.O.O.O.O.O.O.O.O.O.O.O.O.O.O.O.O.O.O.O.......O.O.O.O.O.O.O.O.O.....",
"o X X o X X o o o o o o o o o o o o o X X X X X   f |.[.V.0 G G ' Y.' 8 _ F F F F F ( F ( D H 8 8 8 D ) ) ` ` [ ` ` ` ` ' ] ] M.P.{.|.$X%Xf   + X X X X X o o X X X X X X         V.|.[.[.M.Y _ ` ( F F ( F F F F F F ( F F F F F F F F F ( ` F F ( ( F Y Y.} G G G :X|.{.$XJ.+     X X X X X X X X       a |.{.`.{ 0 G D J J 8 J J D F F ( F ( ( ( F F ( ) ( F ( ( ( ) F F F D G | M.I.Y.} [ G G G ' Y Y P.|.{.%XM.    X   n.$X;XV.d 0 F F F ( F ( ( F ) F F F F F F F F ( F F F F F F F F F F F ( F F F F F F ( ( F F ' | 0 H H |  X|.%X`.& X X X X X X X X X X X     s $X|.;XJ.] ' ` ( ( F F F F F F F F F ) ( ( F F F ) F ) F F F F ( ( ) ) } I.] G 0 {  X|.|.$Xs   . X X X X X X X X   O [.$X[.M.d G F ) F F F ( ` ( ` ( ` ` F F F ( F F F F ( F F F F F F F F F F F F H ] G 0 0 ]  X|.|.%Xg   o X X X X X o o o o o X o o o o o o o X X X o o o o o X X X X X X X o X o o o o o o X o o o X o o X X X X X X X X o X X X X X X o o X X o o o X X X X X X X X X X X X X X X X X X . . # N.(.Q.Q.G.Q.Q.Q.F.F.G.Q.G.Q.Q.G.F.Q.G.F.Q.Q.Q.Q.!.G.Q.Q.G.Q.G.Q.G.G.Q.Q.Q.Q.G.G.Q.Q.Q.Q.G.G.Q.Q.G.Q.^.Q.^.^.Q.Q.F.Q.G.Q.G.Q.Q.Q.Q.G.Q.G.G.Q.Q.Q.!.Q.Q.Q.F.A.Q.Q.Q.Q.Q.Q.Q.Q.Q.!.Q.Q.^.^.^./.Q.G.G.G.G.G.Q.G.G.G.G.Q.Q.Q.Q.Q.!.Q.Q.Q.Q.Q.Q.^.Q.Q.Q.!.G.G.Q.G.Q.Q.G.Q.Q.Q.Q.Q.Q.Q.G.G.Q.Q.G.G.G.G.F.G.A.Z.Z.Z.3.2.,.<.R T I e e 4 4 3 1 1 , 1 , , 5 5 5 @ @ 5 H | #.%.%.+.O.O.....O.O.O.O.O.....O.O...........O.O.O.O.O.............................O.....O.......O.....O.....O.........O.......O.O.................................O.O...................................................O.................O.......O.O.O.O...............O.O.O.O.O.....O.........O.O.O.O.O...............O.O.....O.O.O.O.O.......O...O.O.O.O...........................O.O.O.O.O.O.O.O.O.O.O.O.O.O.O.O.O.O.O.O.O.O.O.O.O.O.O.O.O.O.O.O.O.O.O.O.O.O.O.O.O.....O...............O.O.O.O...O.O.O.O.O.O.O.O.O...O.O.O.O.O.O...O.O.O.O.O.O.O.........O.O.O.O.O.O.O.O.O.O.O.O.O.O.O...O.O.................O.O.O.......O.O.O.",
"o X o o o o o o o o o o o o o o o o X X X X X X   f |.[.M.0 G G ' Y.] 8 F F ( F ( F F F F D H 0 0 0 G _ ' [ [ [ ' ' ' ' ] M.P.[.{.|.%X#Xg   o X o X X X o o X X X X X X         g |.{.;XP.Y Y ) F F F F F F F F F F F ( F F F F F F F F F F F ( F F F F H | Y.] G G ] ;X|.|.$Xf     X X X X X X X X X     . P.$X[.V.d 0 ) D D 8 8 J J D D D ( F ( ) ( ) F F F F F F F F F F F F ) D H Y | L.Y.Y.} ) G Y | ;X|.|.$Xs     X   n.$X[.J.d 0 F F F F D F ( F F F F F F F F F F F ( F D F F F F F ( F F F F D ( ( F D F F F F ' Y.] G G } |.#X%X`.& X X X X X X             = [.|.|.P.{ Y F ( ( ( ( F F ( F F F F F ( ( ( ( F ( ( ( F ( ( ( F F ( ( ) ' Y.M.0 0 0 P. X|.$XP.+     X X X X X X     + [.$X].V.d G F ( ( ( ( F ( ( ( ( ( ) ( F F F F F F F F F F F F F F D F ) F F F 0 Y.} 0 H ]  X|.|.%Xg   X X X X o o o o o o o o o o o o o X X X X o o o o X X X X X X X X o o o o o o X X X o o o o o X X X X X X X X X X X X o X X X X o o X X X X X X X X X X X X X X X X X X           . . # D.(.Q.Q.Q.G.G.G.G.G.G.G.G.Q.^.Q.G.G.Q.F.F.G.Q.!.Q.Q.^.^.!.Q.Q.Q.G.G.G.G.Q.Q.Q.F.Q.Q.^.Q.Q.Q.G.Q.G.G.^.Q.G.G.^.Q.Q.G.G.Q.F.G.Q.Q.Q.G.G.!.G.Q.Q.Q.Q.!.^.^.G.G.Q.Q.^.Q.G.G.Q.G.Q.Q.!.Q.G.Q.Q.Q.^.G.A.G.^.Q.^.^.Q.G.^./.^.Q.Q.Q.Q.Q.Q.Q.Q.Q.G.Q.Q.Q.Q.G.Q.G.G.G.F.G.G.F.G.Q.Q.Q.Q.Q.Q.G.G.F.F.F.S.A.A.A.F.A.Z.1.1.2.,.<.R R T I e 4 3 1 1 , , 1 1 1 , 1 1 @ . . . @ 5 0 | $.%.%.%.+.X.+.O.O.O.O.....................O.O.O.O.................................O.....................................O.O.O.O...................O.........O.O.O.O.O...........................O.O.........O.O.O.O.O.O.O...........O...........O.O.O...............O.O...................O.O.O.O.O.O...............O.O.......O.O.......................O...........O.O.O.O...............O.O.O.......O.O.O.O.O.O.O.O.O.O.O.O...O.O.O.O.O.O.O.O.O.O.O.O.O.O.O...O...O.O...............O.O.O.O.O.O.+.O.O.O.O...O.O.O.O.O.O.O...O.O.....O.O.O.O.O.O.O...........O.O.O.............O.O.............O.O.O.O.....O.O.O.O...O.O...O.",
"X o o o o o o o o o o o o o o o o o o X X X X X   f |.[.M.0 G G ' Y.Y 8 G F F F F F F F F G q q 0 q q 0 0 0 0 d Y { } M.P.I.;X|.$X=X`.3   o o X X X X o o o X X o X X X       & `.|.;XP.{ Y G F D D D F F F F F ( F F F F F ( F F F D F F F F F F F D G G G Y.M.G G 0 M. X|.|.`.=     X X X X X X X + X o   f %X].`.{ 0 ' _ F J 8 8 8 J J D D D F ( F ( F F F F ( ( F ( F F F F F F D D H G ] I.I.[ _ ' M.|.|.$XP.+     X   n.$X[.V.d 0 D F F F F F F F D F ( ( F F F ( F F ( ( F F F F F F ( ( F F F D F F F D F F F F Y Y.] G G }  X#X=X`.& X X X X X X X           n.$X{.;XM.Y G D D F F F F F F F F F F ( F F ( F F F F F F F F F F F F ( ) G } I.] 0 0 ]  X|.|.%Xf       X X X X X     + [.$X].V.d G G F F ( F F F D F F F F F F D F F F F F F F ( F F F F F F F F F F 0 Y.} 0 H ] U.|.#X%Xs   X X X X X o o X o o o o o o o o o o X X X X X o o o X o o o X o o o X X o X o o X X o o o o o o o X X o o o X o o X o X X X X X o o X X X X X X X X X X X X X X X X X X X X X X X X . - S./.Q.Q.Q.Q.G.G.G.Q.Q.Q.Q.Q.^.^.Q.F.G.G.F.G.G.G.Q.G.Q.Q.G.G.Q.Q.G.G.G.G.G.Q.Q.G.G.Q.Q.Q.F.G.^.Q.Q.S.Q.Q.Q.Q.Q./.G.G.Q.!.!.G.G.F.Q.Q.G.G.G.Q.Q.Q./.Q.Q.Q.^.G.Q.Q.Q.Q.Q.Q.Q.Q.Q.Q.Q.Q.Q.Q.Q.Q.^.^.Q.Q.^.^.^././.Q.^.^.^.Q.Q.Q.Q.G.G.G.Q.Q.Q.Q.Q.Q.Q.Q.Q.Q.Q.Q.Q.G.Q.Q.Q.Q.Q.Q.Q.Q.F.F.G.G.G.G.F.A.A.F.Z.Z.4.3.2.2.<.W R R T I e 4 3 1 1 1 1 1 1 1 1 1 1 .       . . . # 5 H [ #.%.%.%.X.+.O.O.O.O.........O.O.O.......O...O.O.....O.O.O.......O.O.O.O.............................O.O.........O.....O.............O.O...O.O.....O.....O.O.O.O.O.O.O.......................O...O.O.O.O.O.O.O.O.O.O.O.O.O.....O.........O.O.O.O.O.................O.............O.....O.O.O.O.........O.........O.O.O.O.O.O.....................O.O.O.O...........O.O.O.O.......O.O...O.O.......O.O.O.O.O.O.O.O...O.......O.O.O.O.O.O.O.O.O.O.O.O.O.O.O.O.O.O.O...O.O.O.O.............O.O.O.O.O.O.O...........O.O.O.O.O.O.O.O.O.O.O.O.O.O.....O.O.O.......O...O.O.O.O.................O.O.O.O...O.O.......O.O.O.O.....O.",
"X X X o o o o o o o o o o o o o o o X X X X   X   f |.[.J.0 G G ' Y.] q H H D F F F D F G G 0 { n.n.n.n.} } M.M.V.P.`.[.[.{.$X=X#Xn.O   o X X X X X o o o X X X X X           n.$X{.[.M.Y G H H D H H H D D D F ) F F D D F D D D F D F F F F D F F F H H 0 ] Y.] 0 0 Y P.|.].$Xn.      X X X X X X X X X   O [.|.[.J.d 0 ' D D J 8 8 8 8 8 8 H D D D D D F F F F F D F D D F D D D D D G G M.I.| G ' | I.|.|.%Xg   X       n.$X;XV.d 0 G D F D F F F F F F F F F D D F F F F F D D D F F F F ( F F F F F D D D F F F G G Y.] G G }  X#X=X`.& X X X X X X X X       3 {.|.|.P.] 0 H D D H D F F D D D D F ( F F F F ( F F F F F F F F F F F F F G G Y.M.0 0 0 M. X|.|.[.=       X X X X X   + ;X%X].J.d G D F F F F F F D D F F F D F F F F D F D F F F ( ( ( F ) F ( F F F 0 Y.} G G ]  X|.|.%Xs   X X X X X X o X o o o o o o o o o o o X X X X o X o O O o O o o o o o o o o o o o o o o o o o o o o o o o o o o o o o X . o o o X X X X X o X X X X X X X X X X X X X   X X X X X X . - W.^.Q.Q.Q.Q.Q.G.F.Q.G.Q.Q.Q.G.Q.Q.G.Q.Q.Q.F.G.G.G.G.Q.G.Q.G.Q.Q.G.F.G.G.Q.G.F.G.G.G.G.Q.Q.Q.Q.Q.!.G.G.Q.F.F.Q.^.!.Q.G.Q.!.Q.Q.G.Q.Q.F.G.G.G.Q.Q.Q.Q.Q.G.Q.F.G.Q.G.G.Q.Q.Q.Q.G.Q.S.F.Q.Q.Q.^.^.^.Q./.^./.^.^.^.^.Q.Q.^.^.^.^.Q.Q.Q.Q.^.^.Q.Q.Q.Q.^.Q.Q.Q.Q.Q.Q.Q.Q.G.Q.Q.Q.^.^.Q.G.G.Q.Q.F.S.F.G.F.A.Z.Z.Z.Z.3.2.<.<.R R T I e e 4 3 1 1 1 1 1 1 1 1 1 .           . . . @ # 5 0 [ #.%.%.%.+.X.O.O.O.......O.O.......O...............O.O...O.O.....O.O...................O.......O.O.O.............O.O.........O.O.....O.O.O.....O.........O.O.O.O.O.O.O.O.O...O.O.O.O...O...O.....O.....O.O.O.....O.O.........O.O.O.O.....O.O.O.O.O...............O.O.............O...O.O...O.....O...O.O.O.......O.O.O.O.........O...............O.O...O.O.O...O.O.O.O.O.O.O.O.O.O.O.O.O.......O.O...............O.O...O...................O.O.O.....O.O.......O.O.....................O.O.O.O.O.........O.O.O.O.O...O.O.O.O.O.O.O.O.O.O.O.O...O.......................O.O.............................O.O.........",
"o X X o o o o o o o o o o o o o o o X X X X   X   f |.[.V.0 0 G G Y.] q 0 J H J H H J J H 0 d P.P.`.`.`.P.P.P.`.[.'.{.#X%X=X[.n.>   o o o X o X X X o o X X X X X           9 |.{.;XP.{ 0 H J J 8 8 8 8 H D D H D H D D J H J H D D D D J H J H J D H J D 8 0 Y.M.0 G 0 }  X{.|.{.>     X X X X X X X X X +   g %X].`.M.0 0 ' F F D 8 8 8 8 0 0 J H J 8 8 J J F 8 D H D H J J D J H J D G } I.} ' Y ] P. X|.%XV.+   X X X   { $X;XV.d q 0 H 8 J J H H J J J D D H J D F H D H J J J D J D D H J H H H H D D D J H H H 0 Y Y.] 0 G } %X|.%X`.O X X X X X X X X       V.$X|.;XM.0 0 8 8 H 8 J H J J J J J J H D F F F F D F D D F D D D H D D H D D 0 | I.] 0 0 ] ;X|.|.$Xn.      X X X X     O ].%X|.J.d 0 0 J H H H H J J J J J J D J J D D J D H F D D F F F D D D D D D D 0 Y.M.G G ]  X|.|.$Xg   + X X X X X X o o o X X o o X X X X X X X X X o = - . . . . . . . . . . . o X X o o o o o o O O O o o O o o o o X o o o X X X o X X o X X X X X X X X X X X X X X X X X X X X X X . . 1 ^./.Q.Q.Q.Q.G.G.F.F.F.G.G.G.G.G.G.G.F.G.Q.Q.G.Q.Q.G.G.G.G.G.Q.Q.Q.G.G.G.Q.G.G.Q.G.F.Q.G.Q.Q.G.Q.G.G.^.Q.Q.F.F.Q.Q.G.Q.G.Q.^.Q.G.G.Q.G.G.G.G.Q.G.G.Q.G.Q.Q.Q.Q.G.Q.Q.^.Q.G.Q.G.Q.Q.G.G.G.F.G.G.Q.Q.^.Q.^././././.Q.Q.^.^.^.Q.^./.Q.Q.Q.Q.^.Q.Q.G.Q.Q.Q.Q.Q.Q.^.Q.F.F.F.F.G.Q.Q.G.Q.Q.Q.Q.G.G.S.A.A.Z.Z.Z.Z.Z.1.2.2.<.R R T T I e e 4 4 3 3 1 1 1 1 1 1 .               . . . . . @ 5 0 [  .$.%.%.+.X.X.+.O.....O.O...O.........O.......O...........O.O.........O.....O.......O.........................O.O.O.O.O.O.O.O.....O.......O...............O.O.........O.....O.O.O...............O.....O.O.........................O.O.O.O.O.O...................O.....O.......O...O.O...........................O.O.O.....O.O.O.O.O.O.O...O.O.O.O.O.O.O.O.....O.O...O.O.O.O.O.O.O.O.......O.O.O.............O.O.......................O.O.O.....O.........O...O.O.O.O.O.O...O...........O.O.O.O.O.......O.O.O.O...O.O.O.O.O...O.O.O.O...O.O.................O...O.O.O.O.O...........................O...O.O.",
"X X X o o o o o o o o o o o X o o o X X X X   X   f |.[.J.d 0 8 G Y.] q 0 8 8 8 8 0 8 8 0 q d P.].].|.$X$X$X$X%X%X$X#X].M.s :   . o o o o o X X X o o o X X X X X         + J.#X].[.M.d 0 8 8 8 8 8 8 8 8 8 8 8 8 8 8 J 8 8 8 8 J J H J J J 8 8 8 8 8 8 8 8 q { I.] H G 0 P.|.{.$XV.    X X X X X X X X X X . . V.$X].P.n.q G ' G D H 8 8 8 8 8 8 8 8 8 8 8 8 8 8 8 8 8 8 8 8 J J H D D  .Y.[ _ ' ' M. X|.$X$X9   X X   X   { $X'.V.d q 8 8 8 J 8 8 8 H 8 8 8 J 8 8 8 8 J 8 J H H J 8 8 8 H J J D 8 8 8 J J J H 8 8 8 0 0 P.] G 0 |  X#X=X`.O X X X X   X X X +   g %X|.|.P.Y 0 0 8 8 8 8 8 8 8 8 8 8 8 8 8 8 J J J J D J D H J J 8 D 8 8 8 8 8 8 8 0 Y.M.0 G G M. X|.#X|.3     X X X X X   + ].%X{.J.d 0 H 8 8 8 8 H 8 8 8 J 8 8 H 8 J 8 8 8 J H J J J J J J J 8 J J J J 0 0 Y.M.G G ]  X|.|.$Xs   o X X X X X X o o X X X X X X X X X X X X X X - >.N.,.>.>.E E E T s s r r 3 3 - - - - - - # # o . . . . . . X X o o o o o o o o o o o o X o o o o X X o X X X X X X X X X X X X X X . 3 Q./.Q.G.Q.Q.Q.G.G.Q.Q.G.G.G.F.G.Q.Q.G.G.F.Q.G.Q.!.Q.Q.Q.Q.Q.G.Q.^.G.Q.Q.Q.!.G.G.Q.Q.Q.Q.G.S.Q.Q.Q.F.Q.Q.Q.Q.Q.G.Q.Q.G.^.Q.Q.Q.Q.G.G.Q.Q.Q.G.G.G.Q.Q.Q.^.^./.Q.Q.Q.^.Q.Q.Q.Q.^.^.^./.Q.Q.Q.Q.G.G.Q.Q.Q.Q.G.Q.G.Q.G.S.Q.Q./.^.^.^.Q.Q.Q.^./.Q.Q.Q.G.G.Q.Q.^.^.^.^.Q.Q.G.Q.G.G.Q.Q.Q.Q.Q.Q.Q.G.G.F.G.A.A.Z.Z.3.4.1.2.,.<.<.R R I I e e e 4 4 4 4 4 3 3 1 .                       . . . . . % q G  .$.%.@.X.X...............................O.......O.O.O.O...O.....O.O.O.O...........................O.O...O.O.O...O.O.O.O.....O.....O.O.......O...O.O.O.....O.O.O.O.O.O...O.O...O...............O.O.....O.......O.O.O.O.O.O.....O.O.O.O...O.O.O.O.O.O.O.O...O...........O...O.O.O.O.O.....O.O.O.O.O.......O.O.......O.O.O.O.O.O.O.O.O.O.....O.O.O.O.O...O.O...O.O.O.O.O.O...O.O.O.............O.......O.O.O...O.O.O.O.............O.O.O.O.O.O.O.O.O.O...O.O.O.O.O.O.O.O.O.O.O.O...O.....O.O.........O.O.O.O.O...........O...O.O...O.O.O.O.O.O.O.O.O.O.........O...O.O.O.O.O.O.....O.O.O.....O.O.O.O...",
"X X o o X o o o o o o o o o o o o o X X X     X   f |.[.V.d 0 0 G Y.] q 8 8 8 8 8 0 8 8 8 0 d [.{.|.|.M.m.m.m.n.n.f 9 O       o o o X o X X o o o o o X X X X X X         { =X].;XJ.Y 0 0 8 8 8 8 8 8 8 8 8 8 8 J J J 8 8 8 8 8 8 8 8 8 8 8 8 8 8 8 8 8 8 8 0 0 Y.Y.G H 0 |  X|.|.$Xs   X   X X X X X X X X o   : ].$X'.P.{ 0 G ' ) F F D J 8 0 8 8 8 8 8 8 8 8 8 8 8 8 8 8 H D H H D [  .) G ) ' }  X|.|.%Xf   o X X X X   n.%X{.J.d q 8 8 8 J H 8 8 8 8 H 8 8 8 8 8 8 J J 8 8 8 8 8 8 8 8 8 J 8 8 8 8 8 8 8 8 8 8 8 0 0 Y.] G G }  X|.=X`.O   X X X     X X   = [.$X|.[.{ 0 0 8 8 8 8 8 8 8 8 8 8 8 8 8 8 J J 8 J H J D J H J J 8 8 8 8 8 8 8 8 8 q ] I.] 0 G ] I. X|.=XV..   X X X X X   + ].%X|.P.d 0 8 8 8 8 8 8 8 8 8 8 8 8 8 8 8 8 8 8 8 8 J 8 J J H J J J J 8 8 8 0 0 Y.M.G G ]  X|.$X%Xg   o X X o X o X o X X o o X X X X X X X X X X . 3 D.S.S.A.D.D.S.S.S.S.S.S.D.D.N.D.N.N.m.,.,.,.>.>.T s s e r r 3 - - - - # # . . . . . . .   X . X X X X X o o o o o o X X X X X X X X . r (.^.Q.Q.S.G.G.F.F.G.Q.G.Q.Q.G.Q.Q.G.Q.Q.Q.G.F.G.G.Q.G.G.F.G.Q.Q.Q.Q.Q.Q.F.G.!.Q.Q.Q.G.G.Q.G.A.!.Q.!.Q.G.G.Q.Q.G.G.Q.Q.Q.^.^.Q.Q.^.^.Q.Q.G.Q.Q.Q.Q.Q.^.Q./.Q./.^.Q.Q.Q.Q.Q.^.Q.^.^.Q.G.Q.Q.^.^.Q.Q.Q.Q.^.Q.Q.Q.G.^.G.G.Q.Q.Q.^.^.^.Q.Q.Q.G.S.G.G.G.Q.Q.Q.^.Q.Q.Q.Q.Q.Q.Q./.Q.G.Q.Q.G.Q.F.A.F.A.Z.F.Z.Z.Z.3.3.4.1.2.,.,.<.R R T T T I e e e e e e 4 4 3 .                                     . % q ' #.$.%.%.X.X.X...X...........O.........O.........O.O.O.O.O.O.O.O.O.O.O.O.O.O.O.......................O.................O.O.O.....O.O.....O...O.O.O.........O.O.O.O.O.O.O.O...O.O.........O.O.O.................O.O.O.O.O.O.O.O...O.O.O.O.O.O.O.O.O.O.O.O.O.O...O.O.......................O.O.O...O.O.O.O.O.O...........O.O.O.........O.......O.O.O...O.O.O.O.O.....O.O.O.O...O.O.O.O.......O.O...O.O.O.O.O.O.O.O.........O.O...........O.O.O.O.O.O.O.O.O.O.O.O.O.O.O.O.O.O.O.O.....................O.O.O...........O.O.O.O.....O.O.O.O.O.O.O.O.O.O.O.O.O.O...O.O.O.....O.O...O.O.O.O.......O.O...",
"o X o o o o o o o o o o o o o o o o X X X X   X   f |.[.J.d 0 H G M.] 0 H J 8 8 8 8 8 8 8 0 Y [.{.|.;X>                   o X X o X X X X o o o o o o X X X X X X       3 #X#X|.I.{ 0 0 8 J J 8 8 8 8 8 J J J 8 J J D H 8 8 8 8 8 8 J J J D 8 8 0 0 8 8 8 8 0 0 ] I.| H Y G P. X|.$X`.&     X X X X X X X o X o   a #X|.'.P.{ 0 G [ ' ) ( F D H J 8 J 8 8 8 8 J 8 J J H H H D F F F F ( ( ) ' ' } I.|.|.%Xm.. X X X   X X   n.%X{.J.d q 8 8 J J J H 8 J 8 H J J J 8 J J J J H J J J J 8 8 8 H H J 8 J H 8 J H H 8 J H 0 Y I.] G G |  X|.%X[.& X X X X           n.=X|.;XM.Y 0 H 8 8 8 8 8 8 8 8 8 J 8 J J J 8 J D J J J D D J H D J H 8 8 0 8 0 H H H 0 M.M.0 G G }  X|.$X%Xs   o X   X X   + [.$X{.J.d 0 8 8 J 8 8 8 8 J 8 J J J J 8 J 8 J H J J J J H D J H H H H D D H G 0 Y.M.G G ] U.|.$X%Xg   X X X o o X X X o o o o X X X X X X X X X X . 3 S.Q.G.Q.G.G.G.F.A.A.A.A.A.A.4.Z.Z.Z.Z.D.D.D.S.S.S.S.D.D.D.D.D.N.D.D.N.,.>.E T s s s e r 3 3 - - - - # # . . . . . . . . . . . . . . . e (.^.Q.Q.Q.G.F.G.F.G.G.G.G.Q.G.Q.Q.Q.G.G.G.Q.Q.G.G.G.Q.G.Q.A.G.Q.Q.Q.Q.^.^.Q.G.Q.Q.Q.Q.Q.Q.!.G.G.Q.!.Q.Q.Q.Q.Q.Q.G.G.Q.Q.Q.^.Q.Q.Q.Q.Q.Q.G.G.Q.Q.Q.Q.Q.^.Q.G.Q.Q.Q.Q.^.Q.Q.Q.Q.Q.G.G.Q.Q.G.Q.Q.Q.^.Q.Q.Q.Q.Q.Q.Q.Q.Q.G.Q.Q.Q.Q.Q.Q.Q.^.^.Q.Q.Q.Q.^.Q.Q.Q.^.^.^.^.^.Q.G.Q.Q.G.Q.Q.G.G.Q.G.A.G.G.A.G.F.A.Z.3.4.4.1.1.2.,.<.R R R R T I I I I I P K I s 3 .                                         . . % q '  .$.%.%.X.X.X.X.X...O.O.O.........O.O.....O.O.O.O.O.O.O.O.O.O.O...O.O.O.O.O.O.O.O...O.O.O.............O.O...........O.......O.O.O.O...............O.O.O.O.O.O.....O.O.....O.O.O.....O.O.O.O.....O...........O.O.O.O.O.O.....O.O.O.O...........O.....O.O.O.O...O.O...........O.O...O.O.O...........O.O.........................O.O.................O.O.O.O.O.......O.....O.O.O.O.O...O.O.......O.O.O.O.....O.O.O.O.O.O.O...........O.O.O.O.O.O.O.O.O.O.O.O.O.O.+.O.O.O.O.....O.O.O.....O.O.O.O.O.....O.O.O.........O.....O.O.O.O.O.O.O.O.O.O.O.O.O.O.O.....O.O.........O...........O.......",
"X X X o o o o o o o o o o o o o o o X X X X X X   f |.[.J.d G F ) Y.Y H G D D D J D J J D 0 Y [.|.|.].3   + X o o o o X X X o o X X X o X o o o o o X o X X X X       . V.%X|.|.M.Y H H D H D D H H H J J D D D D F D D D D D D D D H D H D D H H H H H H 0 H H 0 M.Y.Y G G ]  X|.$X=X{   . X X X X X X X X X X +   g $X|.[.J.M.d 0 ] [ ) ) F F F D D D D D D D D F F F F ( F ) ( ) ( ( ) ' ] M.P.|.|.=XV.O . X X X         n.%X|.P.d 0 D D D F D D D D D D F D D D D D F D F F F F D D D D F F D D D H H H H G H H H H Y I.| G G }  X|.%X`.&   X X X     X   a %X#X|.P.] G F D H D H J J J J H D D D D D D F F D D D D F F F H H D H H H G H H G H G 0 Y I.| G ' ' I.%X|.%XP.O X X         O ].%X|.J.d G H D H H H D D D D D F D D F D D D F F F D F F F F F F F D F G G G 0 Y.M.G G [ U.|.$X%Xg   o X X X X X X X X o X X X X X X X X X X X o . s (.Q.Q.Q.Q.Q.Q.Q.Q.G.G.Q.Q.Q.G.G.Q.Q.Q.Q.G.A.A.A.A.A.A.A.A.A.Z.A.A.Z.A.A.A.A.S.S.D.D.S.D.D.D.4.4.,.,.,.,.>.>.>.>.f s r r 3 3 1 3 3 - - T (.^.Q.Q.Q.Q.Q.Q.G.Q.G.Q.Q.G.Q.Q.Q.Q.G.G.G.G.Q.G.F.F.Q.Q.Q.Q.A.Q.Q.G.G.Q.Q.Q.^.Q.Q.Q.Q.Q.Q.G.Q.G.Q.G.Q.G.Q.G.G.Q.Q.G.G.G.G.Q.Q.Q.^.Q.Q.Q.^.G.G.G.Q.Q.Q.Q.^.Q.Q.Q.G.G.Q.Q.Q.Q.Q.G.F.Q.Q.Q.Q.G.G.Q.Q.Q.^.Q.G.Q.Q.Q.Q.Q.Q.Q.Q.Q.Q.Q.Q.Q.Q.^.^.Q.^.^.^./.Q.^.Q.^.Q./././.^.^.Q.Q.Q.G.A.F.F.G.F.A.G.F.F.F.Z.Z.3.3.4.1.1.1.2.2.<.<.R R R R T T T I I I I I 3 .                                                 . % q G  .$.%.%.X.X.X.O.O.O.......O.O.O.O.O.O.O.O.O.......O.O.O.O.....O.O.O.O.O...O.O...O.O.O.......O.O.O.O.O...........O.O...O.O.O.O.O.O.........O.O.O.O.O.O.O.O.O.O.O.O...O.O.O.O.O...............O...................O.O.......................O.....O.....O.O.O.O...........O.O.O.O.O.............................O.O.O.O.O.O.O.O.....O...O.......O.O.O.O.O.O.....O.O.....O.O.O.O.O...O.....O.O.O.O.O.O.O.O.O.O...O.O.O...O.........O.O.O.O.O.O.O.O.O.O.O.O...O.O.O.O.O.O...O.O.O...O.O.O.O.O.O.O.O...........O.O.O.....O.O.O.O.......................O.O.O.........O...O...............",
"X X o o o o o o o o o o o o o o o o X X X X X X   f |.P.:Xd G ) [ #.[ [ ) ` ( F F F F D F H Y [.|.|.].>   X X X X o X X o o o o o X X o o o o o o o X X X X X X       f %X|.|.I.{ G D D F F D D F F D F F F F F F ( ( ( F ( ( F F F ) [ [ [ [ [ [ [ [ [ [ | | [ ] } I.} G ' ' :X|.|.%X{.>   + X X X X o X X X X . +   a $X|.[.P.M.{ 0 0 ' ` ) ) ( ) ( ( ( ( ( ( ( F ( ( ` ( ` ) ) ` ` ) ' { M.P.;X{.%XP.= . o X X X X       { %X|.P.Y G ) F ( F F F F F F F F ( F ( ( ( ( ( ( ` ( ( ( ( ( ( ( F F [ [ [ [ [ [ [ [ [ [ [ | I.} G G }  X;X$XP.O   X X X   X   O `.%X|.;XM.' ) F F F F F F F F F F F F F ( ( ( ( ( ( ( ( ` F ( ( ` [ [ [ [ [ [ | [ [ [ | | | Y.Y.[ ) ' }  X|.%X%Xf   o     X X O ].$X|.J.d G ) F F F F F F F F F F F F F F F ( F ( ( ( ( [ [ | | | | | | | | | } Y.Y.' ) ] U.|.#X%Xg   o X X X X X o X X o o X X X X X X X X X X o . E (.Q.Q.Q.Q.Q.Q.Q.G.G.F.G.Q.Q.Q.Q.G.Q.Q.Q.Q.Q.F.G.Q.Q.G.G.G.Q.A.G.Q.Q.G.G.G.G.G.F.F.A.A.A.A.A.A.A.S.A.A.A.A.A.S.S.S.S.S.D.D.D.N.D.D.D.4.D.Q.Q.!.Q.Q.Q.Q.Q.!.Q.G.G.G.G.Q.Q.Q.Q.Q.G.Q.Q.G.G.G.A.G.Q.Q.Q.G.F.Q.G.Q.Q.G.Q.Q.Q.Q.Q.Q.G.Q.Q.Q.Q.Q.Q.Q.Q.Q.Q.Q.Q.Q.Q.Q.Q.Q.Q.Q.Q.Q.^.^.^.Q.^.^.Q.Q.Q.G.Q.Q.Q.Q.G.Q.G.G.G.F.F.G.Q.^.G.Q.Q.Q.Q.G.Q.Q.Q.Q.^.^.G.Q.Q.Q.Q.Q.Q.Q.G.G.Q.Q.Q.Q.Q.Q.Q.Q.Q.^.^./.^.Q.^.Q.G.Q.Q.^.^.^.Q.Q.G.F.F.G.G.F.F.F.A.Z.F.Z.Z.Z.Z.3.4.3.2.2.2.2.,.<.<.R R R R R R R T T T 3 .                                                       . # q '  .$.%.+.+.X.X.O...O.O.O...O.O.O.O.O.O.O.O.O.O...........O.O...O.O...............O...............O.O.......O.O...O.O.O.O.O.O.........O.O.O.O.O.O.O.O.....O.O.O.O.O.O.O.......O.O...........O.O.O.O.O...............O.O...O.O.............O.O.O.O.....O...O.O...........O.O.O...O.................O.O.........O...O...........O.O...O.O.O.O.O.O.O.O.O.....O.O.O.O.O.O.O.O.O.O.O...O.O.O.O.O.O.O.O.O.O.O.O.............O.O.....O.O.O.O.O.O.O.O.O.O.O.O.O.O.O.O.O.O...O...O.O.......O.O...O.O.....O...................O.O.O.O.O...........O...O.O.........O.......O.O.............",
"o X o o o o o o o o o o o o o o o X X o X X       f |.P.M.0 ) ` [  . .[ ` ` ` ` ` ` ( ( F D ] ;X|.|.].3   o X X X X X X o o o X o o o o o o X X o X X X X X X X     > {.%X|.{.M.' ) ` ( F F ( ( F ) F F ( ( ( ( ` ` ` ` ` ` ` ` ` ` ` [  . .| | | [ [ [ [ | | | | } | | ` ` [ | U.|.#X%Xn.  .   X X X o + X X X X X o   a {.$X].`.J.{ d 0 0 ' ' [ ` ` ` ` ` ` ` ( ` ` ` ` ` ( ` ` ) ' ] } P.[.;X|.%XJ.O   o X X X X X       n.%X|.P.Y ' ` ` ` ` ( ( ` ` ` ` ` ` ` ( ` ` ` ` ` ` ` ` ` ` ` ` ` ` ` |  .| | | | | | [ | | } } | ' _ }  X|.$XP.O   X           n.%X|.|.P.[ [ ` ` ( ( F ) ( ( ( ( ` ( ` ( ` ` ` ` ` ` ` ` ` ` ` )  . .| | | | | [ [ [ [ [ [ } | } } ` ` ' Y. X|.%X[.=   + X X   O [.%X{.J.Y ) ( ( F ) F ( ` ( ` ` ( ` ` ( ` ` ` ` ` ` ` ` [ |  .| | | [ | [ | | | | | [ G [ U.|.|.$Xg   o X X o o o o o o X o o X X X X X X X X X o . >.(.Q.Q.Q.Q.Q.Q.Q.Q.Q.G.G.F.F.Q.!.Q.Q.G.Q.Q.G.Q.G.F.G.G.Q.Q.G.G.F.G.G.G.G.G.G.!.!.!.Q.F.G.Q.G.G.G.Q.F.F.Q.Q.Q.S.G.S.A.S.S.A.A.Z.Z.A.Z.Z.A.G.Q.Q.Q.Q.G.G.G.Q.G.G.G.G.G.G.Q.G.Q.Q.Q.Q.G.G.G.G.F.A.Q.^.Q.Q.G.G.Q.Q.Q.Q.^.G.G.S.G.Q.Q.Q.^.Q.Q.Q.Q.Q.G.Q.^.^.Q.Q.Q.Q.Q.G.G.G.G.Q.Q.G.Q.G.G.Q.^.Q.Q.Q.F.G.Q.Q.Q.Q.^.Q.^.Q.Q.Q.Q.^.Q.^.Q.Q.^.^.Q.Q.G.Q.G.^.Q.G.Q.Q.^.^.Q.Q.Q.G.Q.G.G.Q.Q.^.^.^.Q.G.Q.^./.^.^.^.^.Q.G.G.Q.^.^.!.Q.G.F.F.G.A.F.F.G.Z.Z.F.Z.Z.Z.3.3.4.3.1.2.2.2.2.,.<.<.W R R R R R R R 3 .                                                           . . % q '  .$.%.%.+.+.....O.O.O...O.O.O.O.O.O.O.O.O.O.O.......O.O.O.O.O.............................O.....O...O.O.O.O.O.O.....O.......O.O.........................O.O.........O...O.O.O.O.O.O.....O.O.O.O.O.O...........O.O.O.O.O...O.O...O.O.O.O.O.O.O.O...O.O.O.O.O.O.O...O...O.O.O.O.O.O...........O.O.....O.....O...O.O...O.O.O.O...O.O.O.O.O.O.O.O.......O.O.O.O...O.O.O.O.O.O.O.O.O.O.O.O.O.O.O.O.O.O...O.O.O.O.....O.O...O.O.O.O.O.O.....O.O.O.O.O.O.O.O.O.O.O.O.O.O.O.O.O.....O.O.O.O.O.O.O...O.....O.O.O.....O.O.O.O.O.O.O.O.O.O.O.O.....O.O.O.O...............O.O.......",
"o o X o o o o o o o o X o o o o o o X X X X       f |.P.M.Y [ [ [ [ [ [ [ [ [ [ [ [ [ ` [ ' ] |.#X|.|.3   X X X X X X X o o X o o o o o o o X X o X X X X X X       C.%X|.|.I.| | [ [ ` ` ` ` [ ` ` ` [ [ ` ` ` [ ` [ ` ` [ ` [ ` ` [ ` [ [ [ ` [ ' [ ' ) ' ' ' [ [ ` [ [ [ [ [ M. X|.$X|.a   + X X X X + o o X X X X o   : V.%X|.[.P.M.{ d 0 0 G ' [ [ [ [ [ ` ` ` [ [ [ [ [ ) G ] | M.P.[.;X|.%Xn.+   o X X X X X X   +   n.%X{.P.] [ [ ` ` [ [ ` ` ` ` [ ` ` ` ` ` [ ` ` ` [ [ [ [ [ ` ` ` [ [ [ [ [ [ [ [ [ ' ' ' ' ' ' ' ' ' }  X|.$XP.O   X         a $X$X|.[.M.[ [ [ ` [ [ [ ` [ [ ` ` ` [ ` [ [ ` ` ` ` ` [ ` ` ` ` ` [ [ ) ) ' ' ' ) ' [ ' ' ` ' [ ' [ [ [ [ }  X%X$X=X{   o o X   + [.$X;XM.Y [ ' [ ` [ [ ` ` ` ` [ ` [ [ ` ` [ [ [ [ [ [ [ [ [ [ [ [ [ [ [ [ ' ' ' ' ' ' ' ] U.|.|.%Xs   o X X o X o o o X X o X X X X X X o X X X o # ,.(.Q.Q.Q.Q.Q.G.Q.Q.G.Q.G.G.G.F.F.Q.Q.Q.F.G.Q.G.Q.Q.Q.Q.Q.Q.Q.G.Q.Q.G.G.G.G.F.G.Q.Q.Q.G.F.Q.Q.Q.Q.Q.F.G.Q.Q.Q.!.Q.G.G.G.Q.Q.G.Q.Q.Q.Q.G.Q.Q.Q.^.Q.^.F.G.F.F.F.G.G.G.Q.Q.Q.^.Q.Q.^.Q.Q.Q.G.G.F.F.F.G.Q.Q.Q.G.Q.Q.Q.Q.^.^.Q.G.F.F.G.Q.Q.Q.Q.Q.Q.Q.Q.G.G.G.Q.Q.Q.Q.Q.Q.Q.Q.G.G.G.Q.Q.Q.G.F.G.Q.Q.Q.Q.S.G.^.Q.Q.^.^.Q.Q.Q.Q.^.^.Q.Q.^././.^.^.^.Q.Q.G.^.Q.Q.^.^.G.Q.^.Q.Q.G.Q.Q.G.Q.Q.Q.^.Q.Q.G.Q.Q.^./.^.^.Q./.^.Q.Q.Q.Q.Q.G.G.F.F.Q.G.G.F.F.Z.A.Z.Z.Z.Z.Z.Z.3.4.1.2.2.2.2.2.2.2.,.<.<.R W <.R W 3                                                               . . . @ # q '  .$.%.%.+.X.O.........O.O.O.O.O...O.....O.O.O.....O.O...O...O.O.........O.O.O.O.........O.O.......O...O...............O.O...............O.O...........O.....O...O.......O.O.O...........O.O.O.O...........O.O...O.O.................O.O.O.O.O.O.O.O.O.O.O.......O.O.O.O.O.O.O.O.O.O.O.O...O.....O.O...O.O.O...........O.O.O.O.O...O.O.O.O.O.O.....O.O.O.O...O.O.O...O.O.O.O.O.O.O.O.O.O.O.O.O.O.O.O.O.O.O.O.O.O.........O.O.O.O.O.O.O.O.O.O.O.O.O.O.O.O.O.O.O.O.O.O.O.O.O.O.O.O.O.O.O.....................O.O.O.O.O.O.O.O.............O.O.O.O.O.O...O.O.O.O.O.O.O.",
"o o o o o o o o o o o X o o o o o o X X X X       f |.[.V.d Y ] ' ' ' ' ' ) ' ' ) _ _ ' ' ] { |.#X#X|.>   X   X X X X o o o o o o o o o o o X X o X X X X X X o   a $X#X|.|.V.{ [ [ ' ) ' ' ' ' _ _ _ ' ' ' ' ' ' ' ' ' ' ' ' ' [ ' ' ' [ ' ' [ ' [ ' [ ' ' ' ' ' [ [ [ [ [ [ [ { ;X$X$X%XV.+   X X X X o o X X X X X X +   . f |.$X'.`.P.V.M.{ d d d G Y ' ' ' ' ' ' ' ' Y Y ] } M.P.[.[.|.%X[.s   . + X X X X X X X X     n.%X|.P.{ ] ] ' ' ' ' ' ' ' _ ' _ ) G ' ' ' ) ' ) ' ' ' ' ' ' ) ' ' ' ' ' [ [ [ [ [ [ ' ' ' ' ' ' ' ] M. X|.$X`.O   X       + V.$X|.{.P.{ ] ] ' [ [ ' ' ' ' ' ' ' ' ' ' [ ' ' ' ) ' ) ' ' ) ' ' ' ' ' ' ' ' ' ' ' [ [ [ [ [ [ [ [ [ [ [ | { P.%X%X$X|.>   X     o [.$X;XV.Y Y ' ' _ _ ' _ G ' ' G ' ' ' ' ' ' [ ' ' ' ) ' ' ' ' ' [ ' [ ' ' ' ' ' ' ' ' ' | ;X$X$X%Xg   o X X o o o o X X o X X X X X o o X X X X o @ ,.(.Q.Q.Q.Q.Q.G.G.G.Q.G.G.G.Q.Q.F.F.F.G.G.F.G.G.Q.Q.Q.G.Q.G.Q.Q.G.Q.Q.Q.Q.Q.G.F.G.Q.Q.!.F.A.Q.Q.!.Q.Q.Q.Q.Q.Q.!.G.F.G.Q.Q.Q.Q.Q.Q.Q.Q.Q.Q.Q.Q.^.Q.Q.Q.G.F.G.Q.G.Q.Q.Q.Q.Q.Q.Q.Q.Q.Q.F.Q.Q.G.Q.G.G.G.G.!.Q.A.A.F.G.G.Q.Q.^.^.Q.Q.G.G.Q.Q.Q.Q.Q.Q.Q.Q.Q.Q.Q.Q.Q.Q.Q.Q.Q.^.Q.Q.Q.Q.Q.Q.Q.Q.G.Q.Q.Q.^.Q.Q.^.^./.^.Q.Q.Q.Q.^.^.Q.Q.Q.Q.Q.Q.Q.^.^.^.Q.Q.Q.Q.G.G.Q.Q.G.G.G.Q.G.Q.^.Q.G.^.Q.Q.^.Q.Q.G.Q.^.^./.Q.Q.^.^.^.Q.G.^.Q.Q.G.G.A.F.G.G.G.F.A.A.F.Z.F.Z.Z.Z.Z.3.4.1.1.2.2.2.2.2.2.2.2.<.<.<.W <.3                                                                 . . . . . @ % 5 G  .$.%.%.+.+.X.O.O.O...O.O.O.O.O.....O.O.O.....O.O...O.......O.........O.O.O.O.....O.O.O.......O.O.O.......O.O.O.O.O.O.............O.O.O.O.O.....O.O...O.......O.O.O.O.O.O.....O.....O.O.O.O.................O.O.O...........O.O.....O.O.O...O.O...O...O.O.O...O.O.O.O.O.O.O.O...O.O.......O.....O.O.O.O.O.O...........O.O.O.O.O.O.O...O.O.O.O.O.O.O.....O.O.O.O.O.O.O.O.O.O.O.O.O.O.O.O.O.O.O.O.O.O.....O.O.O.O.............O.O.O.O.O.O.O.O.O.O.O.O.O.O.O.O.O.O.O.O.O.O.O.O.O.O.O...................O.O.O.O.O.....................O.O.O.O...................",
"X X o o o o o o o o o o o o o o o o X X X X X X   f |.[.V.{ d d 0 0 0 d d d d d d d d d Y { P.|.#X$X|.>   X X X X X X X o o o X X X o o o o X X o X X X X X X   + J.%X#X#X;XV.{ d d 0 0 0 0 0 0 0 0 0 0 0 0 0 0 0 0 0 0 0 0 0 0 0 0 d d d d 0 d d Y d Y d Y Y Y Y Y ] ] ] { } M.J.{.$X$X$X%Xg   X X X X X o X X X X X X X o +   > V.$X$X].[.`.P.J.M.M.{ { { ] Y ] ] { { } M.:XP.P.[.[.|.=X|.n.=   + + X o X X X X X X X X   n.%X|.`.M.Y Y d d d d d d Y d d d d d d d Y d d Y Y d Y Y Y Y d Y Y Y Y Y ] ] ] ] Y ] ] ] ] ] ] ] { M.I.|.#X$X`.O           f $X|.|.].V.{ Y Y Y Y Y Y Y Y Y Y Y Y Y Y Y Y Y Y Y Y Y Y Y Y Y Y Y Y Y Y Y Y Y Y Y ] ] ] ] ] ] ] ] ] { | } M.J.|.%X$X#X=Xn.        + [.$X[.P.{ Y Y d d Y d d Y Y Y Y ] Y Y Y Y Y Y Y Y Y Y Y Y Y Y Y Y Y Y Y Y Y ] ] ] ] ] } P.|.$X$X%Xg   o o o X o o o X X X X X X o o o X X o o o o # N.(.^.^.Q.Q.Q.G.G.F.G.G.Q.G.F.Q.Q.G.Q.G.G.G.G.G.Q.Q.Q.Q.Q.Q.Q.Q.Q.G.G.Q.Q.Q.Q.G.F.G.G.Q.!.G.G.Q.Q.!.Q.Q.Q.Q.Q.Q.G.F.F.A.G.Q.Q.Q.!.Q.^.G.G.Q.G.Q.Q.Q.^.Q.Q.Q.Q.Q.Q.Q.!.Q.G.G.Q.Q.Q.Q.Q.Q.Q.Q.Q.G.F.G.Q.G.Q.Q.G.G.G.G.Q.Q.G.Q.Q.Q.Q.G.Q.Q.Q.Q.G.Q.Q.Q.Q.Q.Q.!.Q.Q.Q.Q.Q.^.Q.Q.Q.Q.^.Q.Q.Q.Q.Q.G.Q.^./.Q.^.^.^.^.^.Q.Q.Q.Q.Q.Q.Q.Q.^.Q.Q.Q.Q.Q.Q.Q.^.^.^.Q.G.G.Q.Q.Q.G.Q.G.F.Q.^.Q.Q.Q.Q.Q.^.^.^.G.Q.^.^.Q.Q./.Q.Q.^.G.Q.Q.Q.Q.F.G.G.Q.Q.F.F.A.Z.F.F.A.Z.Z.A.Z.Z.Z.3.1.1.1.1.1.2.2.2.2.2.2.,.,.,.3                                                                           . . . . % 5 G | $.%.%.@.X.O.O...O.O.O.O.O.........O.O.O.O.O.O.O.O.O...O.............O.O.....O.O.O.........O.O.O.....O.O...O.O.....O.O.........O.O.O.O...O.O.O.......O.O.O...O.O.O.O.O.O.O.O.O.....O.O.O.......O.......O.O.O...O.O.O.O.O.O.O.O.O.O...O.O.O.....O...O.O.O.O.....O.O.O.O.O.O.O.O...O.....O.O.O.O.O.O.O.O.O.O.......O.O.......O.O.O.O.O.O.O...O.O.....O.O.O.O.O.O.O.......O.O...O.O.O.O.O.O.O.O.....O.O.O.O.O...............O.O.O.O.O.O.O.O.O.O.O.O.O.O.O.....O.O.O.O.O.O.O.O.O.O.O.O.O...........O.O.O.O.O.O.O.....O.O.O.............O.................",
"o o o o o o o o o o o o o o o o o o X X X X X o   f #X[.P.M.M.n.n.n.n.m.n.M.M.M.M.M.M.V.P.P.{.#X#X$X|.3   X X X X X X o o X o o X o o o o o o X o X X X X X X   f %X|.#X|.].`.J.V.M.M.M.M.M.M.M.M.M.M.M.M.M.M.M.M.M.M.M.M.M.M.M.M.M.M.M.M.M.M.M.M.M.M.V.V.V.V.V.P.P.J.P.P.P.P.[.;X|.$X$X|.$XP.O   X X X X o o X X X X X X X o o     a V.$X=X$X{.'.[.[.[.P.P.P.P.P.P.P.[.[.[.[.{.|.%X%X|.n.>     o o o o X X X X o o X X o   n.%X|.'.P.V.M.V.M.V.M.V.V.V.V.V.M.M.V.V.M.M.M.V.V.V.V.V.J.V.V.J.J.J.P.P.P.P.P.P.P.P.P.P.P.P.P.P.P.P.[.|.$X$X%X`.O   X     : [.$X#X#X{.[.P.J.V.V.V.V.V.J.V.J.J.J.J.J.J.V.V.J.J.J.J.J.J.J.J.J.J.J.J.J.J.J.J.J.J.P.J.P.P.P.P.P.P.P.P.P.P.P.[.;X#X#X$X$X$X|.9       + [.$X].[.P.J.J.J.J.P.P.P.P.P.P.P.P.P.P.P.P.P.P.P.P.P.P.J.P.P.P.J.P.P.P.P.P.P.P.P.P.P.P.[.{.$X$X$X=Xf   o o o o o o X X X o X o X X o X X X o o o o - D.(.Q.Q.Q.Q.Q.G.F.G.G.F.G.G.G.G.G.Q.G.G.F.F.F.G.G.G.G.Q.F.G.G.F.F.F.Q.Q.!.Q.G.Q.Q.F.F.G.Q.Q.G.G.Q.Q.G.G.G.G.Q.G.Q.Q.G.Q.G.A.F.G.G.G.Q.G.G.G.G.F.G.Q.Q.Q.Q.G.G.G.Q.Q.G.G.Q.G.G.G.Q.G.G.Q.Q.Q.Q.Q.G.G.G.Q.Q.G.Q.Q.G.Q.Q.Q.Q.Q.^.Q.Q.Q.G.Q.Q.!.Q.Q.Q.Q.G.Q.Q.Q.Q.Q.Q.Q.Q.Q.G.G.G.F.Q.Q.^.^.^.^.Q.Q.Q./.Q.Q.^.Q.^.Q.Q.Q.Q.Q.^.^.Q.Q.Q.^.Q.^.Q.Q.^.Q.Q.Q.^.Q.^.Q.Q.G.Q.Q.Q.G.G.G.G.Q.Q.G.Q.Q.Q.Q.Q.^.Q.Q.Q.Q.^.^.G.Q.Q.Q.Q.G.G.G.G.G.F.G.Q.G.F.F.A.F.F.F.A.A.Z.Z.Z.4.3.3.4.4.4.1.1.1.2.2.2.2.2.2.,.1                                                                               . . . . . @ 5 G | $.%.%.+.X...O.O.+.O.O.O...O.O.O.....O.O.O.....O.O...O...........O.O.......O.O.........O.O.......O.O.O.O...O.O.O.O.O.O.....O.O.O.....O.O.........O.........O.O.O...O.O.O...........................O.O...............O.....O.O.....O.......................O.O.O.O.O.O.O.O.O.O.O.O.O.....O.O.O.O.O.O.O.O.O...............O.O.O.O.O.O.O.........O.O.O.O.O.....O...O.O.O.O.O.O.O.O.O.O.O.O.......O.O.O.O.O.O.O.O.................O.....O.O.O.O...O.O...O.O...O.O.O.O.O.O.O.O...O.O...............O...O.O.O.O.O.O.O.O.......O.O.O.O.O.O.O.O.O.O...",
"X X X o o o o o o o o o o o o o X o o X X X X o   f $X'.`.P.P.P.P.P.P.P.P.P.`.[.[.[.].].{.|.|.$X$X$X|.3   X X X X X o o o o o o o o o o o o X o X X X X X X   : [.|.|.|.|.|.{.].[.[.[.[.[.'.[.[.[.[.[.[.[.[.[.[.[.[.[.[.[.[.[.[.;X[.[.[.[.[.'.].].].].;X{.;X{.{.|.|.|.|.|.|.|.|.|.#X$X$X|.|.%Xf   + X X o o o o o X X X X X X X + .     > { J.#X%X%X%X|.|.{.|.;X{.{.|.|.|.$X%X=X|.P.E >     + o o X X X X X X X X X X X X   n.%X|.|.].;X[.[.[.[.[.'.[.'.[.[.;X;X;X[.[.[.[.;X{.{.;X{.{.{.{.;X;X|.{.|.|.|.|.|.|.|.#X|.|.|.#X#X|.#X|.$X$X$X%X[.=   X     n.%X|.#X#X|.|.;X;X[.'.'.;X].;X{.{.].;X;X;X].].{.{.;X{.{.;X{.{.|.{.|.|.{.{.|.|.{.|.|.{.|.|.{.|.|.|.|.|.|.|.|.|.|.#X#X$X$X$X|.%XV.      + [.$X|.|.].[.].].].{.|.|.|.|.|.|.|.|.|.|.|.|.#X#X|.|.|.{.{.{.].{.{.{.{.{.|.{.{.{.{.{.{.|.#X$X$X$X%Xf   o o o o o o X X X o o X X X X X o X o o o X - S.(.^.^.G.G.F.F.Q.G.G.F.F.G.F.G.G.Q.G.G.Q.G.F.F.G.F.G.Q.Q.G.F.G.G.A.A.G.Q.G.G.G.G.G.A.F.Q.Q.Q.Q.Q.Q.Q.Q.Q.G.G.Q.Q.Q.Q.Q.!.Q.G.Q.!.Q.G.Q.Q.Q.Q.Q.G.Q.!.Q.Q.G.Q.Q.G.G.^.Q.Q.^.Q.G.F.G.G.Q.Q.^.Q.^.Q.Q.S.F.^.G.G.G.Q.G.G.G.Q.Q.Q.G.Q.Q.G.Q.Q.Q.Q.Q.Q.^.Q.Q.Q.Q.Q.Q.Q.!.Q.Q.Q.Q.Q.Q.Q.^.Q.Q.Q.^././.^.^./.Q.Q.^.G.Q.Q.Q.G.G.Q.^.Q.^.^.^.Q.G.Q.^.Q.Q.^.Q.S.G.^.^.G.G.Q.Q.Q.Q.Q.^.Q.Q.Q.G.Q.G.Q.Q.Q.G.G.Q.Q.G.Q.^.Q.Q.Q.Q.Q.Q.G.G.G.G.F.F.G.F.G.G.F.A.F.F.A.A.A.A.Z.3.Z.Z.3.4.3.4.4.1.1.1.1.1.1.2.,.-                                                                                 .             @ 5 G | #.%.%.+.+.X.O.O...O.O.....X...............O.O.O.............O.O.O.....O.O...O.......O.........O.......O.....O.O.O.O.O.O.O.O.O.O.......................O.O.........O.O.O.O.O.......................O.O.O.O.O.........................O.O...O.O.O.O.O...O.O.O.O.O.O.O.O.O.O.O.O.....O.O.O.O.O.O.O.O.....O...O...O.O.O.O.O.O.O.O.O.O.O.O.....O.....O.O.O.O.O.....O.O.O.O.O...O.O.O.O.O.O.O.O.O.O.O...O...O.O.O.....O.........O.O.O.O.O.O.O.O.....O.O.O.O.O.O...O.....O.O...O...............O.O...O.O.O.O.O.O.O.O.O.....O.O.O.O.O.O.O.O.O.O.",
"X X o o o o o o o o o o o o o o o o o X X X X o   E %X|.].].].].].|.{.|.{.{.|.|.|.#X#X#X$X$X$X$X$X$X|.>   o X X X X o o o o o o o o o o o o X X o X X o X o   n.=X|.#X#X#X#X|.|.|.|.#X#X#X|.|.|.|.|.|.|.|.|.|.|.#X{.#X#X|.|.|.$X|.|.|.|.|.|.#X#X#X#X|.|.|.|.|.|.|.$X$X#X#X$X$X$X|.|.$X$X|.|.$X'.:   o o o o o o o X X X X X X X X X o o     . 3 f n.J.|.$X$X$X$X$X$X$X|.|.`.n.f 3 .     + o o o o X X X X X X X o o X X X   n.%X$X$X#X#X$X$X#X|.|.#X#X#X|.|.|.|.|.$X|.|.|.$X|.$X$X|.|.$X|.|.|.$X|.$X$X$X#X#X#X#X$X$X$X$X&X&X*X&X$X&X%X$X%X[.=   X   3 |.|.#X$X$X#X|.|.|.#X$X#X#X#X#X$X$X#X#X#X$X$X$X$X$X$X$X|.$X|.|.$X|.$X$X$X$X$X$X$X$X$X$X$X$X$X$X$X$X$X$X$X$X$X$X$X$X$X&X$X$X$X$X%Xa     + [.%X|.$X$X$X$X$X$X$X$X%X$X$X$X$X=X$X$X$X%X%X%X%X%X%X$X$X$X$X$X$X|.#X|.$X|.|.|.|.|.#X#X$X$X$X%X%X=Xf   O o o X X o X X X o o X o o X o o o o o o o - S.(.^.Q.G.Q.Q.G.A.A.G.!.G.F.F.Q.G.F.G.F.F.Q.Q.Q.Q.Q.G.G.Q.F.Q.G.G.Q.F.F.Q.G.Q.G.Q.G.!.G.G.Q.Q.Q.Q.^.Q.Q.Q.Q.G.G.G.G.G.Q.Q.Q.Q.Q.Q.^.Q.Q.Q.Q.Q.Q.G.G.Q.Q.Q.Q.Q.^.^.Q./.Q.Q.Q.Q.^.Q.Q.!.Q.Q.Q.Q.Q.Q.Q.Q.A.A.Q.G.Q.Q.Q.G.G.G.Q.^.Q.Q.^.Q.Q.!.G.Q.Q.F.Q.Q.^.^.Q.Q.Q.G.Q.Q.^.^.!.^.Q.^.^.^.Q.G.S.G.G.G.Q.^.Q.Q.^.Q.^.^.Q.Q.Q.Q.^.Q.Q.^./.^.G.Q.Q.Q.^.^.^./.^.^.Q.Q.Q.Q.Q.Q.Q.Q.Q.^.^.^.Q.Q.Q.^.^.^.Q.G.Q.^.^.^./.^.^.Q.Q.F.Q.Q.F.G.G.F.F.F.A.Z.A.A.F.F.A.Z.A.Z.A.Z.A.Z.Z.Z.Z.Z.Z.4.3.3.4.1.4.1.1.<.-                                                                                                   . @ % H | $.%.%.%.+.O.O.O.O.....O.O...O.O.O.........O.....O.O.....O.O.O.O.O.O.O.O.O.O.O.O.O.O.............O...............O.O.O.O.O.O.O.O...................O.O...........O.O.O.O.O.O.O.O.O...O.O.....O.O.O...O.....O.O.................O.O.O.O.....O.O.O.O.O.O.O.O.O.O.O.O.O.O.O.O.O.O.O.O.O.O.O.O.......................O.O.O.O.O.O...........O.........O.O.O...O.O.O.O.O...O.O.O.O.O.O.O.O...O.O.O.O.O.O.O.O.O.....O.....O.O.O...O.O.O.O.O...........O.O.O.O.........O.O.O.O.O...O.O.O.O.......O.O.O.....O.O.O.O.......O.O.O.O.O.O.O.O.O.",
"o X X o o o o o o o o o o o o o o o o X X X X X X : a 3 > > > > > > > > > > > > > > > > > 3 > > > > > o   X X X X o o o o o o o o o o o o o X X o X X X X X   : 9 > > > > > > > 3 3 a a a 9 a 9 3 3 9 a a a 9 3 9 3 3 3 3 9 6 > > > > > > > > > > > > > 3 > > > > > > > > > > > > > > > > > > 3 O X o o o o X X X o o X X X X X X X o X o o o       O = > > a a a 9 > > : O       o o o o o X X o o o o o o o X o X X X X X : a 9 9 9 3 9 9 9 9 9 9 3 9 > > > > > > > > > > > > > > > > > > > > > > > > > > > > > > > > > > > > 3 9 9 3 3 > + X X   : 9 9 9 3 > 9 9 9 9 a a a a a a 9 9 6 9 9 9 9 9 9 9 3 3 3 > > > > > > > > > > > > > > > > > > > > > > > 3 3 > > > > 3 > 3 > > > 9 : X X X > a 9 a a a a a a a a a 9 a a a a a 9 9 9 a a a 9 9 3 > 3 > > > > > > > > > > > > > > 3 a a a a a : X o o o X X X X o X X o X o o o o X X o X o . 3 W./.Q.Q.Q.G.Q.Q.Q.G.F.Q.G.F.G.F.G.G.Q.G.F.F.F.G.G.G.Q.F.G.G.F.G.G.G.G.F.Q.Q.Q.Q.Q.Q.Q.Q.Q.Q.Q.Q.^.Q.Q.Q.Q.Q.Q.Q.Q.Q.Q.Q.Q.Q.G.G.Q.Q.Q.Q.Q.Q.Q.Q.G.Q.G.G.F.G.G.G.Q.Q.Q.^.Q.G.G.G.Q.G.G.G.G.F.Q.Q.Q.Q.F.Q.!.Q.Q.G.Q.Q.^.!.Q.Q.Q.Q.^.Q.Q.A.G.Q.^.Q.G.A.G.Q.!.G.G.Q.G.Q.G.Q.G.A.Q.Q.Q.^./.Q.^.Q.Q.Q.^.Q.Q.^.G.G.Q.Q.Q.Q.Q.G.Q.^.^.^.Q.Q.^.^.^.Q.^.Q.^.^.^././.^.^.Q.Q.Q.Q.^.^.^.Q./.Q.G.G.Q.Q.Q.Q.Q.Q.Q.G.^.G.F.Q.G.G.Q.Q.Q.G.Q.S.G.G.G.G.F.F.A.A.A.A.G.F.F.A.Z.Z.Z.A.Z.Z.Z.Z.A.Z.Z.3.4.3.4.4.4.,.-                                                                                                       . . @ 5 0 [ #.%.%.+.+.O.O.O.O.O.O...O.O...............O.O.....O.....O.O.O.O.O.O.O.O.O.....O.O.O.O.O...O.O.........O.O.O.....O.O.O.O...O.O...O.......O.O.....O.O.........O.O.O.O.......O.O.O.O...O.O.O.......O.....O.O.O.............................O.O.O.O.O.O.O.O.O.O.O.O.O.O.O...O.O.O.O.O.O.O.....O.....O.........O.O.O.O.O.O.....O.O.O.....O.............O.O.O.O.O.O.O.O.O.O.....O.O...........O.O.O.O.O.O...O.O.O.O.O.O.O.O...O.O.O.O.O.O.....O.O.O.O.O.O.O...O.O.O...O.O.O.O.O.....O.O.O.O.O.O...O.O.O.O.O.O.O.....O.O.O.O.O.O...",
"o X X X o o o o o o o X o o o o o o o o X X X X o X                                                   X o X X X X o o o o o o o o o o o o o o X o o o o X X X                                                                                                                                   X X o o o o o o X o o o o o o o X X X X X o o o o o X                     + o o o o o o X X X X o o o o o o o o o X X X X X                                                                                       X                         X + X X X                                                                                                                                   o X X                                       X X   X X X                                                 X o o o X X o X X X X X X o o X X X X X + o o . r (.^.Q.Q.Q.Q.Q.G.Q.Q.G.G.Q.G.F.Q.G.G.F.Q.G.G.Q.Q.G.G.Q.Q.G.Q.G.G.G.F.G.G.F.^.Q.Q.Q.Q.Q.G.Q.^.F.F.Q.Q.G.G.G.Q.^.Q.Q.Q.Q.Q.Q.Q.G.G.G.G.G.Q.G.G.Q.!.Q.F.Q.Q.Q.G.G.G.G.G.Q.G.G.G.Q.Q.G.G.Q.Q.Q.G.Q.Q.Q.^.Q.G.Q.Q.Q.Q.Q.Q.Q.Q.Q.^.Q.!.Q.Q.G.F.F.G.Q.Q.^.Q.G.Q.Q.Q.^.Q.Q.Q.Q.Q.Q.Q.G.Q.Q.G.G.Q.^.^.Q.^.Q.Q.^.Q.^.G.G.G.Q.G.G.G.Q.^.Q.Q.^.^.^.^.Q.G.Q.^.^.Q.^.^./.^.^.^.Q.^.^.^.Q.Q.Q.Q.Q.^.G.G.Q.Q.G.G.G.Q.Q.Q.Q.G.Q.G.F.G.G.Q.Q.Q.Q.G.F.G.G.!.G.G.G.G.G.G.Q.G.G.G.A.A.A.F.A.Z.A.A.A.Z.Z.Z.3.3.3.4.<.# .                                                                                                             . @ 5 0 [ #.%.%.%.+.+.O.O.O.O...O...O.O...O.O.O.O.O.O.O.......O.O...O.O.................O.O.O.O.O.O.O.O.O.O.O.O.........O.O.O.O.O...O.O.....O.....O...........O.O.O.O.O.O.....O.O.O.............O...O.O.O.......O.O.O.O.......O.O.....................O.O.O.O.O.O.O.O.O.O...O.O.O.O.O.O.O.......O.O.O.O.O.O.O.O.......O.O.........O.O.O...O...O.O.....O.O.......O.....O.O.....O.O.O.O.O.O.O.O.O...O.O.O.O.O.O.O.O.O.O.O.O.......O.O.........O.O.O.O.O.O.O.O.O.O.O...O.O...O.O.O.....O.O.O.O.O.O.O.O.O.O.O.O.O...........O.......",
"X X o o o o o o o o o X o o o o o o o X X X X X X o o o o o o o o o o o X o o X o o o o o o o + + + o X X X X X o o o o o o o o o o o o o o o o o o o o o o o o X o o o o o o o o o + o o o o X X o o o o o o o o o o o o o X X o o o o o o X o o X o X o X o o o o o + o X o o o o o o o o o o o X X X o o X o o o o o o o o o o X X X o X X X X X o o X o o o o + o X X o o o X X X o o o o o o o o o o o o o o o X X X X o o X o o X X o o o o o o o o o o o X X X o o o X X X X o o o o o o X o X X X X X X o X o o o o X o + + o o o o X o o o o o o X + o X X o o X + o o o o X X X X + + o X o o X X o o o o X o o o o X o o o X o o o X X X X o o o o o o X o o o o o o o o o o X + X o o X o o o o o o o o X o X o o o o o o o o o o o o o o o X X X X X X X X X X X X   X X X X X + X o o o X X X o X X o o X X X X o X X o o o o o . e (.^.Q.G.G.G.Q.G.Q.Q.G.G.G.Q.G.G.G.G.G.G.G.G.G.Q.Q.Q.G.G.G.G.G.G.G.G.G.G.G.G.G.Q.Q.Q.Q.F.G.Q.Q.Q.G.G.Q.G.G.G.G.F.F.G.G.Q.G.Q.G.G.G.Q.G.Q.G.F.Q.Q.Q.Q.Q.G.Q.Q.Q.Q.Q.G.G.G.Q.Q.Q.Q.Q.Q.^.Q.Q.Q.Q.G.Q.Q.!.G.G.G.Q.Q.Q.Q.Q.G.G.Q.Q.Q.G.Q.Q.Q.Q.Q.Q.Q.G.Q.Q.G.Q.^.^.Q.Q.Q.Q.^.Q.Q.^.^.Q.Q.G.G.Q.Q.Q.Q.^.^.Q.Q.^.^.G.Q.Q.G.Q.Q.Q.Q.^.Q.^.Q.^.^.Q.G.Q.Q.Q.^.^.^.^.^.Q.Q.Q.Q.Q.Q.Q.G.S.G.G.Q.Q.G.G.G.Q.G.Q.Q.G.Q.^.Q.Q.Q.G.Q.Q.Q.Q.Q.^.Q.Q.G.G.Q.Q.Q.G.G.G.G.G.G.G.S.G.F.A.F.F.A.Z.F.A.Z.Z.3.3.3.Z.1.T 1 . . .                               .                                                                         . . . . @ % q [ #.$.%.+.+.+.O.X.O.O.O.O.O.O.O.O.O.O.O.O.O.O...........................O.O.O.O.O.O.O.O.O.O.O.O.......O.....O...........O.......................O.O.O.O.O.O...O.....O...............O.O.O.O.O.O.O.O.O.O.O.......O.O.......O.O.O.O.O.....O.O...O.O.O.O.O.....O.O.O.......O.....O.O.........O.O.O.O.......O.O.....O...O.O.......O.......O...O...............O.......O.O.O.O.O.O.O.O.......O.O.O.O.O.O.O.O.O.O.O.O.....O.O.O.O.O.O.O.O.O.O.O.O.O.O.O.O.O.O.O.O.O.O.O.O.....O.O.O.....O.O.O.O.O.O.O.O...O.O.O...O.O.O.",
"X X X o o o o o o o o X X o o o o o o o o X X X o o o X X X X X X X X o X X X X X X o X o o o o o o X X o X X X o o o o o o o o o o X o o o o X X o o o o X X X o o o o o X X X X X X X X X X X X X X X X X X X X X o X X X X X o o X X o o X X X X X X X X X X X X X X X X X X X X X X X X X X X X X X X o o o o o o o o o o o o X o o o X X o X X X X X X X X X X X X o X o o o X X o o o o o o o o o o o o o o o X o X X X X X X X X X X X X X X X X X X X X X X X o o X o o X X X X X X X X X o X X X X X o o o o X X X X o X X X X o X X o X o o X X X X X X X X X X X X X X X X X X X X X X X X X o X X o o X o X X X o X X X X X o o X o X X X X X X X o o X X X o o o o X o o o o o o X X X X X X X X X X X X X X X X X X X X X X X X X X X X X X X X X X X X X X X X X X X X X X X X X o X X X X X o o o o o X X X X X X X X X o X o . e (.Q.Q.Q.Q.G.Q.Q.F.Q.Q.G.Q.Q.G.F.G.G.G.G.G.G.Q.Q.Q.Q.Q.F.F.G.G.F.G.G.G.F.G.Q.Q.Q.Q.Q.Q.F.A.G.Q.Q.Q.G.Q.Q.Q.G.Q.Q.Q.Q.Q.Q.G.Q.Q.G.G.G.Q.Q.F.G.Q.Q.Q.Q.Q.Q.G.F.F.G.Q.G.G.Q.Q.Q.G.Q.Q.Q.Q.G.Q.Q.Q.Q.Q.Q.Q.Q.Q.G.Q.Q.Q.Q.Q.!.^.Q.Q.Q.Q.Q.Q.Q.Q.G.Q.Q.G.G.^.Q.Q.Q.^.^.Q.Q.Q.Q.^.^.Q.Q.^.Q.Q.G.Q.Q.Q.Q.Q.^.Q./.^.Q.Q.Q.Q.Q.Q.Q.Q.G.Q.Q.Q.^.Q.^./.Q.^.^.^.Q.^.^./.^.Q.^.Q.Q.Q.G.Q.^.^.^.Q.G.^.Q.G.S.G.Q.G.G.Q.G.Q.Q.Q.G.F.G.Q.Q.Q.Q.Q.^.^.Q.G.G.Q.Q.Q.^.^.Q.Q.G.G.F.F.G.A.A.F.F.A.A.F.A.F.H.Z.H.Z.1.2.,.E T s e e r r 3 3 1 - - # @ @ @ . . .                                                                                 . . . @ % 8 [ #.%.%.%.+.+...O.O.O.O.O.O.O.O.O.O.O.O.O.O.O.....O.O.O.O...O.O.O.O.O.O.O.O.O.O.O.O.O.O.O.O.O.O.O.....O.O...O.O.O.O.....................O.........O.O.O.O.........O.O.........O.O.O.O.O.O.O.O.O.O.O.O.O.O...O.O.O.......O.O.O.O.O.O.O.O.O.O.....O.......O.........O.O.....O.O.O...........O.....................O.O.O.O.O.........O.O.O.O.O.O.O.....O.O...........O.O.O.O.O.O.O.O.O.O.O.O.O.O.O.O.O.O.O.............O.O.O.........O.....O.O.O.O.O.....O.....O.....................O.......O.....O.O.O.O.O.O.",
"o o o o o o o o o o o o o o o o o X X o o o o o X o o o o X X X X X X o X X X o o o o X X o o X X o o X o o o o o o o o o o o o o o X o o o o o o o o o X X X X X X o o o X X o o o o o X o o o X X X X X X o X X X o o o o o o o o o o o X X X X X o o o X o o X o X X X X X X X X X X X X X X X X X o o o o o o o o o o o o o o o o o o X X o X X X X X X X X X X X X X X o X o o o o o o o o o o o o o o o o o o o o X X X X o X X X X X o X o o o X o X X X X o o o o o o o o o o o o X X o o o o o X X o o o o o X o o o o o X o X X X X X o o o X X X X X X X X X X X X X o o X X X X X X X o o o o o X o o X o o o o o o X o o X X X o o o o o o o o o o o o o o o o o o o o o o o o o o X X X X X X o X X X X X X X X X X X X o o X X X o o X X X X X o X X X X X X X X X X X X X   X X X X X X X o o o o o X X X X X X X X X X X X o . s (.Q.Q.Q.G.G.G.Q.G.G.F.F.F.F.Q.G.F.G.G.F.F.Q.G.Q.G.Q.G.G.F.G.Q.Q.G.Q.G.G.F.F.Q.Q.!.Q.Q.Q.G.G.Q.Q.G.Q.Q.Q.^.Q.Q.Q.Q.G.Q.Q.Q.Q.Q.Q.Q.Q.Q.Q.F.F.Q.Q.Q.Q.Q.Q.Q.Q.F.G.Q.Q.G.G.Q.Q.G.Q.G.G.Q.G.G.G.G.G.G.G.G.Q.Q.G.G.Q.G.G.Q.Q.Q.Q.Q.Q.G.S.F.Q.Q.^.Q.Q.Q.F.Q.Q.Q.^.Q.Q.^.G.G.Q.Q.^.Q.F.Q.Q.Q.Q.Q.G.Q.^.G.G.^.Q.^././.^.Q.Q.Q.Q.^.Q.^.^./.^.^.Q.Q.Q.Q.G.Q.^.^./.^.^.Q.Q.Q.Q.Q.G.Q.^.Q.^./.^.Q.^.^.^.Q.^.^.^.^.Q.G.Q.!.Q.G.G.G.G.G.G.Q.Q.^.^.^.G.Q.^.Q.Q.Q.Q.Q.G.S.G.F.F.F.G.G.F.A.A.A.A.Z.H.3.Z.Z.Z.Z.4.4.1.,.,.,.,.,.,.,.,.,.,.>.E E E T T s s e r 3 3 1 - # # # @ . . .                                                     .   . . . . @ 5 q [ #.$.%.%.+.O.O.O.O.O.O.O...........O.O.O.O.O.O.O.O.O.O.O.O.O.O.O.O.O.O.O.O.O.O.O.O.O.O.O.O.O.O.O.O.O.O...O...O.O.....O.O.........O...O...O.O.O.O.O.............O.O.......O.O.O.O.O.O.O.O.O.O.O.O.O...O.O.O.O.O.O.O.O.O.O.O.O.O.O...O.O...O.O.......O.O.......O.O.O.O.O.O.O.O.O.......O.O...................O.....O.......O.O.........O.O.O.O.O.O.O.......O.O.O.O.O.O.O.O.O.......O.O.O.O.O.O.O.O.O.O.O.........O.O.O.O.O.O.O.O...O.O.O.O.O.O.O.O.........O.............O.O.O.O.O.O.....O.O.O.O.O.O.O.",
"o o o o o o o o o o o X X o o o o o o o o o o o o o o o o o X X o X X o o X X o X X X X X o o o X o o X X o o o o o o o o o o X X o o o o o o o o o o o X o o o o o o o o o o o o o o o o o o o X X X X X X X o o o o X X o X X X o X X X X X X X X X X o X X o X X X X X o o o X X X o o o o X X X o o o o X o o o o o o o o o o o o o o o o o o o X X X X X X X X X o X o o o o o o o o o o o o o o o o o o o o o o o o o X X o o X X X X o o o o o o o o X X X o X o X X X X X X X o X X X X o X X X X X o o X X X o o o o o o X X X X o o o o o o o o X X X X X X X X o X X X o X X X X X X X X X X X X o o o X X X X X X X X o X X X o o o X X o o o o o o o o o o o o o o o o o o o o o o X X o X X X X X X o o X X X X X X X X X X X X X o o X X X X X o o X X X X X X X X X X X X X X X X X X X X o o o o X X o X X X X X X X X X X o . s (.^.^.G.Q.Q.Q.G.Q.Q.G.G.F.F.G.Q.G.G.F.G.F.Z.A.A.F.G.F.F.G.F.G.G.G.G.G.G.Q.Q.G.G.Q.G.Q.F.Q.G.G.Q.Q.G.G.Q.Q.Q.Q.G.Q.Q.G.Q.G.Q.Q.Q.G.Q.Q.G.Q.G.Q.Q.Q.Q.Q.Q.Q.Q.Q.F.Q.Q.Q.G.G.Q.Q.G.Q.G.G.Q.G.Q.G.Q.Q.Q.G.Q.Q.Q.Q.^.Q.G.G.Q.G.Q.Q.^.Q.Q.G.G.Q.Q.Q.Q.Q.G.S.Q.Q.Q.^.Q.^.Q.Q.Q.Q.Q.^.Q.G.Q.Q.Q.Q.Q.G.Q.^.Q.G.Q.^./.^.^.Q.Q.Q.Q.Q.Q.Q.Q.Q.^.^.Q.Q.Q.Q.G.G.Q.Q.Q.Q.Q.Q.Q.Q.G.Q.Q.Q.^.^.^.^.^./.Q.^.Q.Q.^.^.^.Q.^.Q.Q.G.Q.Q.Q.Q.Q.Q.Q.Q.Q.Q.Q.Q.G.G.G.Q.Q.G.Q.Q.G.G.G.F.G.G.F.F.F.F.A.A.F.A.Z.H.Z.Z.Z.3.Z.Z.Z.3.1.1.1.1.,.,.1.,.1.1.D.1.,.,.,.,.,.,.,.,.,.,.>.E T T T T s e r 3 3 3 - - - # # . . . . .                         . .   . . . . . . @ % q '  .$.%.%.+.O...O.O.O.O.....O.O.O.O.O.O.O.O...O...O.O.O.O.O.O.....O.O.....O.O.O.O.O.O.O.O.O.O...O.....O.O.O.........O.O.O...............O.O.O.O.O.O.O.....O.O.O...........O.O.O...........O.O.O.....O.O.O.O.O.O.....O.O.............O.O.O.O.O.O.O...........O.O.......O.O.........O.................O.O.....O.O.O...O.O.....O.O.O.O.O.O.O...O.....O...O.O.O.........O.O.O.O.O.O.O.O.O.O.O.O.O.O.O.O.O.O.....O.O.O.O.O.O.O.....O.O.O.O.O.O.O.O.O.O.O.O.O.O.O.O.O.O.O.O.O.O.O.O.O.....O.O.O.O.O.O.",
"o o o o o o o o o o o o o o o o o o o o o o o o o o X o o o o o X X o o o o X X X o o o o o o o o o o o o o X X o o o o o X o o o o X o o o o o o o o o X o o o o o o o o o X X o o o o o o X o X X X o X X X o o o o X o o o o o o o o o o X X o o o o o o o o o o o o o o o o o o o o o o o o o o o o o o o X o X X o o o o o o o o o o o X X o o o o o o o o X X o o o o o o o o o o o o o o o o o o o o o o o o o o o o o o X X o X o o o o o o o o X o o o o o X o o X o o o o X o X X o X o o o o X o o o o o X o o o o o o o X o o o o o o o o o o o o o o o o o o o o X X X X X X X X X X o o o o o o o X X X o X X o o o X X o o o o o o o o o o o o o o o o o X o o o o o o o o o o o o o o o X X o o X o o o X o o X X X X X X X X X X X X X X X X X X X X X X X X X X X X X X X X X X X X X X X o o X X X X X X X X X X X X X X . . T (.Q.Q.Q.G.F.F.G.G.G.G.Q.Q.G.F.G.G.G.A.G.Q.G.F.G.A.F.Q.F.A.G.F.F.Q.G.G.G.Q.Q.Q.Q.G.F.Q.G.Q.Q.F.G.Q.G.Q.F.Q.G.Q.Q.G.Q.Q.G.Q.G.G.G.Q.G.Q.F.G.Q.Q.Q.Q.Q.Q.Q.Q.Q.!.Q.F.F.Q.!.!.Q.Q.Q./.Q.Q.Q.Q.Q.Q.Q.^.!.Q.Q.^.Q.Q.Q.Q.^.Q.Q.Q.Q.G.Q.^.Q.Q.Q.Q.^./.^.Q.Q.G.Q.Q.Q.Q.Q.Q.^.^.^.!.^.^.Q.^.Q.Q.Q.^.Q.!.Q.Q.^.Q.Q.Q.Q.Q.Q.Q.Q.G.Q.Q.Q.G.F.G.^.Q.Q.^.Q.^.^.^.Q.Q.G.Q.^.Q.Q.Q.Q.Q.Q.Q.Q.^./.Q.^.^.Q.^.Q.Q.^.Q.Q.Q.Q.^.Q.Q.Q.Q.Q.Q.Q.Q.Q.Q.G.S.Q.Q.Q.Q.G.G.G.Q.Q.Q.Q.G.Q.F.G.G.F.F.F.F.F.A.A.F.A.Z.F.A.H.H.H.Z.Z.Z.Z.F.A.A.Z.4.Z.Z.Z.Z.Z.Z.4.1.1.2.,.2.1.2.,.,.,.,.<.<.R R R R R T T T T T s s s e e 3 3 3 3 3 1 - - # # # # @ @ . . . . . . . . . . . . . . # q '  .$.%.%.X.X.O.O.O.O.O.O.O.O.O.O.O.O...O.O.O.O.O.O.O.O.O.....O.O...............................O.....O.....O.O.O.....O.O.........O.......O.O.O.O.O...O.O.O.........................O.O.O.........O.O.O.O.O.O.O.............O.O.O...........O.O.......O.O...O.......O.O.O.......O.O.O.O.O.....O.O.........O.....O.O.O...O.O.O.O.O.O...O.O.......O.O.O...........O.O.O.O.O.O.O.O.O.O.O.O.O.O...O.O.O...O.O...O.O.O.O.O.O.....O.O.O.O.O.O.O.......O.O.O.O.O.....O.O.O.O.O...O.....O.O.O.O.O.",
"o o o o o o o o o o o X X o o o o o o o o o o o o o o o o X X X X X o o o o o o o X o o o o o o o o o o o o o o o o o X o o o o o o o o o o o o o o o o X o o o o o o o o o o X o o o o X o o X X o o o o o o o o o o o o o o o o o o o o o o o o o o o o o o o o X o o o o o o o o o o o o o o o o o o o o X X o o o o o o o o o o o o o o o X o o X o o o o o o o o o o o o o o o o o o o o o o o o o o o o o o o o o o o o o o o X o o o o o o o o o o o o o X X o o o o o o o o o o o o o o o X o o o o o o o o o o o o o o o o X o o o o o o o o o o o o o o o X o o X X o X X X o o o o X o o o o o o X o o o o o o o X o o o o o o o o o o o o o o o o o o o o o o o o o o o o o o o o o o o o o o o o o X o o o o X X X X o o X o o X X X o o o o X X X X X X X X X X o X X X X X X o X X X X X X X X X X X X X X X X X X X X X X X . . T /.G.G.G.G.Q.Q.G.Q.Q.Q.Q.G.Q.G.Q.G.G.G.F.F.G.Q.Q.Q.G.Q.Q.G.G.G.A.F.G.Q.Q.G.G.G.G.Q.G.Q.G.G.Q.Q.G.Q.G.Q.G.G.G.G.Q.Q.Q.G.Q.Q.G.F.F.A.A.G.G.F.G.F.G.G.G.Q.Q.Q.Q.Q.Q.Q.Q.G.Q.Q.Q.Q.Q.Q.Q.Q.Q.G.Q.G.!.Q.Q.G.G.G.G.F.G.Q.!.Q.Q.^.Q.G.F.G.Q.G.G.Q.Q.Q.Q.Q.Q.Q.Q.Q.Q.Q.Q.Q.Q.Q.^.Q.Q.^.Q.Q.Q.Q.G.G.G.Q.G.G.G.Q.Q.Q.Q.Q.Q.Q.Q.Q.Q.Q.^.Q.Q.Q.Q.^.Q.Q.Q.Q.Q.^.^.Q.Q.^.^.^.^.^.^.Q.^.Q.G.Q.^.^.^./.Q.^.Q.Q.Q.Q.Q.Q.G.Q.Q.^.Q.^.Q.Q.Q.Q.Q.Q.Q.Q.^.Q.Q.Q.Q.F.G.G.G.Q.Q.Q.G.G.G.G.G.F.F.F.F.F.A.A.F.F.F.A.Z.A.A.Z.H.Z.Z.A.Z.Z.A.Z.Z.Z.Z.Z.Z.Z.Z.Z.3.3.4.1.1.1.2.2.2.2.,.,.<.<.<.<.R R R T T T T T T I I I s s s e e e e 4 3 3 3 3 1 1 1 1 1 - - # # # # # . . . . . @ % q F  .$.%.%.+.O.O.....O.O...O.O.O.O...O.O.O.O.....O.O.O.O.O.O.........O.O.O.......O.O...O.......O.O.O.......O...................O...O.O.O.O.O.............O.O.........................O.O...O.O.O.O.O.O.O.O.......O.................................O.O.O.O.......O.....O.O.O.O.O.O.O.O.O.O.O.O.......O.......O.O...O.....O...........O.O.......O.O.O.O.............O.O.O.O.O.O.O.O.O.........O.............O.....O.O.....O.........O.O.O.O.O...............O.O.O.O.O...........O.O...",
"o o X X o o o o o o o o o o o o o o o o o o o o o o o o o o o o o o o o o o o o o o o o o o o o o o o o o o o o o o o o o o o o o o o o o o o o o o o X X o o o o o o o o o o o o o o o o o o o X o o o o o o o o o o o X o o o o o o o o o o o o o o o o o o o o o o o o o o o o o o o o o o o o o o o o X o o o o o o o o o o o o o o o o o o o o o o o o o o o o o o o o o o o o o o o o o o o o o o o o o o o o o o o o o o o o o o o X o o o o o o o o o o o X X o o o o o o o o o o o o o o o o o o o o o o o o o o o o o o o o o o o o o o o o o o o o o o o o o o o o o o o o o o o o o o o o o o o o o o o o o o o o o o o o o X o o o o o o o o o o o o o o o o o o o o o o o X o o o o o o X X o X o o o o o X o o X o o o o X X X X o o o o X X X X X X X X o X X o X X X X X X o o o o o o o o X X X X X X X X X X X X X X X X . . >.(.G.G.F.Q.F.G.G.G.F.G.G.G.G.G.Q.G.G.F.G.Q.Q.Q.G.Q.Q.Q.Q.Q.G.G.G.F.F.!.Q.G.G.Q.G.G.Q.Q.G.F.Q.Q.Q.G.Q.Q.Q.G.G.G.Q.^.Q.Q.Q.Q.Q.G.G.G.G.G.G.Q.G.Q.F.G.Q.!.Q.Q.Q.Q.G.Q.Q.Q.Q.Q.G.Q.Q.Q.Q.Q.Q.F.G.G.G.Q.Q.Q.Q.G.G.Q.Q.Q.Q.Q.Q.^.Q.Q.Q.G.Q.Q.Q.G.G.Q.Q.Q.G.Q.Q.Q.Q.Q.^.Q.Q.Q.Q.Q.Q.Q.Q.Q.Q.Q.Q.G.G.Q.G.F.G.Q.Q.Q.Q.^.Q.^.^.Q.Q.Q.Q.Q.Q.Q.G.^.G.Q.Q.Q.^.^.Q.G.Q.Q.^.^.^.Q.Q.^.Q.Q.Q.G.Q.^././.^.^.^.Q.Q.Q.Q.Q.G.Q.Q.Q.Q.Q.Q.Q.Q.^.^.^.^.Q.Q.Q.Q.Q.Q.G.Q.G.G.F.G.Q.G.F.F.G.G.G.F.G.G.F.F.F.F.G.G.A.Z.Z.A.A.F.F.A.A.A.A.Z.Z.Z.Z.Z.3.Z.Z.Z.Z.Z.Z.4.1.1.1.2.2.2.2.2.2.2.,.<.<.<.<.<.R R R R R R T T T I I I I P e e e e 4 4 4 3 1 1 1 1 1 1 , , - - - - - - - - # 1 , , 5 5 F [ &.%.%.%.X...O.+.O.O.O...........O.O.O.O.......O...O.O...O.O.O.O.O.O.O.O.O.O.O.......O.O...O.....O...................O.............O.............O.O.O.................................O.O.O.O.O.O.O.O.O...O.O.......O.O.O.........O.O.........O.O.............O...O.O.O.O.O.O.O...O.O...O.O.........O.O...O...O.O...O.O.O...O.O.O.....O.O.O.O...........O.O.O.O.O.O.O.O...O.......O.O.O.O.O.O.O.O.........O.........O.O.O.O.O.O.O.O...............O.O.O.O.......O.O.O.O.O.",
"o o o o o o X o o o o o o o o o o o o o o o o o o o o o o o o o o o o o o o o o o o o o o o o o o o o o o o o o o o o o o o o o o o o o o o o o o o o o X X o o o o o o o o o o o o o o o X X o o X X o o o o o o o o o o o o o o o o o o o o o o o o o o o o o o o o o o o o o o o o o o o o o o o o o o o o o o o o o o o o o o o o o o o o o o o o X o o o o o o o o o o o o o o o o o o o o o o o o o o o o o o o o o o o o o o o o o o o o o o o o o o o o o X X o o o o o o o o o o o o o o o o o o o o o o o o o o o o o o o o o o o o o o o o o o o o o o o o o o o o o o o o o X o o o o o o o o o o o o o o o o o o o o o o o o o o o o o o o o o o o o o o o o o o o o o o X X o o o o X X o o o X o o o o o X X X X X X X X X X X X X o o X X X X X X o X X X X X o X X X o o o o o o o X o X X X X X X X X X X X X     X X X X . @ ,.(.G.Q.F.G.G.Q.Q.Q.G.F.G.F.F.G.F.Q.G.Q.Q.G.F.G.G.G.G.G.Q.Q.G.Q.Q.Q.Q.G.G.G.Q.Q.G.G.F.Q.Q.F.Q.F.G.G.G.G.Q.Q.Q.G.G.Q.Q.Q.Q.Q.^.G.Q.Q.Q.Q.Q.Q.^.Q.Q.Q.Q.Q.Q.G.Q.Q.G.G.Q.Q.Q.Q.Q.Q.Q.Q.Q.Q.^.Q.G.Q.Q.G.Q.Q.Q.Q.G.Q.Q.Q.Q.Q.Q.^.^.Q.^.G.Q.Q.Q.Q.Q.Q.^.Q.Q.G.Q.G.Q.Q.Q.Q.Q.^.^.^.^./.Q.G.G.Q.^././.^.Q.^./.Q.Q.G.Q.^.^.Q.^.^.Q.Q.Q.^.^./.Q.Q./.Q.Q.Q.Q.Q.G.^.^.^.Q.^.^.Q.Q.Q.^.Q.Q.^.Q.Q.Q.Q.^.Q.Q.^.Q.Q.^.^.^.^.Q.Q.Q.Q.G.Q.^.Q.^.Q.Q.G.G.Q.G.Q.Q.G.Q.Q.Q.G.G.G.Q.Q.G.G.G.F.G.G.G.G.G.F.F.A.G.G.A.F.F.F.G.G.F.F.F.A.F.F.A.A.A.Z.Z.Z.Z.Z.4.Z.4.1.1.1.1.1.1.1.2.1.2.2.2.,.2.,.,.<.<.W <.R R R R R R R T T I I I P e e e 4 4 4 4 1 1 1 1 , , , - - - # # - # - , , , , , , 5 5 8 [ #.%.%.+.+.+.O.O...O...O.O.O.O.O.O.O.O.O...O.O.....O.....O.O...O...O.O.O.O.......O...O.O.O.O.O.O...........O.O...O.....O.....O.O...O.O.....O.O.O.O.O.O.......O.O.O...................O.O.O...O.....O.O.O.....O.O...O.O.O...........O.....................O...O.O.O.O.....O.O.O.O.O.O.O.O.O...O.O...O.O.O...........O...O.........O.O...O...O.O.O.O.O.O.O.O.....O.O.O.O...O.....O.O.O.O.O.O...O.O.....O.......O.O.O.O.O.O.O.O.O.O.O.O...O.O.O.O.O...........O.........",
"X X X X o o o o o o o o o o o o o o o o o o o o o o o o o o o o o o o o o o o o o o o o o o o o o o o o o o o o o o o o o o o o o o o o o o o o o o o X o o o o o o o o o o o o o o o o o o o o o X X o o X X o o o o o o o o o o o o o o o o o o o o o o o o o o o o o o o o o o o o o o o o o o o o o o o o o o o o o o o o o o o o o o o o o o o o o o o o o o o o o o o o o o o o o o o o o o o o o o o o o o o o o o o o o o o o o o o o o o o o o o o o o o o o o o o o o o o o o o o o o o o o o o o o o o o o o o o o o o o o o o o o o o o o o o o o o o o o o o o o o o o o o X o o o o o o o o o o o o o o o o o o o o o o o o o o o o o o o o o o o o o o o o o o o o o o o o o o o o X X o o o o o o X X o o X X X o X X o o o o o X X X X X X X X o X X X o o X X X o X X o o o o o X X X X X X X X X X X X X X X X         X . # ,.^.G.G.G.A.Q.F.Q.G.Q.G.G.Q.Q.Q.Q.G.G.Q.G.G.G.Q.Q.G.G.F.F.Q.Q.Q.G.Q.Q.G.F.G.Q.Q.Q.Q.Q.Q.G.F.F.Q.G.G.F.Q.G.F.F.G.G.G.Q.Q.G.F.G.Q.Q.G.Q.G.Q.Q.!.Q.G.!.G.G.G.G.Q.Q.G.Q.Q.G.Q.Q.Q.Q.G.G.G.Q.Q.Q.Q.Q.Q.^.G.G.F.G./.Q.Q.G.Q.Q.Q.Q.Q.Q.^.Q.Q.^.G.^.^.^.Q.Q.Q.Q.G.Q.Q.G.G.Q.G.G.Q.^.Q.Q.Q.Q.G.Q.^.Q.Q.Q.G.G.^.^.Q.Q.G.Q.Q.^.Q.Q.Q.Q.Q.Q.^.Q.^.^.^.^.^.Q.^.Q.Q.Q.^./.^.Q.^.Q.^.Q.Q./.Q.Q.Q.Q.Q.Q.Q.Q.G.Q.Q.Q.Q.Q.^./.Q.Q.Q.Q.Q.Q.Q.Q.Q.Q.Q.^.Q.G.G.G.Q.Q.G.!.Q.!.Q.G.G.F.G.Q.Q.G.G.F.G.F.A.A.A.A.G.A.A.A.G.F.A.F.F.F.F.G.A.S.A.F.A.A.F.Z.Z.Z.A.Z.Z.Z.4.4.3.4.1.1.2.2.2.2.2.2.2.,.2.,.,.<.<.<.<.<.R R R R R R R T T T I I e e e e e 4 3 3 3 1 1 1 1 , , , - - # # # # # # , , , # @ @ 5 H | $.%.%.%.+.O...O.O.O.O.O.O.O...O.O.O.O.O...........O...O.O.........O.O.....O.O.O.O.O.O...................................O...O.O.O.O.O.O.....O.O.........O.O.O.....O.O.O...........O.........O...O.O...O.O.O.O.O.O.O.O.O...............O.O.O.O.......O.O.O.O.O.O...O.O.O.O.O.O.O.O.O.O.O.O.O.O.O.O.O.................O.O.O.O...O.O...O.....O.O.O.O.O.O.......O.O.........O.O.............O.O.O.O.O.O.O.O.O.O...O.O.O.O.O.O.O.O.O.O.O.O.O.O.............O.......",
"X X X X X X X o X X X o o o o o o o o o o o o o o o o o o o o o o o o o o o o o o o o o o o o o o o o o o o o o o o o o o o o o o o o o o o o o o o o o o o o o o o o o o o o o o o o o o o o o o o X o o o o o o o o o o o o o o o o o o o o o o o o o o o o o o o o o o o o o o o o o o o o o o o o o o o o X o o o o o o o o o o o o o o o o o o o o o o o o o o o o o o o o o o o o o o o o o o o o o o o o o o o o o o o o o o o o o o X o o X X o o o o o o X X o o X o X X X o o o o o o o o o o o o o o o o o o o o o o o o o o o o o o o o o o o o o o o o o o o o o o o o X o o o o o o o o o o o o o o o o o o o o o o o o o o o o o o o o o o o o o o o o o o o o o o o o o X o o X X X X o X X X o o o o o o X X X X X X o o o X X X X X X X X o X X X X X o o o o X o o o o o o o o o o o o o X X X X X X X X X X X           . # D.^.Q.Q.Q.G.G.G.F.F.G.Q.G.G.Q.G.G.Q.G.G.G.S.G.Q.G.G.Q.F.G.Q.!.!.Q.F.F.G.G.G.G.Q.G.Q.Q.Q.G.G.G.F.Q.G.Q.Q.Q.G.G.G.Q.G.G.G.Q.G.G.G.G.Q.Q.Q.G.G.Q.Q.G.F.Q.Q.Q.Q.G.Q.Q.Q.^.Q.G.Q.Q.G.Q.Q.G.G.Q.G.G.Q.Q.^.^.Q.G.Q.G.^.Q.Q.Q.Q.Q.Q.Q.Q.Q.^.Q.Q.Q.^.^.Q.Q.Q.^.Q.^.Q.Q.Q.Q.^.Q.Q.G.Q.Q.Q.Q.Q.^.G.Q.^.^.^.^.Q.G.Q.Q.Q.Q.G.Q.Q.Q.Q.!.^.Q.Q.Q.^.Q.Q.Q.Q.Q.^.Q.G.Q.Q.Q.^.Q.Q.^.Q.Q.Q.Q.G.G.F.F.G.Q.Q.^./.^.Q.Q.^.^.^.Q./.Q.Q.^.^.^.Q.Q.G.Q.Q.Q.^.^.^.^.Q.G.G.Q.Q.Q.Q.Q.G.F.Q.Q.G.G.Q.Q.Q.Q.G.G.Q.F.G.G.F.G.G.F.F.G.F.F.A.S.G.S.S.S.G.F.A.A.A.Z.Z.A.Z.Z.Z.Z.Z.3.3.3.4.4.4.1.1.1.1.1.2.2.2.2.2.,.2.,.<.<.<.R R R R R R R T T I T I I I s e e e 4 4 3 1 1 1 1 1 , , , , , , - , , # , # . . . . @ 5 0 | #.%.%.%.X.+.X.O.O.O.O.O.O.O.O...O.O.............O...........O.O.......O.O.O.O...O...O.................O.................O...O.O.O.O.O.O.O.............O.O.O.O...........O.O.O.O.O.O.......O.O...O.O.O.O.O.O.O.O.O.O.O.........O.O.O.O.O.O.O...O.......O.O.O.O...........O.....O.......O.O.O.O.O.......O.O.....O.O.O.O.........O.O.O.O.O.O.O.O.O.O.....O.O...O...O.O.............O...O.O.O.O.O.O.O.O.O.O.O.O.O.....O.O...O.O.O.O.O.O.O.O.O.O...O.O.O.....",
"X X X X o o X X X X o o o o o o o o o o o o o o o o o o o o o o o o o o o o o o o o o o o o o o o o o o o o o o o o o X o o o o o o o o o o o o o o o o X o o o o o o o o o o o o o o o X X o o o o o o o o o o o o o o o o o o o o o X o o X o o o o o o o o o o o o o o o o o o o o o o o o o o o o o o o o o o o o o o o o o o o o o o o o o o o o o o o o o o o o o o o o o o o o o o o o o o o o o o o o o o o o o o o o o o o o o o o X X o o o o o o o o o o o o o o o o o o o o o o o X o o o o o o o o o o o o o o o o o o o o o o o o o o o o o o o o o o o o o o o o o o o o o o o o o o o o o o o o o o o o o o o o o o o o o o o o o o o o o o o o o o o o o o o o o o o X X X o o o X o o X X X X X X X X o o o o X o o o o o X X o o X X o X o o o o o X X o o o o o o o o O O O O O O O o o X X X X X X X X X X     X     . . - S.^.Q.Q.Q.G.Q.Q.G.G.G.Q.Q.G.G.G.Q.Q.Q.Q.Q.Q.Q.Q.Q.G.G.G.Q.Q.G.!.Q.G.G.G.G.Q.Q.Q.Q.Q.Q.Q.Q.Q.Q.G.F.F.G.Q.Q.Q.Q.G.Q.G.F.F.G.Q.G.F.F.G.Q.Q.Q.G.Q.Q.G.Q.Q.Q.Q.Q.Q.G.Q.Q.Q.Q.Q.Q.^.^.Q.Q.G.F.G.Q.G.Q.G.Q.Q.Q.Q.Q.Q.Q.Q.Q.Q.S.G.G.G.Q.Q.Q.Q.Q.Q.^.Q.^.Q.Q.^.^.^.Q.Q./.^.^.^.^.^.Q.Q.^.Q.Q.^.G.Q.^.^./.^./.Q.G.Q.Q.^.Q.Q.Q.Q.Q.Q.Q.^.Q.Q.^.^.Q.Q.Q.G.F.A.Q.^.^.Q.G.^.^.^.Q.Q.Q.Q.Q.Q.Q.Q.Q.Q.Q.Q.^./.^.^.^.^.^.^.^.Q.G.Q.^.Q.Q.Q.Q.Q.Q.Q.Q.Q.Q.Q.Q.G.G.G.G.G.G.G.Q.Q.G.G.G.G.Q.Q.Q.Q.Q.Q.Q.Q.F.G.G.G.G.G.F.F.F.G.G.G.G.F.F.G.F.F.A.A.A.A.Z.Z.A.3.Z.A.Z.Z.Z.3.3.Z.3.3.3.4.4.4.1.3.3.2.2.2.2.2.2.,.,.,.<.<.<.<.R R R R R T R T I I I P e e e 4 4 3 3 1 1 1 1 1 , , , , , , , 1 #       .   . . @ 5 8 '  .$.%.%.+...O.....O.O.O.O...O.....O.........O.......................O.O.......O...O.O...O.................................O.....O.O.......O.O...O.O.O.O.O.........O...........................O.O.O.O.O.O.O.O.O.O.O.O.O.O.O.O.O.O.O.O.O.O.O.O.O.O...O.O.O.O.......................O...O.O.O.O...O.O.O.O.......O...O.....O.O.O.O.O.O.O.O.O.O...O.O...O.O.O.O.O.....O...O.O.O.O.O.O.O.O.O.O.O.O.O...............O.....O.O.O.O.O.O.O.O.O.O.O...O.....",
"o X X o o o o o o o o o X o o o o o o o o o o o o o o o o o o o o o o o o o o o o o o o o o o o o o o o o o o o o o o o o o o o o o o o o o o o o o o o o o o o o o X o o o o o o o o o o o o o o o o o o o o o o o o X X o o o o o o o o o o o o o o o o o o o o o o o o o o o o o o o o o o o o o o X o o o o o o o o o o o o o o o o o o o o o o o o o o o o o o o o o o o o o o o o o o o o o o o o o o o o o X o o o o o o o o o o o X X o o o o o X o o o o o o o X X o o o o o o o o o o o o o o o o o o o o o o o o o o o o o o o o o o o o o o o o o o o o X o o o o o o X o o o o o o o o o o o o o o o o o o o o o o o o o o o o o o o o o o o o o o o o o o o o o o o o o o o o o o o X o o X X X X X o o o o X X o X X o o o o o X X X X X o o o o o o X X X o X o o o O - - - # # # # . . . . . . .   . . . . X X X X X X X   . - S.Q.Q.Q.Q.Q.G.Q.G.S.S.G.G.Q.Q.Q.^.Q.Q.Q.Q.G.Q.Q.G.Q.Q.G.Q.G.G.G.G.Q.Q.F.G.Q.Q.Q.G.Q.Q.G.G.Q.Q.Q.G.G.G.G.Q.G.Q.G.G.Q.G.G.G.!.G.G.Q.G.G.Q.F.G.G.Q.G.G.Q.Q.Q.Q.Q.G.Q.!.Q.Q.^.Q.Q.Q.Q.G.Q.Q.Q.G.G.G.F.Q.Q.Q.Q.Q.Q.Q.Q.Q.Q.G.Q.Q.Q.G.Q.^.Q.Q.^.^.Q.Q.^.^.Q.^.Q.Q.Q.Q.^.^.Q.Q.^.Q.Q.Q.Q.G.Q.S.G.Q.Q././.^./.^.Q.G.Q.^.Q.Q.Q.Q.Q.Q.Q.S.Q.^.^.Q.Q.Q.Q.A.A.Q./.Q.Q.Q.G.Q.Q.Q.^.Q.Q./.^.^.Q.Q.Q.Q.Q.^.^.^.^./.^.^.Q.^.Q.G.Q.Q.Q.^.Q.Q.Q.Q.Q.G.Q.Q.Q.Q.Q.Q.G.G.G.Q.Q.Q.G.G.G.F.F.F.G.G.G.Q.Q.!.Q.Q.Q.Q.G.G.Q.G.G.S.G.G.Q.G.F.G.F.F.F.G.F.F.A.A.A.A.A.Z.A.A.A.A.Z.3.3.Z.Z.Z.Z.3.Z.3.4.3.3.1.1.1.1.2.2.2.2.,.<.,.<.<.<.R R R R R R R T I I I I P e e e 4 4 4 4 3 1 1 1 1 1 , , , 1 #               . . . . % q G  .$.%.%.+.X...O.O.O.O.O.O.....O.......O.O.........................O.........O.....O.O.O.....O.O.O.....O.....................O.O...O.O.....O.O...O...O.O.........O.O.......O.......O...................O.O.......O.O.O.O.O.......O.O.......O.....O...............O.......O.O...O.O...O.O.O.O.O.O.O.....O.O...O.O.........O.O.....O.O...O.O.O.O.O.O.O.O.O...O.O.O.O.O.......O.O.....O.O.O.O.O.....................O.O...........O.O.O.........",
"o X X o o o o o o o o o o o o o o o o o o o o o o o o o o o o o o o o o o o o o o o o o o o o o o o o o o o o o o o o o o o o o o o o o o o o o o o o o X o o X o o X X o o o o o o o o X X o o o o o o o o o o o o o o o o o o o o o o o o o o o o o o o o o o o o o o X o o o o o o o o o o o o o o o o o o o o o o o o o o o o o o o o o o o o o o o o o o o o o o o o o o o o o o o o o o o o X o o o o X o o o o o X X o o o o o o o o o o o o o o o o X o o o o o o o o o o o o o o o o o o o o o o o o o o o o o o o o o o o o o o o o o o o o o o o o o o o o o o o o o o o o o o o o o o o o o o o o o o o X o o o o o o o o o o o o o o o o o o o o o o o o o o o o o o o o o o o o o X X X o X X X X X o o X X X X X X X X o o o o X X X X X X X X X X o o o o o o o O O - m.N.N.m.N.N.m.,.>.E s s r r 3 3 - - # @ . .         . . - S.^.F.G.Q.G.Q.Q.Q.Q.F.Q.G.F.Q.Q.F.Q.Q.Q.G.Q.G.G.G.Q.G.G.G.G.G.Q.Q.G.G.G.F.F.G.Q.Q.Q.Q.Q.Q.Q.Q.Q.Q.G.F.Q.G.F.F.G.G.G.G.G.G.G.Q.G.G.G.G.Q.^.G.G.G.G.Q.G.Q.Q.!.G.G.Q.^.Q.Q.Q.Q.^.^.Q.Q.Q.^.Q.Q.Q.Q.G.Q.G.G.Q.!.Q.!.!.Q.Q.^.Q.Q.Q.Q.Q.^.Q.^./.^.Q.^.Q.Q.^.Q.^.Q.G.Q.Q.^.^.^.Q.Q.Q.Q.Q.Q.Q.G.Q.Q.^.Q.Q.Q.Q.Q.^.Q.Q.Q.Q.G.Q.Q.^.Q.Q.Q.G.G.Q.Q.^.^.Q.G.Q.Q.Q.^.Q.Q.Q.^.^.Q.^.^.^.^.Q.Q.G./.^.^.Q.^./.^.^.^./.^.G.Q.^.Q.Q.Q.Q.Q.^.^.^.Q.Q.G.Q.G.Q.Q.Q.Q.Q.Q.Q.Q.Q.Q.Q.Q.Q.Q.G.F.F.G.G.G.G.G.Q.Q.Q.G.G.G.G.G.G.G.G.Q.G.G.G.G.F.G.A.G.G.F.A.F.A.F.Z.F.A.F.A.A.Z.A.Z.Z.Z.Z.Z.3.4.Z.Z.3.Z.3.4.1.1.4.1.1.1.2.2.2.2.,.<.<.<.<.R R R R R R T T T I T I P e e e e 4 4 4 3 3 1 1 1 1 1 #                     . . . . # q G  .$.%.%.+.X.X.+.O.O.O.O.....X.X.X.O.O.........................................O.O.....O.O...O.....O.....................O.O...O.......O...........O.............O.......O...O.............O.....O...O.......O.......O...............O.O.......O.O...............O.O.................O...O.O.O.O.........O.O.................O.O.O.O.O.O.O.O.O.O.O.O...O.O.O.O.O.........O.O.O.O.O.O.O.O.O.O.O.O.O.O.O.O.............O.......O.O.O.O...",
"o o o o o o o o o o o o o o o o X o o o o o o o o o o o o o o o o o o o o o o o o o o o o X o o o o o o o o o o o o o o o o o o o o o o o o o o o o o o o o o o o o o o o o o o o o o o o o o o o o o o o o o o o o o o o o o o o o o o o o o o o o o o o o o o o o o o o o o o o o o o o o o o o o o o o o o o o o o o o o o o o o o o o o o o o o o o o o o o o o o o o o o o o o o o o o o o X X o o o o o o o o o X o o o X o o X X o o o o o o o o o o o o o o o o o o o o o o o o o o o o o o o o o o o o o o o o o o o o o o o o o o o o o o o o o o o o o o o o o o o o o o o o o o o o o o o o o o o o o o o o o o o o o o o o o o o o o o o o o o o o o o o o o o o X X o o o o o o X o o X X X X X X X X X X o X X X X X X X o o o X X X X X X X X o o o o o o o o o O . r (.^.S.S.S.S.S.A.Z.A.A.D.D.D.D.D.D.D.,.,.>.>.E T s e e r e G.G.F.G.Q.Q.Q.Q.Q.Q.F.G.!.G.F.G.G.Q.Q.Q.Q.G.F.G.F.Q.Q.G.F.G.Q.G.G.G.F.F.Q.G.F.G.G.Q.Q.G.Q.G.Q.Q.Q.Q.G.G.Q.Q.G.F.G.Q.G.G.G.G.G.Q.F.G.G.F.G.Q.Q./.Q.Q.Q.Q.!.Q.G.G.Q.Q.^.Q.G.Q.Q.Q.Q.G.G.^.^.^.Q.^.Q.Q.Q.G.F.F.G.F.G.Q.Q.Q.Q.Q.Q.Q.Q.^.Q.Q.Q.Q.Q.^.Q.G.Q.Q.G.Q.Q.Q.Q.Q.Q.Q.^.Q.Q.Q.Q.Q.Q.^././.^.Q.Q.Q.Q.Q.G.Q.^.Q.^.Q.Q.Q.Q.Q.Q.^.^.Q.Q.Q.!.Q.Q.!.^.^.Q.Q.^.Q.Q./.^.G.G.Q.^./.^.^.^.Q.Q.G.Q.^.^.^.^.Q.Q./.Q.G.Q.Q.Q.G.G.G.Q.Q.G.Q.Q.Q.Q.Q.Q.Q.Q.!.G.G.G.G.Q.Q.Q.Q.Q.G.G.Q.G.Q.Q.F.G.G.Q.Q.F.F.Q.G.G.Q.Q.G.G.G.G.A.F.G.G.F.F.F.G.G.G.A.A.A.Z.Z.Z.Z.F.F.A.A.Z.Z.F.F.Z.Z.Z.Z.3.Z.3.3.3.4.3.1.4.1.4.1.2.2.2.2.,.,.<.<.<.<.<.R R R R R R R T I I I I P I e e e e 4 4 3 4 1 3 #                         . . . . . # 5 G  .$.%.%.%.+.X.X.....O.......O.O.O.O.O.O...O.O.......O...........O.O.......O.O.O.......O.O.O.O.O.......O.O...O.....O.O.......O.O.O.O...........O.O.......O.O.O...O.O.................O.O.O...O.........O.O.O.....O.......O.............................O.O...........................O.............O.O.O.O.O.....O.......O.O.O.O.O.................O.O.O.O.O.O.O.O.O...........O.O.O.....O.O.O.O.O.O.O.O.O.O...........O.O.O.....",
"o o o o o o o o o o o o o o o o o o o o o o o o o o o o o o o o o o o o o o o o o o o o o o o o o o o o o o o o o o o o o o o o o o o o o o o o o o o o o o o o o o o o o o o o o o o o o o o o o o o o o o o o o o o o o o o o o o o o o o o o o o o o o o o o o o o o o o o o o o o o o o o o o o o o o o o o o o o o o o o o o o o o o o o o o o o o o o o o o o o o o o o o o o o o o o o o o X o o o o o o o o o o o o o o o o o o o o o o o o o o o o o o X o o o o o o o o o o o o o X o o o o o o o o o o o o o o o o o o o o o o o o o o o o o o o o o o o o o o o o o o o o o o o o o o o o o o o o o o o o o o o o o o o o o o o o o o o o o o o o o o o o o o o o o o o X o o o o X o o o X X o o o o o X X X X X X o X X X X X X X X o X X X X X o o X o o o X o o O o s (.^.^.Q.Q.Q.F.Q.F.A.Z.3.3.3.4.4.4.Z.4.4.D.Z.S.A.D.4.,.1.4.Z.F.F.G.Q.Q.Q.G.Q.Q.G.F.Q.Q.Q.G.Q.F.Q.Q.Q.Q.Q.G.G.G.^.G.Q.G.G.G.F.F.G.Q.F.Q.G.F.A.A.G.Q.Q.G.G.Q.Q.G.G.Q.G.Q.Q.G.F.F.G.Q.G.G.G.Q.Q.Q.Q.Q.Q.Q.G.Q.Q.Q.Q.Q.Q.G.G.A.F.G.Q.Q.Q.Q.Q.Q.Q.Q.Q.Q.Q.Q.Q.Q.Q.Q.Q.Q.Q.Q.Q.G.A.S.Q.Q.Q.Q.Q.Q.Q.Q.^.Q.Q.Q.^.Q.Q.Q.G.Q.Q.G.Q.Q.Q.Q.Q.G.Q.^.Q.Q.Q.Q.^.Q.^.^.^./.!.Q.Q.Q.Q.G.G.Q.Q.Q.Q.Q.Q.Q.Q.^.^.Q.^.Q.^.Q.G.!.Q.Q.^.^.^.^.Q.Q.G.Q.Q.S.Q.^.^./.^.^.^.Q.Q.Q.^.Q.Q.Q.Q.^.^.Q.Q.^.Q.G.G.Q.Q.Q.Q.Q.F.G.G.G.G.A.F.G.G.Q.G.G.Q.Q.Q.G.Q.Q.G.G.G.G.Q.Q.Q.Q.G.Q.F.G.Q.Q.Q.Q.G.G.G.G.Q.G.A.F.G.G.G.G.F.G.G.F.G.F.F.F.Z.Z.Z.F.A.A.A.A.F.F.Z.Z.Z.A.Z.3.Z.Z.Z.Z.4.4.4.1.4.3.1.1.1.2.2.2.2.2.2.,.<.<.W R R R R R R R R T I I I I I P e e e e 4 4 3 @                                   . . . # 5 G | #.%.%.%.X.....O.O.......O.O.O.O.O...O.O.............O...O...O.O.........O.O.O.....O...O.......O.O.O.O.O.O.O.O.O.O.......O.....O.....O.....O.O.......O.......O.O.O...............O.O...O...........O.O.......O.O.O.O.........O.O.....O.O.O.O...................O.O.....................O.......O.O.O.O.O.O...........................................O.O.O.O.O.O.O.........O...O...........O.O.O.........O.......O.O.....",
"o X o o o o X o o o o o o o o o o o o o o o o o o o o o o o o o o o o o o o o o o o o o o o o o o o o o o o o o o o o o o o o X o o o o o o o o o o o o o o o X o o o o o o o o o o o o o o o o o o o o o o o o o o o o o o o o o o o o o X o o o o o o o o o o o o o o o X o o o o o o o o o o o o o o o o o o o o o o o o o o o o o o o o o o o o o X o o o o o o o o o o o o o o o o o o o o o o o o o o o o o o o o o o o o o o o o o o o o o o o X o o o o o o o o o o o o o o o o o o X o o o o o o o o o o o o o o o o o o o o o o o o o o o o o o o o o o o o o o o o o o o o o o o o o o o o o o o o o o o o o o o o o o o o o o o o o o o o o o o o o o o o o o X X o o o o o o o X X o X X X X o o o o o X X X o o o o o X X X X X X X X X X X X X X X X X o o o o o O o s (.(.^.^.Q.Q.Q.Q.Q.Q.Q.Q.G.Q.Q.G.F.A.F.A.F.A.Z.F.A.3.4.4.4.Z.G.Q.G.G.G.G.!.Q.Q.Q.F.G.G.Q.Q.Q.F.A.G.G.Q.G.Q.Q.Q.Q.Q.G.Q.F.Q.Q.G.F.F.A.A.F.Q.F.A.A.G.G.G.Q.G.Q.G.Q.Q.G.G.G.Q.Q.G.G.G.Q.Q.Q.Q.Q.^.!.Q.Q.^.G.Q.Q.Q.Q.Q.G.Q.Q.G.A.G.G.G.Q.Q.Q.G.G.Q.G.Q.G.G.!.Q.G.G.Q.Q.Q.Q.Q.Q.Q.G.G.Q.^.Q.Q.Q.Q.Q.Q.^.^.^.^.^.Q.Q.G.Q.Q.G.G.Q.^.^.^.Q.Q.Q.Q.Q.Q.Q.Q.Q.Q.Q.^.Q.^.Q.G.Q.Q.Q.Q.Q.Q.Q.Q.Q.Q.Q.Q.Q.G.Q.^.^.Q.A.F.Q.Q.Q.Q./.^.Q.Q.Q.^.^.Q.Q.G.Q.Q.Q.Q.Q.^.^.^.Q.Q.!.Q.Q.Q.Q.Q.Q./.^.^.^.^.^.Q.Q.Q.Q.!.G.Q.G.G.G.G.G.Q.G.Q.G.Q.Q.G.G.G.Q.Q.G.Q.Q.G.Q.Q.Q.Q.G.G.S.Q.G.G.G.G.G.G.G.Q.G.G.G.G.G.G.G.F.F.F.G.G.G.F.G.G.F.F.A.F.A.A.A.G.F.Z.A.Z.F.A.Z.Z.Z.Z.Z.Z.3.3.4.3.3.1.1.1.1.2.2.2.2.2.2.2.2.,.<.<.<.<.R R R R R R R R T T T I I I P e e e @                                         . . . @ 5 H [ $.%.%.%.X.X.........O.O.O.......O.O...O.O...............O...................................O.O.O...O.O.....O.....O.O...................................................................O.....O.............O.O...O.....O.O.........O.O.O...O.O.O...............................O.......O.O.O.O.O.O.O.O...........O.O.....O.........O.O...........O.................O.O...............O.O.........O.O.O.O.O.O.....",
"o o o o o o o o o o o o o o o o o o o o o o o o o o o o o o o o o o o o o o o o o o o o o o o o o o o o o o o o o o X o o o o o o o o o o o o o o o o o o o o o o o o o o o o o o o o o o o o o o o o o o o o o o o o o o o o o o o o o o o o o o o o o o o o o o o o o o o o o o o o o o o o X o o o o o o o o o o o o o o o o o o X o o o o o o o o X o o o o o o o o o o o o o o o o o o o o o o o o o o o o o o o o o o o o o o o o o o o o o o o o X o o o o o o o o o o o o X o o o o o o o o o o o o o o o o o o o o o o o o o o o o o o o o o o o o o o o o o o o o o o o o o o o o o o o o o o o o o o o o o o o o o o o X o o o o o o o o o o o o o o o o o o o o o o o o o o o o o X X X o o X X o o X o X X X X X X o X X X X X X X X X X X X X o X X X X o X o o o O o s (.(.^.^.G.G.G.G.Q.G.G.G.G.G.G.Q.G.G.Q.Q.Q.G.F.F.F.G.G.G.F.G.G.F.Q.Q.S.F.Q.G.G.Q.Q.S.Q.Q.G.Q.Q.G.G.F.G.G.G.Q.Q.G.G.Q.Q.G.Q.^.Q.Q.Q.G.Q.F.G.Q.Q.Q.A.F.Q.G.G.G.Q.Q.Q.Q.G.Q.G.Q.Q.Q.G.F.G.G.G.G.Q.G.G.^.Q.Q.G.Q.Q.Q.F.F.A.Q.^.Q.G.Q.Q.G.Q.Q.^.Q.Q.G.Q.Q.G.G.Q.Q.G.Q.F.F.F.F.G.Q.Q.Q.Q.Q.^.G.A.G.G.G.G.Q.Q.Q.Q.Q.Q.Q.Q.Q.Q.^.Q.^.^.Q.Q.Q.Q.G.Q.^./.!.Q.G.G.Q.Q.^.Q.G.Q.Q.Q.^.Q.Q.^.Q.Q.G.^.^.Q.Q.G.G.Q.G.A.A.G.Q.^.Q.Q.Q.Q.Q.^.^.Q.^./.^.^.Q.Q.^.^.^.Q.Q.Q.Q.Q.Q.Q.Q.G.Q.G.Q./.Q.Q.Q.Q.Q.Q.Q.G.Q.Q.Q.Q.G.Q.!.Q.Q.Q.Q.Q.Q.Q.Q.G.G.Q.Q.Q.G.Q.G.G.Q.Q.Q.^.Q.A.G.Q.F.F.Q.Q.G.G.G.G.G.G.G.G.F.G.F.A.F.F.F.A.F.F.F.F.F.F.F.G.F.F.G.G.F.F.A.A.A.A.A.A.A.A.A.A.3.3.3.3.3.4.3.1.1.1.1.2.2.2.2.2.2.2.2.,.<.<.<.<.<.R R R R R R R R T T I I I s @                                           . . . . . @ 5 0 [ #.%.%.%.X.......O...O.O.O.......O.O.O.............................O.O.........O.O.....O.O.......O.....O.............O.....O.........................O.............................O.O...............O.......O.O.O.....................O.O.....O.......................................O.O.O.O.O.O.............O.......O.O...........................O.O.O.O.O.O.O.....O.O.O.O.O.O...........................",
"o X o o o o o o o o o o o o o o o o o o o o o o o o o o o o o o o o o o o o o o o o o o o o o o o o o o o o o o o o o o o o o o o o o o o o o o o o o o o o o o o o o o o o o o o o o o o o o o o o o o o o o o o o o o o o o o o o o o o o o o o o o o o X o o o o o o o o o o o o o o o o o o o o o o o o o o o o o o o o o o o o o o o o o o o o o X o o o o o o o o o o o o o o o o o o o o o X X o o o o o o o o o o o o o o o o o o o o o o o o o o o o o o o o o o o o o o o o o o o o o o o o o o o o o o o o o o o o o o o o o o o X X o o o o o o o o o o o o o o o o o o o o o o o o o o o o o o o o o o o X o o o o o o o o o o o o o o o o o o o o o o o o o X o o o o o o o o o X X o o o o o o o o X o o X X X o o X X o X X X X X X X o X X o o X X X X X X o o O . T (.(.Q.Q.G.F.G.Q.G.F.F.G.F.G.F.G.G.Q.G.G.Q.G.G.F.F.G.G.F.G.F.G.G.Q.Q.Q.G.G.Q.Q.Q.G.G.F.F.Q.F.Q.Q.G.Q.F.G.G.G.G.Q.Q.Q.Q.Q.Q.Q.Q.G.Q.Q.Q.G.G.A.G.Q.Q.G.Q.Q.Q.G.Q.Q.Q.G.G.Q.Q.Q.Q.G.Q.Q.G.F.G.F.F.F.F.Q.Q.Q.Q.G.F.Q.Q.Q.G.G.Q.Q.Q.Q.Q.Q.F.Q.Q.Q.Q.Q.Q.Q.Q.G.Q.^.G.Q.Q.Q.G.A.Q.Q.Q.Q.^.Q.Q.Q.F.Q.Q.G.Q.Q.Q.^.Q.Q.Q.G.Q./.^.Q.^.^.^.^.^.^.Q.Q.G.S.G.^.Q.G.Q.Q.Q.^.Q.G.G.Q.Q.Q.^.^.^.Q.Q.^.^./.^.^.Q.Q.Q.^.Q.G.Q.^.^.Q.Q.G.G.Q.Q.Q.Q.Q.Q.^.Q./.^.Q././.^.^.Q.^.^.^.^.^.Q.Q.Q.G.^.^.Q.Q.Q.Q.Q.Q.Q.G.Q.Q.G.Q.Q.!.!.G.Q.Q.G.Q.Q.Q.Q.Q.G.Q.Q.G.Q.G.Q.Q.G.G.Q.Q.G.S.Q.Q.Q.Q.Q.Q.G.G.G.G.G.G.A.A.A.F.F.F.G.G.G.F.F.F.G.A.F.F.F.F.F.F.F.G.G.G.F.A.A.A.F.F.F.A.Z.Z.Z.3.3.Z.3.3.3.3.3.3.4.1.1.1.2.2.2.2.2.2.2.2.2.,.<.<.<.R R R R R R R R T T s @                                                   . . . . @ 5 q [ #.$.%.+.X.....O.O.O.....O.......O.O.O.O.............O.O...........O.O.....O.O.............O...O.O.O...........................................O.O.O.O.O.............O...O.O.O.....O.........O...O.O.O.O...O.........O.............O.O.O.O.O.O.O...O.O.O...O.O.O.O.......O...O.O.O.O.........O...O.O.O...O.O.O.....O.O.O.O...............O.O.O.O.O.................O.O...O...................O.O.O.....",
"o X o o o o o o o o o o o o o o o o o o o o o o o o o o o o o o o o o o o o o o o o o o o o o o o o o o o o o o o o o o o o o o o o o o o o o o o o o o o o o o o o o o o o o o o o o o o o o o o o o o o o o o o o o o o o o o o o o o o o o o o o o o o o o o o o o o o o o o o o o o o o o o o o o o o o o o o o o o o o o o o o o o o o o o o o o o o o o o o o o o o o o o o o o o o o o o o o X X o o o o o o o o o o o o o o o o o o o o o o o o o o o o o o o o o o o o o o o o o o o o o o o o o o o o o o X o o o o o o o o o o o o o o o o o o o o o o o o o o o o o o o o o o o o o o o o o o o o o o o o o o o o o o o o o o o o o o o o o o o o o o o o o o o o o o o o o o o o X o o o o o o X o o X o o o X X X o o o o X X X X X X X o o o X X X X X X X o o o O @ E (./.Q.Q.Q.Q.G.F.G.G.G.F.G.Q.Q.Q.G.G.G.G.G.G.G.G.F.G.G.G.F.G.Q.Q.Q.Q.G.G.G.Q.G.Q.G.G.Q.F.Q.F.G.F.G.F.G.G.Q.Q.Q.G.G.Q.Q.G.Q.^.Q.Q.Q.Q.G.Q.Q.F.F.Q.Q.Q.Q.Q.Q.Q.Q.Q.G.Q.Q.Q.Q.Q.Q.Q.F.G.Q.Q.G.G.Q.G.G.Q.Q.G.Q.Q.G.Q.Q.Q.G.F.F.G.Q.Q.Q.Q.G.Q.Q.Q.Q.Q.Q.^.^.Q.G.Q.Q.!.Q.^./.Q.Q.Q.Q.Q.Q.Q.Q.Q.Q.Q.Q.G.Q.Q.Q.Q.G.Q.Q.G.G.Q.Q.Q.Q.G.Q.Q.Q.^.Q.Q.Q.G.Q.Q.Q.Q.^.Q.^.Q.Q.Q.Q.Q.Q.Q.Q.Q.^.^././.^.Q.Q./.^.^.Q.Q.Q.G.Q.^.^.^.^./.^.^./.Q.Q.Q.Q././.^./.Q.Q.^.Q.Q.^.^.^.^.^.^.^.^./.Q.Q.^.^.Q.^.^.^.^.^.Q.G.Q.Q.G.Q.G.Q.Q.Q.G.Q.^.Q.Q.Q.Q.Q.Q.Q.Q.Q.Q.Q.^.Q.Q.Q.Q.^.Q.Q.Q.Q.Q.Q.^.Q.Q.Q.Q.Q.Q.Q.Q.Q.!.G.G.G.G.G.Q.Q.!.G.Q.!.S.A.G.G.F.G.G.G.G.G.G.F.F.A.F.A.F.Z.Z.Z.A.A.Z.Z.Z.3.Z.3.3.3.3.4.4.3.3.1.1.2.2.2.2.2.2.,.,.<.<.,.<.R R R R R R R I @                                                               . . % q G #.%.%.%.X.X...O.O.O.O.O.O.O.O.O.O.O...O.........O...............O.................................O...................O.O.O...........................................O.....O.........................O...................O.....O.O...O.O.O.O.O.O.O.O.O.O.O.O.......O.O...........O.O...........O.O.O.O.O.O.O.O.O.O...O.O.O.O...........O.O.O.O.........O.O.O.O...O.O.........O.O.O...O.O.O.O...",
"o o o o o o o o o o o o o o o o o o o o o o o o o o o o o o o o o o o o o o o o o o o o o o o o o o o o o o o o o o o o o o o o o o o o o o o o o o o o o o o o o o o o o o o o o o o o o o o o o o o o o o o o o o o X X o o o o o o o o o o o o o o o o o o o o o o o o o o o o o o o o o o o o o o o o o o o o o o o o o o o o o o o o o o o o o o o o o o o o o o o o o o o o o o o o o o o o o X o o o o o o o o o o o o o o o o o o o o o o o o o o o o o o o o o o o o o o o o o o o o o o o o o o o o o o o o o o o o o o o o o o o o o o X o o o o o o o o o o o o o o o o o o o o o o o o o o o o o o o o o o o o o o o o o o o o o o o o o o o o o o o o X X o o o o o o o o o o o X X o X X X o X o o X X o o X X X o o o o o o o o X X X X X X X X X X X X X X X X o @ E (.^.Q.G.Q.G.G.G.Q.G.G.G.A.A.G.Q.F.G.G.G.G.G.F.F.A.G.Q.G.G.Q.Q.G.!.^.Q.G.G.Q.G.Q.Q.G.Q.G.Q.Q.Q.G.Q.Q.F.F.G.G.F.F.F.F.F.F.S.Q.Q.G.F.G.F.Q.Q.G.Q.G.G.F.Q.G.G.Q.Q.Q.Q.Q.Q.Q.Q.Q.G.Q.^.G.S.G.Q.!.G.G.Q.Q.Q.Q.Q.Q.Q.Q.G.Q.!.Q.Q.G.Q.G.Q.Q.Q.Q.Q.Q.Q.Q.Q.G.Q.Q.G.G.Q.Q.Q.Q.Q.G.G.Q.Q.Q.Q.Q.Q.Q.G.Q.Q.Q.Q.Q.Q.Q.G.S.G.G.G.Q.Q.Q.G.G.Q.Q.Q.Q.^.Q.Q.Q.Q.Q.^.Q.^.Q.^.Q.Q.^.!.G.G.G.Q.G.G.Q.Q.Q.^.^.Q.^.Q.Q.Q.F.Q.Q.G.^.^.Q.Q.Q.Q.Q.Q.Q.Q.Q./.^.^.^.^.^.G.Q.Q.Q.Q.Q.Q.Q.^.Q.Q.Q.^.Q.Q.Q.Q.G.^.^./.^.Q./.Q.Q.Q.Q.Q.^.Q.Q.Q.Q.Q.Q.Q.G.G.G.Q.^.^.Q.^.^.Q.^.^.Q.Q.Q.Q.G.G.Q.Q.G.G.G.Q.^.Q.Q.Q.Q.^.Q.G.G.G.G.S.F.F.Q.F.G.Q.G.Q.G.G.F.G.G.G.G.G.G.A.A.A.F.A.A.F.F.F.H.Z.A.A.Z.A.Z.Z.Z.Z.Z.3.3.Z.4.3.3.4.1.2.3.1.2.2.2.2.2.2.2.2.,.<.<.<.R R R R I .                                                                       . % q [ #.%.%.%.+.O.O.....O...O.O.O.O...............................O.O.O.......O.........................O...............O.O...O.......................................O.O.....O.O.................O.......O.O.....O...O...O.O...O.O.O.O.O.O.O.....O.O.O.O.O.O.......O...........O.O...................................O.....................O...O.O.............O.O.O...........O.O.O...........",
"o o o X X o o o o o o o o o o o o o o o o o o o o o o o o o o o o o o o o o o o o o o o o o o o o o o o o o o o o o o o o o o o o o o o o o o o o o o o o o o o o o o o o o o o o o o o o o o o o o o o o o o o o o o o o o o o o o o o o o o o o o o o o o o o X X o o o o o o o o o o X o o X o o o o o o o o o o o o o o o o o o o o o o o o o o o o o o o o o o o o o o o o o o o o o o o o o X X o o o o o o o o o o o o o o o o o o o o o o o o o o o o o o o o o o o o o o o o o o o o o o o o o o o o o o o o o o o o o o o o o o o o o o X o o o o o o o o o o o o o o o o o o o o o o o o o o o o o o o o o o o o o o o o o o o o o o o o o o o o o o o o o o X X o o o o o o X X X X X X X X X o o o X o o X X X o o o o o X X X X X X X o X X o X X X X X X X X X X X . E ^.S.Q.Q.Q.G.G.F.Q.Q.F.Q.G.F.F.F.F.Q.Q.Q.G.F.F.F.F.F.Q.G.G.F.G.G.Q.Q.Q.Q.F.Q.Q.Q.Q.Q.G.G.G.F.G.G.G.Q.Q.G.G.Q.Q.G.Q.Q.F.Q.Q.G.Q.Q.Q.Q.Q.G.F.F.Q.G.F.Q.Q.F.G.G.G.G.G.G.F.A.F.Q.Q.G.Q.Q.^.Q.G.Q.Q.G.G.G.G.Q.G.Q.^.Q.Q.Q.Q.Q.Q.Q.Q.Q.G.Q.Q.Q.Q.G.G.F.G.Q.G.G.G.G.F.Q.Q.Q.Q.G.G.Q.^.Q.Q.Q.^.Q.Q.Q.^.^.Q.Q.Q.Q.Q.Q.Q.^.Q.Q.^.^.Q.Q.^.Q.Q.Q.Q.Q.G.Q.Q.Q.Q.Q.^./.^.^.^.^.Q.^.^.G.Q.Q.Q.G.Q.Q.^.^.Q.^.Q.Q.^.Q.^.Q.Q.Q.Q.Q.G.G.Q.G.Q.Q.Q.Q.Q.Q.^.^.Q.^.Q.Q.^.^././.^.^./.^.Q.Q./.^.Q.Q.Q.^.Q.Q.Q.^.^.^.Q.G.^.Q.Q.Q.G.Q.Q.Q.G.Q.Q.Q.Q.Q.G.Q.Q.Q.^.^.Q.Q.Q.Q.Q.Q.^.Q.G.G.Q.Q.G.Q.G.G.Q.Q.^.G.Q.Q.G.Q.G.G.Q.G.G.Q.Q.Q.Q.Q.Q.Q.G.F.Q.Q.G.G.F.F.G.F.F.G.G.F.Z.A.Z.F.F.F.F.F.Z.Z.F.Z.Z.3.Z.Z.Z.3.Z.Z.Z.3.1.1.3.3.3.2.2.2.2.2.2.2.2.<.<.<.<.<.<.s .                                                                             . % q '  .$.%.%.X.X.O...O.O...O.O.O.O.O.O.......................O.O...................................O.O.....O.......O...O.............................................O.O.O.........O.O.O.....O.O...........O.O.O.O...O.........O.....O.........O.O.O.O.....O...O.....O.......O.O...O...........................O.O.........O...O.O.O.O...O.O.O.O.......O.O.O.O.O.....O.......O.O.O.O.....",
"o o X o o o o o o o o o o o o o o o o o o o o o o o o o o o o o o o o o o o o o o o o o o o o o o o o o o o o o o o o o o o o o o o o o o o o o o o X o o o o o o o o o o o o o o o o o o o o o o o o o o o o o o o o o o o o o o o o o o o o o o o o o o o o o X X o o o o o o o o o o o o o o o o X o o o o o o o o o o o o o o o o o o o o o o o o o o o o o o o o o o o o o o o o o o o o o o o o X o o o o o o o o o o o o o o o o o o o o o o o o o o o o o o o o o o o o o o o o o o o o o o o o o o o o o o o o o o o o o o o o o o o o o o o o o o o o o o o o o o o o X o o o o o o o o o o o o o o o o o o o o o o o o o o o o o X o o o o o o o o o o o o o X X X X o o o o X X X X X X X X X X o X o o X X X X o o X X o X X X X X X X X o X o X X X X X     X X X . # m./.S.G.G.Q.Q.G.F.G.G.G.G.Q.Q.Q.G.Q.Q.Q.Q.F.Q.F.G.G.F.F.F.F.Q.Q.G.G.G.F.F.G.G.G.F.G.G.Q.G.G.Q.Q.G.G.Q.Q.Q.Q.Q.G.G.G.Q.G.F.Q.Q.G.F.F.Q.F.G.Q.Q.G.F.F.G.Q.G.G.G.Q.G.S.F.G.G.A.F.Q.Q.G.Q.Q.G.G.G.Q.Q.G.Q.G.Q.Q.Q.Q.G.Q.^.Q.Q.G.G.G.G.!.Q.G.Q.Q.Q.G.G.G.G.Q.Q.Q.Q.Q.Q.Q.Q.G.Q.Q.S.G.Q.Q.Q.Q.Q.F.Q.^.Q.Q.G.^./././.^.Q.^.Q.Q.Q.^.Q.Q./.^.^.Q.Q.^.Q.Q.Q.Q.Q.Q.Q.^.Q.Q.Q.Q.Q.Q.Q.Q.Q.G.Q.Q.Q.^.Q.^.Q.Q.^.^././.^.Q.Q.^.G.Q.G.G.G.Q.Q.Q.Q.Q.^.Q.^.^.Q.^.G.Q.^.^.Q.^./.Q.^.Q.Q.Q.Q.Q.Q.Q.G.Q.G.Q.Q.Q.Q.^.Q.Q.Q.Q.Q.G.G.G.Q.^.Q.Q.Q.Q.Q.^.Q.Q.^.^.^.^.^.Q.Q.Q.Q.Q.^.^.Q.Q.Q.G.G.F.A.G.Q.Q.Q.G.G.G.G.S.G.G.G.G.Q.!.G.G.Q.G.G.G.G.G.G.Q.F.F.F.G.G.G.F.F.G.G.G.F.F.A.Z.Z.Z.F.A.Z.A.Z.Z.Z.Z.Z.A.Z.Z.Z.Z.Z.3.Z.3.4.4.1.4.1.2.2.2.2.2.<.<.,.<.,.s .                                                                                   . % q G  .$.%.%.@.X.X.O.O.O.O.O.O.O.O.....O.....................................................O.O.O.O.O.O.O...............................................O.......................O.......O.O...............O.............................................O.O.O.O.O.O...O.O.O.O.O.......O.........................................O.O.O.O.O.O.....O...O.O.........................O.",
"o o o o o o o o o o o o o o o o o o o o o o o o o o o o o o o o o o o o o o o o o o o o o o o o o o o o o o o o o o o o o o o o o o o o o o o o o o o o o o o o o o o o o o o o o o o o o o o o o o o o o o o o o o o o o o o o o o o o o o o o o o o o o o o o X o o o o o o o o o o o o o o o o o o o o o o o o o o o o o o o o o o o o o o o o o o o o o o o o o o o o o o o o o o o o o o o o o o o o o o o o o o o o o o o o o o o o o o o o o o o o o o o o o o o o o o o o o o o o o o o o o o o o o o o o o o o o o o o o o o o o o o o o o o o o o o o o o o o o o o o o o o o o o o o o o o o o o o o o o o o o o o o o o o o o o o o o o o o o o o X o o X X X X o X X o o X X X X X X X X X X X X X o X X X X o o o X X X o o o X X X X X X X X X X X X X   X X X X X - D.^.Q.Q.Q.Q.Q.G.A.F.G.F.F.Q.Q.G.F.G.Q.Q.G.Q.Q.Q.G.G.A.F.G.F.F.Q.Q.A.A.F.F.F.G.Q.Q.G.G.G.Q.Q.Q.Q.G.F.Q.Q.Q.G.F.F.G.G.G.Q.G.A.F.G.Q.G.A.G.F.Q.Q.G.G.Q.G.Q.Q.Q.Q.Q.G.Q.G.F.Q.G.Q.Q.Q.Q.Q.Q.Q.Q.G.Q.Q.Q.Q.Q.Q.G.Q.Q.Q.Q.Q.Q.Q.G.Q.!.Q.!.Q.G.Q.Q.Q.Q.G.Q.Q.Q.^.G.G.Q.Q.Q.Q.Q.G.Q.Q.G.Q.^.G.G.Q.Q.Q.!.^.Q.^.Q.Q.G.^.Q.G.Q.Q.Q.Q.Q.Q.^./.^.^.Q.^.Q.Q.Q.Q.Q.G.Q.^.Q.Q.S.G.Q.Q.^.Q.Q.Q.^.Q.^.Q.^.Q.Q.Q.^././.^.^./.Q.Q./.^.Q.Q.G.Q.^.Q.^.Q.Q.^.Q.Q.^.Q.Q.Q.F.Q.Q.Q.^.Q.G.Q.G.Q.Q.G.^.Q.G.G.G.Q.G.Q.Q.Q./.^.Q.^././.^.Q.Q.Q.^.^././././.Q./.Q.Q.Q.Q.Q.Q.Q.Q.Q.Q.Q.Q.^.Q.Q.G.G.Q.^.Q.Q.G.Q.^.Q.G.Q.F.Q.Q.Q.G.G.Q.Q.Q.Q.Q.G.G.G.G.G.G.F.G.G.F.F.F.F.F.G.G.G.F.F.G.F.A.A.A.F.F.A.A.Z.A.F.F.F.A.F.Z.A.Z.Z.Z.Z.3.3.4.4.3.4.4.1.1.1.2.2.2.2.,.,.s .                                                                                     . . . # 5 G | $.%.%.+.+.+.+.O.O.O.O.O.....O.O.O...............O.O.......................O.........O.O.O.O.O.O.....................................O.O.O.O.O.O...O.......O.O...........O...O.O.......................O.............................................O.O...O.O.O.O.O...O.O.O.....O.O.O.O.O.O.O.....O.O.O...O.O...O.O.O.O...O.O.O.O.O.O.O.O.O.....O.....................",
"X X o o o o o o o o o o o o o o o o o o o o o o o o o o o o o o o o o o o o o o o o o o o o o o o o o o o o o o o o o o o o o o o o o o o o o o o o o o o o o o o o o o o o o o o o o o o o o o o o o o o o o o o o o o o o o o o o o o o o o o o o o o o o o o o o o o o o o o o o o o o o o o o o o o o o o o o o o o o o o o X o o o o o o o o o o o o o o o o o o o o o o o o o o o o o o o o o o o o o o o o o o o o o o o o o o o o o o o o o o o o o o o o o o o o o o o o o o o o o o o o o o o o o o o o o o o o o o o o o o o o o o o o o o o o o X o o o o o o o o o o o o o o o o o o o o o o o o o o o o o o o o o o o o o o o o o o o o o o o o o o X X X o o X o o o o X X X X o o X X X X o o X o o o X X X o o X X X o o X X X X X X X X X X X X X X X X X X X . # ,.^.Q.Q.Q.G.G.G.G.G.Q.G.F.G.Q.Q.G.F.G.Q.Q.Q.Q.Q.G.F.G.G.G.Q.G.Q.Q.Q.Q.Q.Q.Q.Q.Q.Q.G.F.Q.Q.Q.Q.Q.F.G.F.G.F.F.F.G.G.G.Q.G.G.Q.F.G.Q.^.Q.G.G.G.Q.Q.Q.Q.Q.Q.G.G.F.G.Q.Q.F.G.Q.F.F.G.G.G.F.!.Q.Q.G.G.Q.^.Q.F.G.Q.Q.Q.Q.Q.G.F.Q.Q.G.F.Q.G.Q.Q.G.Q.^.^.^.Q.Q.Q.Q.Q.Q.Q.Q.Q.Q.Q.Q.Q.Q./.Q.G.Q.^.^.G.Q.Q./.Q.^.^.Q.Q.^.^.^.Q.Q.Q.Q.Q.Q.Q.^.^.^./.^.^.^.Q.Q.Q.Q.Q.^.Q.Q.^.Q.Q.^.Q.^.^.Q.^.Q.^.Q.^.^.G.G.Q.^.^.^.^.Q.Q.Q.Q.^.Q.^.Q.G.^.^.Q.G.G.Q.Q.Q.Q.Q.Q.^./.Q.Q.^.Q.Q.^.Q.Q.Q.Q.^.^.^././.Q.^.^.^.Q.^.^.^.G.Q.Q.Q.^.Q.Q.G.G.Q.Q.Q.Q.Q.^.^.^.^.^.^.G.Q.Q.Q.G.Q.Q.Q.^.^.Q.!.G.Q.Q.Q.^.Q.^.Q.G.G.G.Q.G.Q.Q.Q.Q.Q.Q.G.Q.Q.G.Q.G.Q.Q.Q.Q.G.G.F.G.F.A.G.G.F.F.G.F.F.F.F.G.F.A.A.F.Z.F.A.Z.A.F.F.F.F.F.F.F.Z.Z.Z.Z.3.3.3.3.3.4.1.2.2.1.2.1.2.,.s .                                                                                   .   . . . . . # 5 H [ $.%.%.@.X.X...O.O.O...O.O.O.O.O...............O.O.O.................O...................O.................................................O...O.O.....O.O.O.......................O.O.O.O.......O.O.........O...........O...........................O.O.O.O...................O.O.....O.........O.O.O.O.O.O.............O...O.O.O.O.O.....O.O.O.O.......O.O.....",
"o X o o o o o o o o o o o o o o o o o o o o o o o o o o o o o o o o o o o o o o o o o o o o o o o o o o o o o o o o o o o o o o o o o o o o o o o o o o o o o o o o o o o o o o o o o o o o o o o o o o o o o o o o o o o o o o o o o o o o o o o o o o o o o o o o X o o o o o o o o o o o o o o o o o o o o o o o o o o o o o o o o o o o o o o o o o o o o o o o o o o o o o o o o o o o o o o o o o o o o o o o o o o o o o o o o o o o o o o o o o o o o o o o o o o o o o o o o o o o o o o o o o o o o o o o o o o o o o o o o o o o o o o o o o o o o o o o o o o o o o o o o o o o o o o o o o o o o o o o o o X o o o o o o o o o o o o o o o o o o X X X X o o o X o o o o X o o o X X o o o o o o X o o o X X X o o X X X X X o X X o o o X X X X X X X X X       X . - D.^.Q.F.F.G.F.F.F.Q.Q.!.G.F.A.Q.G.F.G.A.F.Q.Q.Q.Q.Q.G.G.Q.G.F.G.Q.G.F.G.G.G.Q.Q.G.G.A.G.Q.G.Q.Q.G.F.F.F.G.F.F.F.G.F.G.G.Q.Q.G.G.F.Q.Q.G.G.G.Q.Q.Q.Q.Q.Q.^.Q.Q.Q.Q.Q.F.Q.^.F.F.Q.Q.Q.Q.F.Q.Q.Q.G.F.Q.Q.G.A.F.Q.G.G.F.G.Q.Q.Q.^.Q.Q.Q.G.Q.Q.G.G.Q.Q.Q.Q.Q.Q.Q.F.^.Q.^.Q.Q.S.Q.Q.Q.Q.G.Q.^.Q.Q.G.Q.Q.Q.Q.^.G.Q.Q.G.Q.Q.Q.^.^.Q.Q.Q.Q.^.Q.^.Q.Q./.^.^.Q.^.^.Q.Q.Q.Q.Q.G.^.Q.Q.^.Q.Q.G.Q.Q.Q.^.^.Q.Q.Q.Q.^.Q.Q.Q.^.^.Q.Q.Q.Q.Q.^.^./.^././.Q.Q.Q.Q.^.Q.^.Q.Q.^.^.Q.^.^.^./.Q.Q.Q.^./././.^./.^.Q.Q.^.^.Q.Q.G.G.Q.G.Q.Q.G.Q.Q.Q.Q.Q.^.^.^./.^.^.Q.Q.Q.^.^.Q.^.^.^.^.^.^.Q.G.Q.^.^.Q.Q.Q.G.Q.G.Q.^.Q.^.^.Q.Q.Q.Q.Q.Q.Q.G.Q.G.G.G.Q.Q.G.G.G.G.G.F.G.G.G.G.G.G.G.G.G.F.F.F.F.F.A.A.A.F.F.F.F.G.G.F.F.F.Z.Z.Z.3.3.Z.3.3.3.3.3.1.1.1.1.1.1.s .                                                                                             . . . . . @ 5 G | $.%.%.+.+.O.O...O...O.O.O.O.O.......................................................................................................................................O...............O.O.O...................O.O.........O.O.O.........O.....O...O.O.O.O.O.....O.O.O...............................................O...........O.O.....O.O...O.O...O.......",
"o o o X o o o o o o o o o o o o o o o o o o o o o o o o o o o o o o o o o o o o o o o o o o o o o o o o o o o o o o o o o o o o o o o o o o o o o o o o o o o o o o o o o o o o o o o o o o o o o o o o o o o o o o o o o o o o o o o o o o o o o o o o o o o o o o X o o o o o o o o o o o o o o o o o o o o o o o o o o o o o o o o o o o o o o o o o o o o o o o o o o o o o o o o o o o o o o o o o o o o o o o o o o o o o o o o o o o o o o o o o o o o o o o o o o o o o o o o o o o o o o o o o o o o o o o o o o o o o o o o o o o o o o o o o o o o o o o o o o o o o o o o o o o o o o o o o o o o o o o o o o o o o o o o o o o o o o o o o o o o X o o o o o o o o o X X X o o o o X o o X o o o o o o o o X X o o X o o X o o X X o X X X X X X X X X X X X X     . 1 S.Q.Q.Q.G.G.F.F.F.F.Q.Q.G.G.F.G.Q.G.Q.G.F.A.Q.Q.Q.Q.Q.G.Q.G.F.F.G.G.G.F.F.F.G.G.G.Q.G.A.F.Q.Q.!.G.Q.F.F.F.Q.G.G.G.G.Q.G.A.G.!.G.G.F.Q.^.G.Q.Q.Q.G.Q.G.G.!.Q.Q.Q.Q.G.G.G.Q.Q.F.G.Q.Q.Q.Q.G.Q.!.Q.Q.G.Q.Q.Q.G.Q.Q.G.Q.G.Q.Q.G.Q.^.Q.Q.Q.G.G.Q.Q.Q.Q.Q.G.G.Q.Q.Q.^.^./.Q.Q.Q.Q.Q.Q.Q.Q.G./.^.^.Q.^.^.Q.Q.Q.Q.Q.Q.S.G.Q.G.Q.^./.^.^.^.^./.^.Q.Q.Q.Q.G.Q.Q.^.Q.G.^.Q.Q.Q.G.Q.Q.Q.Q.Q.Q.Q.Q.Q.Q.Q.^.^.Q.Q.Q.Q.Q.Q.Q.Q.G.Q.Q.^.^.^./.^././.^.^.^.^./.^.Q.Q.Q.Q.^.^.^.Q.Q.G.G.Q.Q.G.G.Q.Q.Q.^.Q.Q.Q.Q.Q.^.^.Q.Q.Q.^.Q.Q.^.Q.Q.Q.^.^.Q.Q.^.Q.Q.^.^.^.^./.^.^.^.Q.Q.^.^.^.^.Q.Q.Q.Q.^.Q.Q.Q.Q.Q.Q.Q.Q.^.G.Q.Q.Q.Q.^.Q.Q.Q.G.G.Q.Q.G.Q.Q.Q.!.G.Q.G.G.G.G.G.G.F.F.G.Q.G.G.F.F.G.G.G.F.F.F.F.F.F.F.G.F.F.F.F.Z.Z.Z.Z.Z.Z.Z.3.3.3.3.3.4.3.1.D.s .                                                                                                 .     . . . # 5 H | #.%.%.%.+.....O.O.O.O.O.O.O...................O...................................................................O.....O.O.O.O...O.....O.................O.....O.O.O.O.....O.O...................O.....O...O.O.O.O.O.O.......O.O...O.O.O.O.O.O.O.O.O.O.......O...........O.....O...............O.O.O.......O.O.O.O.O.O.O.O.O.O.O.O.O...O.O.O.......",
"o o o o o X o o o o o o o o o o o o o o o o o o o o o o o o o o o o o o o o o o o o o o o o o o o o o o o o o o o o o o o o o o o o o o o o o o o o o o o o o o o o o o o o o o o o o o o o o o o o o o o o o o o o o o o o o o o o o o o o o o o o o o o o o o o o o o o o o o o o o o o o o o o o o o o o o o o o o o o o o o o o o o o o o o o o o o o o o o o o o o o o o o o o o o o o o o o o o o o o o o X o o o o o o o o o o o o o o o o o o o o o o o o o o o o o o o o o o o o o o o o o o o o o o o o o o o o o o o o o o o o o o o o o o o o o o o o o o o o o o o o o o o o o o o o o o o o o o o o o o o o o o o o o o o o o X o o o o o o o o o X X o o o o X o o X o o o o o o X o X X o o X X X o o o o o o X X X o X X X X X X X X X X X X X X X X X X X   X   3 ^.G.G.G.Q.G.G.F.F.A.G.Q.Q.G.G.G.Q.Q.Q.!.Q.G.G.Q.Q.Q.Q.Q.G.G.G.G.G.F.F.F.G.F.G.Q.Q.Q.Q.G.F.G.F.G.Q.Q.G.F.F.G.Q.G.F.F.G.^.Q.F.G.G.F.F.Q.Q.Q.G.G.Q.G.G.G.G.G.G.Q.Q.Q.Q.Q.Q.Q.Q.Q.Q.G.G.Q.Q.G.G.G.Q.Q.Q.Q.Q.Q.Q.Q.Q.Q.G.G.G.G.G.F.F.A.G.G.G.G.G.Q.Q.G.Q.Q.Q.Q.G.Q.Q.Q.Q.^.Q.Q.^.Q.Q.^.Q.G.Q.^.Q.^.Q.^././.^.Q.Q.Q.G.Q.Q.G.Q.^.Q.^.^./.^.^.Q.Q.Q.Q.G.G.G.Q.^.^.Q.Q.Q.Q.Q.Q.Q.Q.Q.Q.Q.Q.Q.Q.Q.^./.Q.Q.^.Q.Q.Q.Q.Q.Q.Q.G.S.G.Q.Q.Q.Q.Q.^.^.^.^.^.Q.Q.Q./.Q.Q.Q.Q.Q.^.Q.G.Q.Q.Q.Q.Q.G.S.F.G.Q.Q.Q.Q.Q.Q.Q.Q.Q.Q.Q.^.^.^.^.^.^.^./.^.^.G.Q.Q.Q.Q.Q.Q.Q.Q.Q.G.Q.^.Q.Q.Q.Q.^.Q.Q.Q.G.G.Q.G.Q.Q.^.^.G.G.G.G.Q.Q.Q.Q.Q.Q.G.G.G.G.G.G.Q.Q.Q.Q.^.Q.Q.G.G.F.F.G.G.G.G.G.G.F.G.G.G.F.G.G.G.F.F.F.F.A.F.F.F.F.A.F.Z.Z.Z.Z.Z.Z.Z.Z.3.3.Z.Z.Z.Z.Z.D.s .                                                                                                           .     . @ 5 G | $.%.%.%.X.X.....O.................O.............................................................................O.O.O.O.....O.....O.................O.......O.....O.O...................................O.................O.............O.O...O.O.O.....O.O...O.O.O.O.O.....O.O.O.O.O.........O.O.O.O.....O...O.O.O.O.....O.....O...O.O.O.....",
"o o o o o o o o o o o o o o o o o o o o o o o o o o o o o o o o o o o o o o o o o o o o o o o o o o o o o o o o o o o o o o o o o o o o o o o o o o o o o o o o o o o o o o o o o o o o o o o o o o o o o o o o o o o o o o o o o o o o o o o o o o o o o o o o o o o o X o o o o o o o o o o o o o o o o o o o o o o o o o o o o o o o o o o o o o o o o o o o o o o o o o o o o o o o o o o o o o o o o o o o o o o o o o o X o o o o o o o o o o o o o o o o o o o o o o o o o o o o o o o o o o o o o o o o o o o o o o o o o o o o o o o o o o o o o o o o o o o o o o o o o o o o o o o o o o o o o o o o o o o o o o o o o o o o o o X X X X X o o X o o o o o X o o o o X X X X X X o o o o o o o o o o X X o o o o X X X X X X X X X X X X X X X X X X X X X X X     X   r ^.G.G.F.G.G.Q.F.Q.F.F.F.G.Q.G.G.G.Q.A.Q.Q.Q.F.G.G.G.G.G.G.G.G.Q.G.G.F.G.Q.F.G.F.G.G.G.G.Q.Q.Q.F.G.Q.Q.G.G.F.Q.Q.^.G.F.Q.^.G.G.F.G.G.Q.Q.Q.G.S.F.G.F.Q.Q.G.G.G.F.S.S.G.Q.G.G.G.Q.Q.G.G.Q.G.F.Q.G.G.G.Q.G.Q.Q.Q.G.Q.Q.Q.Q.!.!.G.F.A.A.F.S.G.G.Q.^.Q.G.Q.Q.^.G.Q.Q.^.Q.Q.^.^.Q.^.Q././.Q.Q.^.^.^.^.G././.^.Q.G.Q.G.S.^.^.Q.^./.^.^./.^.^.^.^.^.^.G.G.Q.Q.^.^.^.Q.Q.Q.Q.Q.^.^.^.Q.Q.^.^.^.^.Q.^.Q.G.G.Q.Q.^.^.Q.Q.Q.^.Q.S.G.G.Q.Q.Q.Q.^.^.^.Q.Q.^.G.^.^.Q.Q.Q.Q.Q.Q.Q.Q.^.^.^.^.^.Q.G.Q.Q.Q.^.Q.Q.^.Q.^.^.Q.Q.G.Q.Q.Q.^.Q.Q.^.G.Q.Q.G.G.^.^.^./.^.Q.^.Q.Q.Q.Q.Q.Q.Q.G.^.Q.G.G.Q.Q.^./.Q.Q.^.^.Q.G.G.G.G.G.F.G.Q.G.Q.Q.Q.F.G.G.Q.Q.Q.Q.G.G.G.G.G.F.Q.!.Q.Q.G.G.G.F.G.G.G.F.G.G.G.A.F.F.F.F.F.F.Z.F.F.F.F.F.Z.Z.Z.F.F.Z.Z.Z.Z.A.Z.Z.D.e .                                                                                                               . . . . . @ 5 q [ #.%.%.%.+.X.X.O.O.O.O.............O...............................................................................O.O...O...............O.......................O...O.......O.O.......................................O.....O.O.O.O.O.......O...O.O.O.O...O.O...O.O.O.....O.O.O...........O.....O...O.O.O...........O...................",
"o o o o o o o o o o o o o o o o o X X o o o o o o o o o o o o o o o o o o o o o o o o o o o o o o o o o o o o o o o o o o o o o o o o o o o o o o o o X o o o o o o o o o o o o o o o X o o o X o o o o o o o o o o o o o o o o o o o o o o o o o o o O o o o o o o o o o o o o o o o o o o o o o o o o o o o o o o o o o o o o o o o o o o o o o o o o o o o o o o o o o o o o o o o o o o o o o o o o o o o o o o o o o o o o o o o o o o o o o o o o o o o o o o o o o o o o o o o o o o o o o o o o o o o o o o o o o o o o o o o o o o o o o o o o o o o o o o o o o o o o o o X o o o o o o o o o o o o o o o o o o o o o o o o o o o o o o o o o o o o X o o o o o o o o o X X o X X X o o o o o X X o o o X X X X o X X X X X X X X X X o o X X X X X X X X     X       . r ^.Q.Q.Q.G.Q.Q.Q.Q.Q.F.G.Q.G.G.Q.Q.Q.A.A.Q.Q.S.G.G.G.G.G.Q.G.G.G.Q.G.G.G.Q.Q.F.G.G.G.G.G.G.Q.Q.Q.Q.Q.G.G.Q.Q.G.Q.Q.Q.Q.G.G.Q.G.A.G.G.Q.Q.Q.Q.Q.A.A.Q.G.G.G.!.Q.G.Q.Q.G.Q.Q.^.G.G.G.Q.Q.Q.Q.Q.Q.Q.Q.G.G.F.G.Q.F.G.F.G.Q.Q.G.Q.G.G.G.G.Q.Q.Q.Q.Q.^.^.Q.G.Q.^.^.G.G.Q.Q.Q.Q.Q.Q.Q.G.G.Q.^.^.^.^.^.Q.Q.G.G.Q.Q.G.Q.Q.F.A./.^.G.^.^.Q./.^.^./.Q.Q.Q.F.Q.^.^.Q.^.^./.Q.G.Q.Q.G.Q.G.Q.Q.G.G.Q.^.^.Q.Q.^.^.^.^.^.^.Q.Q.Q.Q./.^.Q.G.G.G.Q.^.^.^.Q.F.Q.^.Q.F.^.^.G.G.G.G.Q.^.Q.^.^.^.Q.^.Q.Q.Q.Q.Q.Q.Q.Q.^.^.^././.^.^.Q.Q.Q.Q.Q.Q.Q.G.^./.Q.G.Q.Q.Q.^.^./.Q.Q.G.Q.Q.Q.Q.^.G.G.^.^.^.^.Q.Q.^.Q.Q.^.^.^./.G.G.Q.Q.Q.G.Q.Q.Q.Q.G.G.G.G.G.G.Q.Q.Q.Q.G.G.G.G.G.G.G.G.G.G.G.G.Q.Q.G.G.G.G.G.F.F.G.F.F.G.F.Z.F.G.F.F.F.F.F.F.F.A.F.F.A.A.F.Z.Z.S.e . .                                                                                                                       . . . . % q [ #.%.%.%.+.O.O.O.O.O.O.O.....O.O.O...O.............................O.O...............................O...........O...........................O.....................O.....O...........O.O.....................O.O.O...O.O.O.O.O.O.O...........O.O.O.............O.........O.O.........O.O.O...............O.....O.O.................",
"o X X o o o o o o o o o X o o o o o o o o o o o o o o o o o o o o o o o o o o o o o o o o o o o o o o o o o o o o o o o o o o o X X o o o o o o o o X X o o o o o o o o o o o o o o o o o o o o o o o o o o o o o o o o o o o o o o o o o o o o o o o o o o o o o o o o o o o o o o o o o o o o o o o o o o o o o o o o o o o o o o o o o o o o o X o o o o o o o o o o o o o o o o o o o o o o o o o o o o o o o o o o o o o o o o o o o o o o o o o o o o o o o o o o o o o o o o o o o o o o o o o o o o o o o o o o o o o o o o o o o o o o o o o o o o o o o o o o o o o o o o o o o o o o o o o o o o o o o o o o o o o o o o o o o X o o o o o o o o o o X X o o o o o o X X o o o o X X X o o X X X X X o o X X X X X X o o X X X o X X X X X X X X X X X X X X X     . . r ^.^.Q.Q.Q.Q.Q.Q.Q.Q.G.G.Q.Q.S.G.G.Q.G.F.G.G.Q.S.G.G.F.F.F.G.F.A.G.G.G.G.F.G.F.F.G.G.F.G.G.Q.G.G.G.G.Q.G.Q.Q.G.G.G.G.G.F.F.G.^.Q.F.F.G.Q.G.G.^.Q.A.G.G.G.G.G.G.G.G.Q.Q.Q.Q.Q.^.!.Q.Q.Q.G.Q.Q.G.Q.Q.Q.G.G.G.G.G.Q.Q.Q.Q.Q.G.Q.^.G.G.G.^.Q.Q.G.G.Q.Q.Q.S.Q.Q.^.Q.G.Q.G.^.G.G.^.G.Q.G.G.Q.^.Q.Q.Q.G.Q.G.G.Q.Q.Q.Q.Q.Q.S.G.^.G.G.G.G.Q.Q.Q.Q.Q.Q.G.A.Q.Q.^.^.^./.^.Q.G.Q.Q.Q.Q.G.Q.^.Q.Q.Q.^.Q.G.G.^.Q.Q.^.^.Q.^.^.Q.Q.Q.^.^./.Q.Q.G.Q.Q.Q.Q.S.Q.Q.^.Q.F.G.Q.G.Q.^.Q.Q.Q.Q.Q.^.^.Q.^.Q.Q.Q.Q.G.G.G.Q.Q.G.^.^.^.^.^.^./.^.Q.Q.Q.G.^.^./.^.Q.G.Q.Q.Q././.^.Q.Q.Q.Q.Q.^./.Q.G.G.Q.^.^.Q.Q.^.Q.^.Q.G.^./.^.^.^.Q.Q.F.Q.Q.Q.Q.G.Q.G.G.G.G.G.Q.Q.Q.G.Q.Q.Q.Q.Q.G.Q.G.F.F.G.Q.F.G.G.G.G.A.F.G.F.F.F.G.F.F.G.F.F.F.F.F.F.G.F.F.F.F.F.F.F.Z.D.e . .                                                                                                                               . . @ % q '  .$.%.%.+.X...O.O.O.O.O.O...O.......................O.........O...O.......................................O...................O.O.......................................O.......O.O.......O.O.O.O.O.O.O.O.....O.O.O.O.O.O.O.O.O.......O.O.......................O.O.O...O...................O.O...........O.........O.......",
"o o o o o o o o o o o o o o o o o o o o o o o o o o o o o o o o o o o o o o o o o o o o o o o o o o o o o o o o o o o o o o o o o X X o o o o o o o o o o o o o o o o o o o o o o o o o o o o o o o o o o o o o o o o o o o o o o o o o o o o o o o o o o o o o o o o o o o o o o o o o o o o o o o o o o o o o o o o o o o o o o o o o o o o o X o o o o o o o o o o o o o o o o o o o o o o o o o o o o o o o o o o o o o o o o o o o o o o o o o X o o o o o o o o o o o o o o o o o o o o o o o o o o o o o o o o o o o o o o o o o o o o o o o o o o o o o o o o o o o o o o o o o o o o o o o o o o o o o o o o o o o o o o o o o o o X X o o o o o X X X X X X X o o o X X X o X o o o o o X o o X X X X X o o o o X X X o o X X X X X X X X X X X X X X X X X X X X X X . s (.^.Q.Q.Q.G.Q.Q.Q.Q.Q.F.G.^.Q.G.G.Q.^.Q.G.Q.Q.Q.G.F.G.G.A.F.F.G.A.F.G.G.G.Q.Q.F.F.G.G.G.G.G.G.G.G.G.G.G.G.Q.Q.G.G.G.Q.G.G.G.G.^.G.A.Q.Q.^.Q.Q.Q.Q.F.Q.G.Q.G.G.G.Q.G.Q.Q.Q.Q.Q.Q.Q.Q.G.G.Q.Q.G.Q.Q.Q.Q.G.Q.G.Q.Q.Q.G.Q.Q.G.Q.^.Q.G.Q.G.G.G.Q.G.G.Q.^.Q.Q.^.Q.G.G.Q.^.!.Q.Q.Q.^.^.G.G.Q.Q.Q.Q.Q.^.Q.Q.Q.Q./.^.Q.Q.G.Q.S.G.^.^.G.G.G.Q.Q.Q.Q.Q.Q.G.G.Q.Q.Q.Q.Q.Q.G.G.Q.Q.Q.^.Q.Q.Q.Q.Q.G.Q.^.Q.G.Q.Q.Q.Q.Q.Q.Q.^.^.G.Q.Q.Q.^.^.^.Q.Q.Q.Q.^.Q.Q.Q.Q.Q.Q.Q.Q.Q.!.G.Q.Q.^.Q.^.^.^.^.Q.^.^.^.^.^.Q.^.Q.Q.^.^././.^./.^.^.Q.^.^.Q.^.^.^.^.^./.Q.G.Q.Q.^.^.^.G.^.^.Q.^.G.Q.^.^.Q.G.Q.^.Q.Q.^.^.Q.Q.Q.G.Q.^.Q.Q.Q.Q.Q.G.G.Q.Q.Q.G.G.G.G.Q.Q.G.G.Q.Q.Q.Q.^.Q.Q.Q.G.G.Q.F.F.F.Q.G.G.G.G.G.F.G.G.G.G.G.F.G.F.F.F.F.G.G.F.F.F.F.G.A.G.G.F.A.D.r . .                                                                                                                                   . . . @ % q ' #.%.%.%.+.O...O...O.O.O...............................................O...................O.....O.......................O.....O...........................O.........O.......O.O.....O.........O.O.O.O.O.O.O.O.O.O.....O.O.O.............O.O.O.O.O.....O...O.O.O.O.O.O.................................................",
"o o o o o o o o o o o o o o o o o o o o o o o o o o o o o o o o o o o o o o o o o o o o o o o o o o o o o o o o o o o o o o o o o o o X o o o o o o o o o o o o o o o o o o o o o o o o o o o o o o o o o o o o o o o o o o o o o o o o o o o o o o o o o o o o o o o o o o o o o o o o o o o o o o o o o o o o o o o o o o o o o o o o o o o X o o o o o o o o o o o o o o o o o o o o o o o o o o o o o o o o o o o o o o o o o o o o o o o o o o X o o o o o o o o o o o o o o o o o o o o o o o o o o o o o o o o o o o o o o o o o o o o o o o o o o o o o o o o o o o o o o o o o o o o o o o o o o o o o o o o o o o o o o o o o o o o o o o o o X X X o X o o X o X X o o o o X o o o o X o o X X X X X X X X X X X X X o o X X X X X X X X X     X X X X X X   X X X X . T (.^.Q.Q.^.G.A.G.Q.Q.Q.F.G.Q.Q.Q.G.Q.Q.Q.Q.Q.F.G.Q.Q.Q.Q.G.G.G.G.G.G.G.G.G.F.G.G.G.G.G.G.G.G.G.F.G.F.G.G.G.G.Q.Q.Q.G.Q.G.G.G.S.Q.Q.S.Q.Q.Q.^.^.Q.Q.Q.Q.G.G.Q.Q.G.G.Q.Q.Q.Q.Q.G.G.G.G.Q.G.Q.Q.Q.Q.Q.Q.Q.G.G.G.Q.Q.Q.Q.G.G.G.Q.Q.G.G.G.Q.Q.Q.Q.Q.Q.G.Q.^.Q.Q.Q.S.S.G.Q.Q.^.^.^.^.^.^.Q.^./.Q.G.G.Q.^.^.G.Q.^./.Q.^.G.G.^.G.G.Q./.^.Q.^.^.Q./.^.^.Q.^.Q.Q.G.Q.^.Q.Q.Q.Q.Q.G.G.^.Q.Q.G.Q.G.Q.^.Q.Q.G.G.G.F.G.G.G.Q.^.G.G.Q.Q.Q.Q.Q.^.Q.^.Q.Q.Q.Q.^.Q.Q.Q.^.^.^.^.^.Q.Q.Q.Q.Q.Q.^.^.^.^.^.^././././.^.^.^.Q.^.Q.Q.^.^.Q.^.^.^.^.^.^.^.Q.Q.^.^.Q.G.G.Q.Q.^.Q.G.^.^.^.^.Q.S.G.^././.^.Q.Q.G.G.G.Q.G.G.G.Q.Q.Q.^.^.^.^.G.G.Q.Q.Q.Q.Q.Q.Q.Q.Q.Q.Q.Q.Q.^.Q.Q.Q.Q.Q.Q.Q.^.Q.Q.G.G.G.Q.G.G.G.Q.G.G.G.G.F.A.F.G.G.G.G.F.G.F.G.G.F.G.G.G.G.S.D.3 . o X X                                                                                                                                     .   . . % q ' #.$.%.%.+.X.X.O.O...O...O.O.O.O...............................O.O.............................................................O.O.............................O.O.O.O...O.......................O.O.O.O.O.O.O.O...O.O.O.O.O...................O.O.O.......O.O.....O.O.O...................O.....................",
"o X X o o o o o o o o o o o o o o o o o o o o o o o o o o o o o o o o o o o o o o o o o o o o o o o o o o o o o o o o o o o o o o o o X X o o o o o o o o o o o o X o o o o o o o o o o o o o o o o o o o o o o o o o o o o o o o o o o o o o o o o o o o o o o o o o o o o o o o o o o X o o o o o o o X o o o o o o o o o o o o o o o o o o o o o o o o o o o o o o o o o o o o o o o o o o o o o o o o o o o o o o o o o o o X X o o o o o o o o X o o o o o o o o o o o o o o o o o o o o o o o o o o o o o o o o o o o o o o o o o o o o o o o o o o o o o o o o o o o o o o o o o o o o o o o o o o o o o o o o o o o o o o o o o o o o o o o o o o o o o o o o o o X X X X o X X X X X o o o X X X o o o X X X X X o X X X X X X X X X X X X X X X X X X X X X   X X X o . T (./.G.Q.Q.Q.G.F.G.Q.Q.Q.G.G.Q.Q.Q.Q.G.Q.!.F.G.F.Q.Q.Q.Q.Q.Q.G.G.F.G.Q.Q.G.G.G.F.F.F.F.Q.F.F.F.F.F.F.A.G.F.F.G.Q.Q.G.Q.Q.Q.Q.G.S.Q.G.Q.Q.Q.Q.Q.Q.Q.G.G.G.Q.Q.Q.Q.G.G.Q.Q.Q.Q.Q.Q.Q.Q.Q.G.G.G.G.G.Q.Q.F.F.F.G.Q.A.G.Q.Q.G.G.G.Q.G.Q.Q.G.Q./.Q.Q.Q.Q.Q.^.Q.Q.G.G.Q.Q.G.G.G.G.Q.Q.G.Q.Q.Q.Q.^.Q.S.G.^.^.G.G.Q.Q.Q.Q.Q.Q.Q.Q.^.Q.Q.^.^.^.^.^.Q.Q.Q.Q.^.^.^.Q.Q.Q.Q.Q.Q.Q.^.Q.S.S.Q.Q.Q.Q.Q.Q.G.G.Q.Q.Q.^.G.G.G.Q.^.Q.Q.Q.^.^.Q.Q.^.^.Q.Q.Q.Q.Q.Q.Q.Q./.^.Q.^.Q.Q.^.^.G.G.F.Q.^.Q.Q.^./.^.^.Q.^./.^.^.^.^.^.^.^.^.^.Q.^.^././.(./.^.^.Q.Q.G.^.^.^.^.^.^./.^.^.^.^.Q.Q.^.Q.Q.Q.Q.Q.^.^.Q.Q.Q.Q.G.^.Q.Q.Q.Q.Q.Q.Q.Q.^.^.^.^.^.^.^.Q.Q.Q.Q.G.^.^.Q.^.Q.G.Q.G.G.G.Q.Q.Q.^.^.Q.!.G.G.G.G.F.G.G.G.G.G.G.F.G.G.G.G.G.G.G.G.G.G.G.G.F.G.G.G.D.3 . o o X                                                                                                                                       .   . . . @ % q ]  .$.%.%.+.+.O.O.O...O...O.....................O...........O.............................................................................O.........O.O.O.O.O.O.O.............................O.O.O.O.O.O.O.O.O.O.O.O.O...............O.O...O.O.O.O.............O.O...O.O...O.....O...O.O.O...........O.....",
"o o o X o X o o o o o o o o o o o o o o o o o o o o o o o o o o o o o o o o o o o o o o o o o o o o o o o o o o o o o o o o o o X o o o o o o o o o o o o o o o o o o o o o o o o o o o o o o o o o o o o o o o o o o o o o o o o o o o o o o o o o o o o o o o o o o o o o o o o o o o o o o o o o o o X o o o o o o o o o o o o o o o o o o o o o o o o o o o o o o o o o o o o o o o o o o o o o o o o o o o o o o o o o o o o o o o o o o X o o o o o o o o o o o o o o o o o o o o o o o o o o o o o o o o o o o o o o o o o o o o o o o o o o o o o o o o o o o o o o o o o o o o o o o o o o o o o o o o o o o o o o o o o o o o o o o o o o X o o o o o o o o X o X o X X o X X X X o o o o X X X o X o X X o X o o o X X X o X X X X X X X X X X X X X X X X X X X X X . ,.(.^./.Q.Q.Q.Q.Q.F.G.G.Q.!.A.A.G.Q.Q.G.G.Q.Q.Q.G.G.G.G.G.Q.Q.G.Q.G.G.G.F.G.G.Q.G.F.G.G.G.G.G.Q.Q.Q.!.G.G.G.F.G.G.F.G.F.S.G.Q.Q.Q.^.^.Q.^.Q.G.Q.Q.Q.G.Q.Q.Q.Q.^.Q.Q.G.G.Q.Q.^.Q.G.F.F.A.G.G.Q.G.Q.Q.G.G.A.G.Q.Q.G.A.G.G.Q.G.G.Q.^.Q.Q.Q.S.Q.Q.Q.Q.Q.Q.Q.Q.G./.^.^.^.^.G.A.G.Q.Q.^.Q.^.Q.G.Q./.^.G.Q.^.Q.Q.Q.Q.^.Q.G.G.Q.G.!././.Q.Q.G.Q.^.Q.Q.Q.^.^.^.Q.^.Q.Q.Q.Q.^.G.Q.Q.Q.G.G.Q.Q.G.^.^.Q.Q.G.Q.Q.Q.Q.Q.^.Q.^.^.Q.Q././.Q.G.G.Q.Q.^.^.Q.Q.^.Q.Q.Q.Q.^.Q.^.Q.Q.Q.Q.Q.F.S.Q.^.^./.^./././.^.^./.^.^./.^.^.^.Q.Q.Q.^./././././././.Q.Q.^.^.Q././.^.^.Q.Q./.^.Q.Q./.^.Q.^.Q.Q.^.Q.Q./.^.^.^.G.Q.Q.^.G.G.Q.^.^.Q.^.^.Q.Q.Q.Q.^.Q.G.Q.G.Q.Q.Q.Q.Q.G.G.Q.G.Q.Q.Q.Q.Q.Q.G.Q.G.G.Q.G.G.A.F.!.Q.!.!.!.G.G.F.G.G.G.F.G.G.F.F.F.G.G.G.G.A.D.e @ . . .   . . . . . . .                                                                                                                               . . . . . # 5 G | $.%.%.+.X.O.X...........O...........................O...................................O.O.......O...O.O...................................O.O.O...............................O.........O.O.......O.O...................O.O.O.....O.O.O.........O.O.O...O.O.O.O...O.O.O.....O.O.O.O...O.........",
"o o o X o o o o o o o o o o o o o o o o o o o o o o o o o o o o o o o o o o o o o o o o o o o o o o o o o o o o o o o o o o o o o o o o o o o o o o o o o o o o o o o o o o o o o o o o o o o o o o o o o o o o o o o o o o o o o o o o o o o o o o o o o o o o o o o o o o o o o o o X X o o o o o o o o o o o o o o o o o o o o o o o o o o o o o o o o o o o o o o o o o o o o o o o o o o o o o o o o o o o o o o o o o o X o o o o o o X X o o o o o o o o o o o o o o o o o o o o o o o o o o o o o o o o o o o o o o o o o o o o o o o o o o o o o o o o o o o o o o o o o o o o o o o o o o o o o o o o o o o o o o o o o o o o o o o o o o o o o o o o o o X X X X X X X o o o X o o X X o o X X X X X X X o o X X o o X X o X X X o o X X X X X X X X o X X X X X X o . ,.(.Q.Q.Q.Q.Q.S.Q.Q.G.Q.Q.Q.Q.Q.A.F.Q.G.A.F.G.Q.G.F.F.Q.F.F.G.G.G.G.F.Q.Q.Q.G.G.G.G.G.Q.Q.Q.Q.Q.^.^.Q.^.S.Q.Q.G.G.G.G.Q.Q.G.G.^.G.Q.Q.G.Q.Q.Q.Q.Q.Q.Q.G.Q.^.G.F.G.Q.Q.A.F.Q.Q.G.F.Q.G.Q.G.G.Q.G.G.Q.Q.^.Q.G.S.Q.^.^.G.A.G.G.G.G.Q.Q.Q.^.^.Q.Q.G.Q.^.Q.Q.^.^.^.^.^.G./.Q.Q.^.Q.Q.Q.^.^./.Q.^.^./.^.Q.Q.^.G.G.Q.G.Q.Q.F.G.Q.Q.^.^.^.^.Q.Q.Q.Q.Q.Q.G.Q.^.^.^./.Q.^.^.Q.Q.Q.Q.Q.G.Q.Q.G.G.G.Q.Q./.^.Q.^.^.Q.G.Q.Q.G.Q.Q.G.Q.^.Q.Q.Q.Q.^.Q.Q.Q.Q.Q.Q.Q.Q.^.Q.Q.Q./.^.Q.Q.Q.^.Q.Q./.^.^.^.^././.^.^././.^.^./.^.Q./.^.Q.^.^././.Q.Q.^.^.Q.Q.Q.Q.Q.Q.^.^.^.Q.Q.G.Q.Q.G.Q.Q./././.^././././.^.Q.^./.Q.Q.Q.Q.Q.Q.Q.Q.^.Q.Q.^.Q.G.Q.Q.Q.Q.^.Q.Q.Q.Q.Q.Q.Q.Q.Q.G.Q.Q.Q.G.G.G.Q.Q.G.Q.G.G.G.G.G.G.F.G.G.!.G.G.G.G.Q.Q.Q.G.G.F.F.F.G.F.G.G.F.Z.D.E T e r 3 1 - - # @ . . . . . .   .   . . . . . . X X X   .                                                                                                   . . . . # 5 G | $.%.%.X.X...O.O.................................................................................O.O.........................................O.O.O.......O...................O.O.O.....O.O.O...O.......O.O.....O.O.O...........O...................O.O.O.....O.O...O.....O.O.O.O.O...O.......",
"o X o o X o o o o o o o o o o o o o o o o o o o o o o o o o o o o o o o o o o o o o o o o o o o o o o o o o o o o o o o o o o o o o o X o o o o o o o o o o o o o o o o o o o o o o o o o o o o o o o o o o o o o o o o o o o o o o o o o o o o o o o o o o o o o o o o o o o o o o o o o o o o o o o o o o o o o o o o o o o o o o o o o o o o o o o o o o o o o o o o o o o o o o o o o o o o o o o o o o o o o o o o o o o o o o o o o o o X o o o o o o o o o o o o o o o o o o o o o o o o o o o o o o o o o o o o o o o o o o o o o o o o o o o o o o o o o o o o o o o o o o o o o o o o o o X o o o o o o o o o o o o o o o o o o o o o o o o X o o o o o o o o o o X X X X o X X o o X X X X X X X X X o X o o X X X X X X X o X X X X X X X X X X X X X X X X X X X . # m.(./.Q.Q.G.Q.G.Q.Q.Q.Q.Q.^.Q.Q.Q.G.F.Q.G.A.F.F.Q.G.F.G.Q.Q.G.F.G.F.F.F.G.G.Q.G.G.Q.G.Q.G.G.Q.Q.G.Q.G.Q.Q.S.Q.^.Q.Q.Q.Q.Q.Q.Q.^.Q.Q.G.A.A.G.Q.Q.Q.Q.Q.Q.Q.^.Q.Q.Q.G.Q.Q.G.G.Q.Q.Q.Q.G.Q.G.A.G.Q.G.Q.^.Q.G.Q.G.Q.Q.G.Q.Q.G.G.Q.Q.Q.G.G.Q.Q.G.Q.Q.Q.Q.S.G.^.^.^././.^.^.G.Q.^.Q.Q.Q.G.G.Q.Q.Q.Q.Q.Q.G.Q.^.Q.G.G.Q.G.G.G.G.Q.G.^.^././.^.Q.Q.^.Q.Q.Q.G.Q.^.^.^.A.S.Q.Q.^.Q.Q.^.^.Q.Q.Q.Q.Q.Q.Q.Q./.^.^.^.Q.Q.Q.^.Q.Q.Q.Q.G.Q.Q.Q.Q.Q.Q.Q.Q.Q.Q.Q.^.^.^.^.^.^.^.Q.^.^.^.^.Q.Q.G.G.^.Q.G.Q.G.^.^.Q.Q.^.^.^././.^.Q.Q.Q.^.^.^././.Q.^.Q.Q.Q.Q.^.^.^.^./.^.^.Q.Q.Q.Q.S.G.^.^.^.^.^.^.Q.Q.Q.^.^.^.^.^.^.Q.^.Q.Q.G.G.Q./.^.^.Q.Q.Q.Q.Q.Q.Q.^.Q.Q.^.Q.^.^.^.Q.Q.Q.Q.Q.Q.G.G.G.Q.Q.Q.Q.F.G.G.G.G.G.G.G.G.Q.G.G.G.G.G.!.Q.Q.^.G.F.A.F.F.F.G.G.S.S.A.D.D.,.,.,.,.,.,.E E T s s s e r 1 - - - - # @ . . . . . . .                                                                                                         . . # 5 G | #.%.%.%.+.X.X...O.....O.O.O.................O.....................................O...........O.O.O.......................................O...O.........................................O.O.O.O.....O.......O.O.............O...........................O.O.O.O...........O.....O.....",
"o o o X X o o o o o o o X o o o o o o o o o o o o o o o o o o o o o o o o o o o o o o o o o o o o o o o o o o o o o o o o o o o o o o o o o o o o o o o o o o X o o o o o o o o o o o o o o o o o o o o o o o o o o o o o o o o o o o o o o o o o o o o o o o o o o o o o o o o o o o o o o o o o o o o o o o o o o o o o o o o o o o o o o o o o o o o o o o o o o o o o o o o o o o o o o o o o o o o o o o o o o o o o o X o o o o o o o o o o o o o o o o o o o o o o o o o o o o o o o o o o o o o o o o o o o o o o o o o o o o o o o o o o o o o o o o o o o o o o o o o o o o o o o o o o o o o o o o o o o o o o o o o o o o o o o o o o X X X X o o o o o X X X X X o o o o X X o X X o o o o o o o o X o o o o o o X o o X o o o o o X X o X X X X X X X X X X X X . # m.(.(././.Q.Q.Q.Q.Q.Q.Q.G.G.Q.G.F.G.G.G.Q.G.A.F.F.Q.Q.G.G.G.G.Q.G.G.G.F.F.F.F.G.G.G.Q.F.F.A.G.Q.G.G.!.Q.Q.Q.G.Q.^.Q.Q.Q.Q.Q.Q.Q.G.Q.Q.Q.G.F.G.G.G.G.G.G.Q.Q.Q.Q.Q.Q.Q.!.Q.G.Q.Q.F.^.Q.Q.Q.Q.!.Q.Q.Q.Q.Q.Q.Q.Q.G.Q.Q.Q.Q.G.G.Q.Q.Q.Q.Q.Q.Q.Q.G.Q.Q.Q.F.G.Q.^.^.Q.^.Q.G.^.Q.Q.Q.Q.Q.Q.Q.Q.Q.^.Q.Q./.Q.G.Q.Q.Q.G.Q.G.G.Q.^.Q.Q.G.Q.Q.^.^.Q.Q.Q.Q.G.G.G.G.^.Q.Q.^.G.Q.Q.G.Q.G.Q.Q.Q.^.^.^.^.Q.Q.G.G.Q.Q.^.Q.Q.Q.G.Q.Q.Q.Q.Q.Q.G.S.G.G.G.Q.Q.Q.Q.Q.Q.Q.Q.Q./.^.Q.G.Q.Q.^.^.Q.^.^.Q.Q.^.G.^.^.G.^.^.^.Q.^.^.^./././.^.^.^.Q.^.^.^.^.Q.Q.Q.Q.^.^.^.^.^.^.^.^.^.^.^./.^.G.Q.Q.Q.Q.^.^.Q./.^.^.^.Q.^.^.^.Q.Q.Q.^.^.^.G.^.^./.Q.Q.Q.Q.Q.Q.Q.Q.Q.Q.^./.^.^.Q.Q.Q.^.Q.Q.Q.Q.Q.Q.Q.Q.Q.^.!.G.Q.Q.Q.G.Q.Q.Q.Q.G.!.!.Q.Q.G.G.G.G.G.G.F.F.A.F.F.G.G.F.F.A.Z.Z.1.4.4.Z.Z.A.Z.D.D.D.D.D.D.m.,.,.,.,.>.>.T T s e e 3 #                                                                                                           . . . . # 5 H [ $.%.%.%.X.X.........O.O.........................O...............................O...................................................O.O.O...O...................................................O.....O.O...O.O.......O.O.O.O.......................O.O.O...O...............O...",
"o o o X o o o o o o o X o o o o o o o o o o o o o o o o o o o o o o o o o o o o o o o o o o o o o o o o o o o o o o o o o o o o o o o o o o o o o o o o o o o o o o o o o o o o o X X o o o o o o o o o o o o o o o o o o o o o o o o o o o o o o o o o o o o o o o o o o o o o o o o o o o o o o o o o o o o o o o o o o o o o o o o o o o o o o o o o o o o o o o o o o o o o o o o o o o o o o o o X o o o o o o o o o o X X o o o o o o o o o o o o o o o o o o o o o o o o o o o o o o o o o o o o o o o o o o o o o o o o o o o o o o o o o o o o o o o o o o o X o o X o o o o o o o o o o o o o o o o o o o o o o o o o o o o o o o o o o X X o o o o o o o X X X X X o o o o o o X X X X X X X o o o o o o O O . . . X X   .     .   X X X X o o o o X X X o o X X . . - N.(.(.^././.^.Q.G.G.Q.Q.G.G.G.Q.Q.G.Q.Q.G.F.G.G.F.G.Q.G.G.G.G.G.G.G.G.G.G.G.Q.G.F.F.G.G.G.G.F.G.Q.G.Q.Q.Q.^.Q.Q.Q.Q.Q.Q.Q.Q.G.Q.A.Q.Q.Q.^.Q.Q.G.Q.G.G.F.G.Q.Q.Q.G.G.Q.Q.G.G.!.Q.G.Q.Q.Q.G.Q.Q.Q.Q.G.Q.Q.Q.Q.Q.G.Q.Q.Q.G.G.G.G.G.Q.Q.Q.^.Q.Q.Q.Q.^.Q.Q.Q.Q.G./.Q.Q.Q.G.Q.Q.Q.G.Q.^.^.^.G.G.Q.^.Q.^.^.Q.Q.^.Q.^.^.Q.Q.Q.G.Q./.^.^.^.G.G.G.Q.Q.Q.Q.G.G.Q.Q.Q.^.Q.Q.Q.Q.G.G.!.G.G.G.Q.G.Q.Q.Q.^.^.Q.Q.G.Q.G.G.Q.Q.G.G.G.Q.Q.^.^.^.Q.Q.Q.^./.^.Q.Q.Q.G.Q.G.G.Q.Q.^.^.^.^.^.^.^.^./.^./.^.^./.^.G.^.^.^.^.^./.^.^.^.^.Q.G.G.Q.Q.Q.Q.Q.Q.^.Q.^.^.^.^.^.G.Q.^.Q.^./././.^.G.G.^.Q.Q.Q.Q.G.Q.Q.Q.^.^.Q.Q.^.Q.G.Q.Q.Q.^.Q.Q.Q.^.^.^.^./.^.^.^.^./.^.^.^.Q.G.G.Q.^.Q.Q.^.Q.Q.^.Q.Q.^.Q.^.Q.G.!.^.^.G.G.G.G.Q.G.Q.Q.Q.Q.G.F.F.F.G.G.G.G.A.F.F.G.G.G.G.F.F.3.3.H.F.Z.A.A.A.Z.Z.4.Z.Z.Z.Z.Z.D.D.D.D.Z.D.A.D.D.D.e                                                                                                                 . . . . @ 5 G [ $.%.%.%.X...O.O.O.O.O.O.O...O.O.O...O...........................O...............O.............................................O.O.......O.......................O...O.O.............O.........O.........O.O.O.........O.O.........O.O.O.O.....................O...........",
"o X o o o o o o o o o o o o o o o o o o o o o o o o o o o o o o o o o o o o o o o o o o o o o o o o o o o o o o o o o o o o o o o o o o o o o o o o o o o o o o o o o o o o o o o o o o o o o o o o o o o o o o o o o o o o o o o o o o o o o o o o o o o o o o o o o o o o o o o o o o o o o o o o o o o o o o o o o o o o o o o o o o o o o o o o o o o o o o o o o o o o o o o o o o o o o o o o o o o o o o o o o o o o o o o o o o o o o o o o o o o o o o o o o o o o o o o o o o o o o o o o o o o o o o o o o o o o o o o o o o o o o o o o o o o o o o o o o o o o o o o o o o o o o o o o o o o o o o o o o o o o o o o X o o o o o o o o o o o o o o o o o o o X o X X X X X X X o X X X X X X X o o o o f N.m.E T s e r r 3 1 - - - - - # # . . . . . . . . . . . . - S.(.}.(.(.(.(.(.^.^.^.G.^.Q.Q.G.Q.G.G.Q.G.F.Q.Q.Q.Q.G.Q.G.Q.F.Q.G.Q.Q.G.G.G.Q.^.G.A.G.Q.F.G.G.F.Q.Q.F.Q.Q.Q.^.Q.Q.Q.Q.G.G.^.Q.Q.G.Q.Q.Q.Q.^.Q.G.Q.Q.G.G.F.G.G.!.Q.Q.G.G.Q.F.G.Q.Q.G.G.Q.Q.Q.Q.Q.Q.Q.G.Q.Q.Q.Q.Q.G.Q.G.Q.Q.G.G.G.G.Q.Q.Q.G.Q.^.Q.^.^.Q.Q.G.Q.G.Q.^.Q.Q.Q.Q.^.^.^.Q.^.^.Q.Q.G.Q.^.G.Q.Q.Q.Q.Q.^.Q.^.^.Q.Q.G.G.Q.^././.^.^.Q.G.Q.^.Q.Q.Q./.Q.Q.Q.Q.Q.^.Q.G.Q./.^././.^.Q.Q.Q.G.Q.^.^.Q.G.Q.Q.Q.Q.Q.Q.Q.G.Q.Q.Q.G.^./.^.^.Q.Q.Q.Q.Q.Q.Q.Q.G.Q.^.^./.^.^./.^.^./.^.^./.^.^.^.^.Q.^.^./././.^.G.^.Q.^.^.Q.Q.Q.Q.Q.^.^.Q.Q.Q.^.^.^.^.Q.G.Q./.^.^.^./.^./././.^.Q.Q.Q.^.Q.^.Q.Q.Q.^.^.^.Q./.^.Q.^.^.Q.^.Q.Q.Q.G.Q.^./.^./.^.^.^.Q.^.^./.Q.Q.G.Q.Q.Q.Q.^.Q.Q.^.Q.Q.Q.Q.G.G.Q.Q.^.^.^.Q.Q.Q.G.G.G.G.!.G.G.G.F.G.G.G.G.F.F.G.F.G.F.G.F.G.F.Z.H.F.G.F.G.G.Q.G.!.G.G.G.G.Q.F.Z.A.Z.Z.Z.A.A.D.D.s .                                                                                                                     . . . . @ 5 0 | #.%.%.%.+.+.O.O.O.O.O.O.O.O.O.....................................................................................O.....O.O.O.........O.O.O.O.O...O...O.............O.O.O.O.O.O.O.O.O...................O.......O...........O.O.O.O.O...............O.....O.O.......",
"o X o o o o o o o o o o o o o o o o o o o o o o o o o o o o o o o o o o o o o o o o o o o o o o o o o o o o o o o o o o o o o o o o o o o o o o o o o o o o o o o o o o o o o X o o o o o o o o o o o o o o o o o o o o o o o o o o o o o o o o o o o o o o o o o o o o o o o o o o o o o o o o o o o o o o o o o o o o o o o o o o o o o o o o o o o o o o o o o o o o o o o o o o o o o o o o o X o o o o o o o o o o o o o o o o o o o o o o o o o o o o o o o o o o o o o o o o o o o o o o o o o o o o o o o o o o o o o o o o o o o o o o o o o o o o o o o o o o o o o o o o o o o o o o o o o o o o o o o o o o o o o o o o o o o o o o o o X o X X X o o o o o o X X X o o o X X X X X X X X X X X o o o O m.}.^.Q.Q.Q.Q.S.S.S.D.D.D.D.D.,.,.>.>.>.E T s s s s e r r e ,.D.,.N.D.D.S.S.S.S.S.^.^.^.^././././././.Q.Q.Q.Q.Q.Q.G.Q.G.G.G.G.G.Q.Q.G.Q.G.G.Q.Q.Q.G.Q.F.G.G.G.G.G.G.G.G.S.Q.Q.G.^.^.Q.G.Q.Q.Q.^.Q.Q.G.G.Q.Q.^.Q.Q.G.G.G.G.G.G.Q.Q.Q.G.Q.F.F.Q.G.Q.Q.G.G.G.F.F.Q.^.Q.Q.Q.^.Q.F.G.G.G.Q.G.Q.Q.Q.Q.Q.Q.Q.G.G.Q.^.^.G.G.Q.G.Q.Q.Q.Q.G.G.Q.Q.Q.Q.Q.Q.Q.Q.G.G.Q.Q././.G.Q.Q.^.^.Q.Q.Q.Q.Q./.^.G.G.G.G.Q.^.^.^.Q.Q.Q.Q.Q.G./.^.Q.Q.Q.Q.Q.^.^.Q.Q.G.Q.^.^./.^.^.^.Q.G.G././.^.^.Q.G.G.Q.Q.Q.Q.Q.Q.Q.G.Q.Q.Q.^.Q.Q.Q.^.Q.^.^.^.Q.G.Q.^.^.^.^.^././.^.^././.^.^.^.G.^.^.^.Q.^.^.G.Q.Q.^.Q.Q.^.Q.Q.^.^.Q.^.Q.Q.^.^.^.^.Q.Q.Q.^.^./.Q.^./.^.^././././././././././.^.^.Q.Q.^.^.^.Q.Q.^.^.^.^.Q.Q.Q.F.^.^.^.^./.^.Q.Q.^.Q.^.Q.Q.^.^.^.^.Q.Q.Q.Q.Q.^.^.G.G.G.G.Q.Q.Q.^.^.^.^.^.Q.G.Q.!.^.!.!.G.G.G.G.G.G.G.F.F.G.G.G.G.G.G.G.G.F.G.F.G.A.F.G.F.G.G.G.G.A.F.F.A.A.F.F.A.3.A.Z.D.s .                                                                                                                           . . . . @ 5 0 | #.%.%.%.+.+.O.O.O.O.O.O.O.........................................................................................O.O.O.O.O...O.O.O.....O.O.O...O.O...........O.....O.O.........O.................O.......O.O...O.....O.O.O.O.O.O.O.........O.O.......O.O.....",
"o o o o o o o o o o o o o o o o o o o o o o o o o o o o o o o o o o o o o o o o o o o o o o o o o o o o o o o o o o o o o o o o o o o o o o o o o o o o o o o o o o o o o o o o o o o o o o o o o o o o o o o o o o o o o o o o o o o o o o o o o o o o o o o o X o o X o o o o o o o o o o o o o o o o o o o o o o o o o o o o o o o o o o o o o o o o o o o o o o o o o o o o o o o o o o o o o X o o o o o o o o o o o o o o o o o o o o o o o o o o o o o o o o o o o o o o o o o o o o o o o o o o o o o o o o o o o o o o o o o o o o o o o o o o o o o o o o o o o o o o o o o o o o o o o o o o o o o o o o o o o o o o o o o o o o o o o o o o o X X o o o o o o o X X X o o o o X X X X X X X X o o o o # ,.(.^.G.G.G.G.G.G.G.G.G.S.Q.Q.Q.Q.Q.Q.^.Q.S.S.S.S.S.S.D.D.N.W.N.E E E E E T T T T T T T E >.,.,.,.,.4.D.S.S.G.Q.^./.^./././.(.(.(.(./.(./././.^././.^.Q.Q.Q.Q.G.G.G.Q.Q.G.S.G.G.Q.Q.Q.G.Q.Q.Q.Q.Q.Q.Q.Q.Q.!.Q.Q.Q.Q.G.G.G.F.G.G.G.Q.Q.Q.Q.F.Q.Q.G.G.G.F.G.G.G.Q.Q.Q.Q.Q.^.Q.S.G.!.G.F.G.F.G.G.G.Q.Q.Q.Q.Q.Q.G.G.^.Q.Q.^.^.Q.Q.Q.S.Q.Q.^.Q.^.Q.^.Q.Q.^.Q.Q.Q.Q.^.^.Q.Q.Q.^.^.Q.Q.Q.G.G.Q.G.G.G.G.G.Q.^./././.Q.Q.Q.G.Q.Q.Q.Q.G.G.!.!.!.^.^.Q.Q.Q.Q.Q.G.^.^.Q.Q.G.G.Q.Q.Q.Q.Q.Q.G.G.Q.Q.Q.Q.^.Q.Q.Q.^.^.^.^.Q.Q.S.Q.Q.^.Q.G.G.G.G.^.Q.G.Q.^.^.^.Q.^.^././././.^./.G.Q.^.^.^.Q.Q.Q.Q.Q.^.Q.^.Q.Q.^./.Q.^.Q.Q.Q.Q.Q.Q.^.Q.^.^.Q.^./.G.Q.Q.Q.Q.^.^.^./.^.^.^.^.^.Q.^.Q.^.Q.^.Q.Q.G.Q.^.Q.Q.^.^.^.^./.Q.^./.^.^.^.Q.G.Q.^.^.Q.Q.G.Q.Q.Q.Q.Q.Q.Q.Q.Q.G.G.G.Q.Q.Q.Q.Q.Q.Q.Q.!.G.G.G.G.G.F.G.Q.Q.G.G.F.G.G.F.G.G.G.G.F.G.F.G.G.G.S.A.A.A.A.A.F.F.G.F.F.F.F.F.A.Z.Z.A.Z.D.e                                                                                                                               .     . . . @ 5 q '  .$.%.%.+.X.+.O.O.O.O.......O...............................................................................O...O...........O.O.............................................O.................O.O.O...........O.O.O.O.O.O.O.O.....................O.O...",
"X o X o o o X o o o o o o o o o o o o o o o o o o o o o o o o o o o o o o o o o o o o o o o o o o o o o o o o o o o o o o o o o o o o X o o o o o o o o o o o o o o o o o o o o o o o o o o o o o X o o o o o o o o o o o o o o o o o o o o o o o o o o o o o o o o o o o o o o o o o o o o o o o o o o o o o o o o o o o o o o o o o o o o o o o o o o o o o o o o o o o o o o o o o o o o o o o o o o o o o o o o o o X X X X X o o o o o o o o o o o o o o o o o o o o o o o o o o o o o o o o o o o o o o o o o o o o o o o o o o o o o X o o o o o o o o o o o o o o o o o o o o o o o o o o o o o o o o o o o o o o o o o o o o o o o o o o o X o o X X o o o o o o o o X X o X X o X X X o X X o o o o o o # >.^.G.G.G.G.G.G.Q.Q.Q.Q.G.Q.Q.Q.Q.F.A.G.F.S.F.F.S.A.S.A.Z.D.D.J.J.J.J.V.V.N.N.m.m.m.m.>.>.E E T T T T T T T T T T T E >.,.,.m.m.D.D.S.S.S.Q.^.S.^.^.(.(./.(.(.(.(.(.(.(.(.^.G.^./././.^.^.Q.^.Q.Q.Q.Q.Q.Q.Q.Q.!.!.Q.Q.G.Q.G.G.G.Q.G.Q.Q.Q.A.G.Q.G.Q.Q.Q.Q.Q.G.G.G.Q.G.G.Q.^.G.G.Q.Q.G.F.F.A.F.G.Q.Q.Q.Q.Q.Q.Q.G.Q.Q.^.Q.^.^.Q./.^.Q.^.Q.Q.Q.Q.Q.Q.Q.G./.Q.Q.Q.Q.^.Q.^.Q.Q.Q.Q.Q.^.Q.Q.Q.Q.Q.G.G.G.G.G.G.Q././././.^.Q.^.^.G.Q.G.Q.^.!.G.Q.Q.Q.^.Q.Q.Q.Q.Q.Q.Q.Q.Q.Q.G.G.Q.G.Q.G.Q.^.^.^.^.^.^.^.Q.Q.Q.^.Q.Q.G.S.^.^.^.^.^.^.^.^.^.G.G.G.Q.^.^.^.G.Q.Q.^.^.^.^.^.Q.^.^./.^.Q.Q.Q.^.^.Q.Q.^.^.^./.^.Q.Q.Q.Q.^.^.^.Q.Q.^.^.^.^.Q.^.^.Q.^.^.Q.Q.Q.Q.^.^.Q./.Q.Q.Q.^.Q.^.^.Q.Q.Q.^.Q.Q.Q.^.^.^.^./.Q.Q.Q./.^.^.^./.Q.Q.Q.Q.Q.G.Q.Q.^.Q.^.^.^.Q.!.^.Q.G.G.G.Q.Q.^.G.G.G.Q.Q.Q.Q.G.G.G.G.G.!.G.G.Q.G.Q.G.G.G.G.Q.Q.G.G.G.G.G.G.G.F.F.F.G.G.F.A.F.G.F.F.A.F.F.F.A.Z.Z.D.r                                                                                                                                         . .   . . % q ' #.%.%.%.%.+.O.O.O.O.O.O.O.......O.........................................................................................O.................O.O.......O...............................O.O.O.O.........O.O...........O.O.O.....O.O.O.........O.O...",
"o X o o o o o o o o o o o o o o o o o o o o o o o o o o o o o o o o o o o o o o o o o o o o o o o o o o o o o o o o o o o o o o o o o o o o o o o o o o o o o o o o o o o o o o o o o o o o o o o o o o o X X X o X o o o o o o o o o o o o o o o o o o o o o o o o o o o o o o o o o o o o o o o o o o o o o o o o o o o o o o o X o o o o o o o o o o o o o o o o o o o o o o o o o o o o o o o o o o o o o o o o o o o o o X o o o X X o o o o o o o o o o o o o o o o o o o o o o o o o o o o o o o o o o o o o o o o o o o o o X o o o o o o o o o o o o o o o o o o o o o o o o o o o o o o o o o o o o o o o o o o o o o o o o o o o o o o X X o o o o o X X o X X o X X X o X X X X X X X X X o o o X o o @ >.^.F.F.F.F.F.Q.Q.Q.G.G.Q.Q.G.Q.G.F.F.G.G.G.F.G.G.Q.Q.G.A.D.~.OX{.{.'.'.'.'.'.`.`.~.~.~.J.~.J.J.V.V.N.N.m.m.m.m.>.>.>.E E E E E E E E E E E E E E E >.>.,.,.,.,.m.D.D.S.S.^.Q.^.(.(.(.(.(.(.(.(./.^.Q.Q.Q.Q.Q.Q.Q.G.Q.Q.G.Q.G.G.G.G.G.G.G.G.G.G.Q.G.Q.^.Q.Q.Q.Q.Q.Q.G.S.G.Q.Q.G.Q.!.G.G.Q.Q.Q.F.G.Q.Q.Q.Q.Q.Q.Q.Q.Q.Q.Q.G./.Q.Q.^.^.Q.Q.^.Q.Q.Q.Q.G.Q.^.G./.G.Q.Q.Q.Q.Q.Q.G.Q.Q.^.Q.Q.Q.^.Q.Q.Q.Q.Q.Q.Q.Q.^.Q././././.^././.^.G.G.^.Q.Q.Q.G.Q.Q.^.Q.G.Q.^.Q.Q.Q.F.G.Q.G.Q.Q.Q.Q.^.Q.^.^.Q.Q.^.Q.Q.G.Q.^.Q.Q.S.S././././.^.^.^././.Q./.^.G.Q.^./.^.^.^.^.Q.Q.^.Q.Q.^.Q.Q.Q.^.Q.Q.Q.Q.Q.Q.^.^.^.^.Q.Q.G.F.Q.^.^./.Q.^.Q.G.Q.^.^.Q.G.^.Q.G.G.G.Q.Q.^./.Q.^./.Q.Q.^./.Q.^.^.^.Q.Q.Q.Q.Q.^.Q.^./.^.Q.Q.^.^.^.Q.Q.^.^.Q.Q.Q.Q.^.^.^.^.^.Q.Q.Q.^.G.G.Q.Q.G.G.Q.Q.Q.Q.Q.G.Q.Q.Q.Q.G.G.Q.G.Q.G.G.Q.Q.G.G.G.G.G.G.G.G.G.G.F.G.G.G.Q.Q.!.G.G.G.G.G.G.A.F.G.G.G.F.F.Z.Z.Z.D.3                                                                                                                                             .   .   . . % q '  .$.%.%.@.X...O.O.O.O.....O...............O.....O.O.O...........................................................................O.O.............O.O...................O.........O...O.O.O.O...........O...O.O.....O.O.O.O.O.O.O.O.O.........",
"o X o o o o o o o o o o o o o o o o o o o o o o o o o o o o o o o o o o o o o o o o o o o o o o o o o o o o o o o o o o o o o o o o o o o o o o o o o o o o o o o o o o o o o o o o o o o o o o o o o o o o o o o o o o o o o o o o o o o o o o o o o o o o o o o o o o o o o o o o o o o o o o o o o o o o o o o o o o o o o o o o o o o o o o o o o o o o o o o o o o o o o o o o o o o o o o o o o o o o o o o o o o o o o o o o o o o o o o o o o o o o o o o o o o o o o o o o o o o o o o o o o o o o o o o o o o o o o o o o o o o o o o o o o o o o o o o o o o o o o o o o o o o o o o o o o o o o o o o o o o o o o o o o o o o o o o o X X X X X o o o o X X X o o o o o o o o X X X X X X o o o X o X # ,./.F.A.A.F.F.F.G.Q.G.Q.G.G.Q.Q.Q.Q.F.F.G.G.Q.Q.Q.Q.G.Q.A.D.(.OXOX#X#XoXoXoX.X]..X.X]..X].].'.'.'.'.'.'.'.'.'.`.`.~.~.~.~.~.~.J.J.J.V.J.V.V.V.N.N.N.m.m.m.>.>.>.E E E E E E E E E >.>.>.,.,.m.D.D.D.S.S.Q.^.Q.Q.!.Q.G.G.G.Q.Q.Q.G.G.Q.!.Q.Q.G.F.Q.Q.Q.Q.Q.Q.G.G.Q.Q.G.S.Q.G.G.G.Q.Q.Q.G.G.Q.^.G.S.G.Q.G.Q.G.F.F.Q.^.G.^.^.Q.Q.Q.Q.Q.Q.Q.Q.^.Q.Q.^.G.G.Q.G.^.Q.Q.Q.Q.Q.G.G.Q.Q.Q.Q.Q.^.Q.Q.^.Q.Q.^.^.^.Q.Q.Q.Q.G.Q.Q.^.^.Q././.^.G.Q.Q.Q.^.Q.G.Q.Q.Q.Q.Q.G.^.^.Q.Q.G.!.Q.Q.Q.Q.Q.Q.Q.Q.Q.Q.G.G.Q.Q.Q.Q.Q.Q.Q.Q.Q.^.^./.^.^././.^.^./.^./.^.^././.^.Q.Q.Q.Q.^.Q./.Q.^.^.Q.G.Q.^.Q.Q.^.Q.Q.Q.Q.Q.Q.S.G.^.Q.Q./.^./.^.^.^.G.S.G.Q.^.Q.G./.^.Q.^.Q.^.Q.Q.Q.^.Q.Q.Q.Q.^.Q.^.^.^.^.G.G.G.Q.^.^.^.^.^.Q.Q.Q.Q.Q./.Q.Q.Q.^.Q.^.^.^.^./.Q.Q.^./.^.Q.Q.Q.Q.^.Q.Q.Q.Q.Q.Q.Q.G.G.G.Q.Q.F.G.G.G.G.Q.!.!.G.Q.G.F.G.G.F.F.F.F.G.!.!.G.F.G.Q.G.F.F.G.G.F.G.G.A.A.F.F.F.F.F.H.Z.D.3                                                                                                                                                           . . % 5 Y  .$.%.%.+.....O.O.O.O.O.....O.......O...........................................O.......O.O.............................O.O.O.O...........O.O.......O.O.......O.O.............O.O.O...........O...O.O.O.O.O.O.O.........O.O.O.........",
"o o X o o o o o o o o o o o o o o o o o o o o o o o o o o o o o o o o o o o o o o o o o o o o o o o o o o o o o o o o o o o o o o o o o o o o o o o o o o o o o o o o o o o o o o o o o o o o o o o o o o o o o o o o o o o o o o o o o o o o o o o o o o o o o o o o o o o o o o o o o o o o o o o o o o o o o o X X o o o o o o o o o o o o o o o o o o o o o o o o o o o o o o o o o o o o o o o o o o o o o o o o o o o o o o o o o o o o o o o o o o o o o o o o o o o o o o o o o o o o o o o o o o o o o o o o o o o o o o o o o o o o o o o o o o o o o o o o o o o o o o o o o o o o o o o o o o o o o o o o o o o o o o o o o o o o o o o X o o o o o o o X X X X o o o o o o o X X o o o X X X X X X X - ,./.G.G.G.F.F.F.F.Q.G.G.G.G.F.G.Q.F.G.Q.G.G.F.Q.!.Q.^.G.S.S.}.*X*X*X&X&X#X#X#X+X#X#X#X#X#X#X#X#X#X#XoXoX#XoX#XoXoXoXoXoXoXoXoX].'.'.'.].].].'.].'.'.'.'.'.~.~.~.~.~.V.V.V.N.N.m.m.m.>.>.>.E f T s s T T T T Z.Q.G.Q.Q.Q.!.G.Q.Q.G.Q.Q.!./.Q.Q.G.G.Q.Q.Q.Q.^.Q.Q.^.Q.Q.Q.Q.Q.^.Q.G.G.^.^.Q.Q.Q.Q.G.G.G.S.Q.Q.Q.G.G.Q.^.Q.Q.Q.Q.Q.^.Q.Q.Q.Q.Q.G.Q.Q.Q.G.G.Q.Q.Q.Q.Q.Q.Q.G.G.Q.Q.Q.^.Q.Q.Q.Q.Q.Q.G.G.Q.^.Q.G.G.Q.F.G.G.G.Q.G.S.Q./.^.^.Q.Q.Q./.Q.G.G.G.G.Q.Q.Q.^.^.^.Q.G.Q.^.Q.G.Q.G.Q.Q.Q.G.Q.G.Q.^.Q.^.Q./.^.^.^.^./.^.^.Q.Q.^.^.Q.^.^.^.Q.^.^./.^.^.Q.G.^.Q.F.Q./.^.Q.^.Q.G.Q.Q.G.G.^.^.^./././.Q.G.Q.Q.G.^.^.^.^.^./.^.Q.Q.^.^.^.Q.Q.Q.^.^././.Q.Q.Q.Q.Q.G.G.G.^./.^.^./././././.Q.^.Q.^.^./.Q.G.Q.^.Q.Q.^.Q.Q.Q.^././.^.^.Q.^.Q.G.G.Q.^.^.^.Q.^.Q.Q.Q.Q.Q.Q.Q.G.Q.!.Q.Q.G.G.Q.G.F.Q.Q.Q.G.G.F.G.Q.G.F.Q.G.Q.Q.^.^./.Q.G.G.G.Q.G.G.G.G.G.Q.G.G.A.A.F.G.F.F.A.D.3                   X                                                                                                                                       . .   . . @ 5 G  .$.%.%.+.+.O.O.............O.......................................................................O.............O.O...O.O.O.O.O...O.O.........O.O.O.........O.O.O.O.O.O.O...O.O.O.O.................O.O.O.....O.O.O.O.O.O.O...",
"X o X o o X o X o o o o o o o o o o o o o o o o o o o o o o o o o o o o o o o o o o o o o o o o o o o o o o o o o o o o o o o o o o o o o o o o o o o o o o o o o o o o o o o o o o o o o o o o o o o o o o o o o o o o o o o o o o o o o o o o o o o o o o o o o o o o o o o o o o o o o o o o o o o o o o o o o o o o o o o o o X o o o o o o o o o o o o o o o o o o o o o o o o o o o o o o o o o o o o o o o o o o o o o o o o o o o o o o o o o o o o o o o o o o o o o o o o o o o o o o o o o o o o o o o o o o o o o o o o X o o o o o o o o o o o o o o o o o o o o o o o o o o o o o o o o o o o o o o o o o o o o o o o o o o o o o o o o o X X X X o o o X X o o o o o o X X X X X X X X X X X X X . - D.^.G.F.F.G.F.G.Q.Q.Q.Q.Q.Q.Q.G.Q.G.F.F.Q.F.F.G.Q.Q.G.G.A.S.}.*X*X*X&X$X&X&X&X#X&X#X#X&X&X&X&X&X&X#X#X#X$X$X#X&X&X$X$X$X#X#X#X#X#X#XoXoXoXoX#X#XoXoXoXoXoXoXoX{.oX{.].].].'.'.'.`.`.~.~.~.J.V.J.N.N.m.m.>.s D.^.G.Q.G.!.!.Q.Q.Q.Q.Q.G.G.G.G.G.^.^.Q.Q.^.^.Q.Q.G.^.^.Q.Q.Q.^.Q.^.Q.G.S.Q.^.Q.Q.Q.Q.A.G.Q.Q.Q.G.F.Q.A.Q.Q.Q.Q.Q.G.F.Q.Q.Q.Q.Q.Q.Q.Q.^.Q.G.^.^.^./.^.^./.^.Q.G.S.Q.Q.Q.Q.Q.Q.^.^.Q.G.F.F.Q.Q.G.G.G.G.F.G.F.Q.Q.G.Q.Q.^.^.Q.G.Q.Q.Q.Q.Q.^.G.^.Q.Q.G.Q.G.G.Q.Q.Q.!.Q.G.G.Q.^.Q.^.^.Q.Q.Q.^.^.^././.^.^.^.Q.^.^.Q.Q./.^.G.G.Q.^.Q.Q.Q././.^.G.G.Q.Q.G.Q.Q././.^.^.Q.Q.Q.G.G.Q.^.Q.^.^././.^.Q.Q.Q.^.Q.Q.Q./.^.^.^.G./.^.^./.^.^.^.^././.Q.^.Q.Q.Q.G.Q.Q.Q.^.^./.Q.^.^./././././.^.^./.G.G.^.^.Q.^././.^.Q.Q.^.^.Q.^.Q.Q.Q.Q.Q.^.^.Q.^.Q.Q.^.Q.G.Q.Q.Q.Q.F.Q.Q.Q.Q.G.G.G.!.G.G.Q.Q.Q.G.Q.G.Q.Q.^.Q.Q.^.G./.^.Q.G.G.A.F.G.G.G.F.G.G.G.G.G.G.F.F.F.G.F.D.3                   X                                                                                                                                                 .   . # 5 Y  .$.Y.%.%.X...........O.O.................................O.O.................................................O.....O.O.O.O...................O.O.O.O...............O.....O.O.O.O.O.....O.......O.........O.......O.O.O...",
"X o o X o o o o o o o o o o o o o o o o o o o o o o o o o o o o o o o o o o o o o o o o o o o o o o o o o o o o o o o o o o o o o o o o o o o o o o o o o o o o o o o o o o o o o o o o o o o o o o o o o o o o o o o o o o o o o o o o o o o o o o o o o o o o o o o o o o o o o o o o o o o o o o o o o o o o o o o o o o o o o X o o o o o o o o o o o o o o o o o o o o o o o o o o o o o o o o o o o o o o o o o o o o X o o o o o o o o o o o o o o o o o o o o o o o o o o o o o o o o o o o o o o o o o o o o o o o o o o o o X X o o o o o o o o o o o o o o o o o o o o o o o o o o o o o o o o o o o o o o o o o o o o o o o o o o o o X o o X X o o o o o o o X X X X o X o X X X X X X X X X X X X . 3 S.Q.A.F.F.F.F.F.G.G.G.G.G.G.G.Q.G.G.G.G.G.F.A.A.G.Q.Q.A.S.S.OX*X*X*X*X$X#X#X&X#X&X&X&X&X&X&X*X*X$X&X&X$X#X$X$X&X&X&X&X&X&X&X&X&X$X$X#X*X$X$X$X&X#X#X#X$X#X#X#X&X#X&X#X#X#X#X#XoX#XoXoXoX.X].'.'.'.'.'.~.J.>.D.^.Q.Q.G.G.Q.Q.G.Q.G.G.G.G.F.F.S.G.Q.Q.Q.^.Q.Q.Q.Q.Q.^.Q.Q.G.Q.Q.^.^.^.Q.G.Q./.Q.Q.Q.Q.Q.G.!.Q.G.Q.Q.G.G.Q.^.^.Q.G.A.F.Q.Q.G.Q.G.G.Q./.Q.G.G.Q.Q.G.Q.^.Q.^.^.Q.Q.Q.G.G.^.Q.G.Q.Q./.Q.G.F.F.Q.Q.Q.^.Q.G.G.G.Q.^.^.Q./.^.Q.G.Q.Q.Q.Q.Q.Q.G.Q.^.^.Q.^.Q.Q.^.Q.Q.^.^.^././.^.^.^.Q.^.^.^.^.Q.^.^./.^.^.G.G.^.^.^././.^.^./.Q.G.G.G.Q.^.^.Q.Q.Q.G.Q.Q.Q.Q.Q.Q.Q.^.Q.Q.Q.Q.Q.Q.Q.^.^.^.^./.^.^././.Q.^./.^./././.^.^.^.^.^.Q.Q.^.^.^.^.^.^.Q.Q.^.Q.^.Q.Q.G.Q.^.Q.^.^.^.^.^.^././.Q.^.Q.^.^.G.G.Q.Q.Q.^././.^.^././.Q.^.Q.Q.Q.^.^.Q.Q.^.Q.Q.Q.G.Q.Q.Q.Q.G.Q.Q.Q.Q.G.G.Q.G.G.Q.Q.Q.Q.Q.Q.Q.Q.Q.Q.G.G.Q.Q.^.^.^.^.Q.G.G.F.F.G.F.F.Q.G.Q.G.G.G.G.G.G.G.F.G.D.3 . X X   X X       X   X X       X                                                                                                                                           . . # 5 G  .$.%.%.%.X.X...................................................................O.O.......O.O.O.O.O.O.........O.O.O.O.....................................................O.O...........O.O.O.O.....O.....O.........",
"o o o o o o o o o o o o o o o o o o o o o o o o o o o o o o o o o o o o o o o o o o o o o o o o o o o o o o o o o o o o o o o o o o o o o o o o o o o o o o o o o o o o o o o o o o o o o o o X o o o o o o o o o o o o o o o o o o o o o o o o o o o o o o o o o o o o o o o o o o o o o o o X X o o X o o o o o o o o o o o o X o X o o o o o o o o o o o o o o o o o o o o o o o o o o o o o o o o o o o o o o o o o o o X o o o o o o o o o o o o X o o o o o o o o o o o o o o o o o o o o o o o o o o o o o o o o o o o o o o o X X X o o o o o o o o o o o o o o o o o o o o o o o o o X X o o o o o o o o o o o o X X o o o o o o o o o o X X o o o o o o o X X X X X X X X X o X X o o X X X X X X X X . r W.Q.Q.A.A.G.F.F.G.Q.G.F.G.G.F.G.G.G.G.G.A.A.F.F.A.G.Q.A.Z.S.OX*X*X*X*X*X$X#X#X#X&X&X&X#X#X&X&X*X*X&X&X&X&X&X&X=X*X&X&X&X&X&X&X&X&X&X*X&X*X*X&X$X&X#X#X&X*X&X#X&X&X$X&X&X&X&X$X$X$X#X#X#X#X#XoXoXoXoXoX'.~.,.D.^.^.Q.!.Q.G.Q.G.Q.G.Q.Q.^.^.Q.G.Q.Q.G.Q.G.G.G.Q.G.G.G.Q.Q.Q.Q.S.G.Q.Q./.Q.S.Q.Q.^.G.Q.G.F.G.G.Q.Q.Q.Q.G.Q.Q.Q.Q.Q.Q.Q.Q.Q.Q.Q.Q.Q.Q.Q.Q.^.Q.Q.G.Q.G.Q.G.Q.^.^.Q.Q.Q.Q.Q.Q.Q.Q.Q.Q.Q.Q.Q.Q.Q.Q.Q.Q.Q.Q.F.F.G.G.Q.Q.Q.^.Q.Q.G.^./.Q.Q.Q.Q.G.G.G.A.Q.^.Q.Q.^.Q.G.G.Q.^.^.^.Q.Q.^.^.^.^.Q.Q.Q./././././.^.Q.G.Q.Q.^.^.^.^./.^.Q.Q.Q.Q.G.Q.Q.Q.Q.Q.Q.Q.Q.Q.G.Q.Q.Q.G.Q.Q.^./.^.Q.Q.Q.Q.^.^.Q.Q.Q.Q.Q.^.^.^././.^.^./.^.G.^.Q.Q.Q.Q.^.^.^.^.^.Q.Q.^.Q.^.^.Q.^.^.^.Q.G.^.^././.^.Q.Q.Q.Q.^.^.^.^.^.Q.^.^.^.G.Q.Q.Q.Q.^.Q.Q.Q.Q.G.G.G.G.Q.Q.G.G.G.G.Q.!.Q.G.Q.Q.Q.Q.G.Q.Q.Q.G.Q.Q.Q.^.Q.G.Q.^.Q.G.G.G.Q.Q.G.G.Q.^.!.!.G.F.G.G.F.F.G.G.G.Q.!.G.G.G.G.G.F.D.- . X       X X X     X X X X                                                                                                                                                 . . . . . # 5 Y  .$.%.%.+.X...........................................................O.....O.....O...........O.O...........O...O...........O...............O.O.O.O.................O.........O.O.O.......O...O.......O.O.O...",
"o X X o o o o o o o o o o o o o o o o o o o o o o o o o o o o o o o o o o o o o o o o o o o o o o o o o o o o o o o o o o o o o o o o o o o o o o o o o o o o o o o o o o o o X o o o X o o o o o o o o o o o o o o o o o o o o o o o o o o o o o o o o o o o o o o o o o o o o o o o o o o o X o o o o o o o o o o o o o o o o o o X o o o o o o o o o o o o o o o o o o o o o o o o o o o o o o o o o o o o o o o o o o o o o o o o o o o o o o o o o o o o o o o o o o o o o o o o o o o o o o o o o o o o o o o o o o o o o X X o o o o o o o o o o o o X o o o X X o o o o o o o o o o o o o o o o o o o o o o o o o o o o o o o o o o o o o X o o o o X X o o o o o o o X X o X X X X X X o X X X X X X X . s ^.Q.!.F.A.F.F.G.G.G.G.Q.F.G.G.F.F.G.G.!.G.Z.A.G.F.F.G.A.Z.S.OX*X*X*X$X*X*X$X#X&X&X&X&X&X&X&X&X&X&X&X&X&X&X&X&X&X&X&X&X&X&X&X&X&X&X&X&X=X&X&X&X$X&X$X&X#X&X=X&X&X&X&X&X&X&X&X&X&X=X*X&X&X&X&X#X#XoX#X#XoX'.N.D.Q.Q.Q.Q.Q.Q.F.G.G.Q.Q.Q.Q.Q.Q.Q.Q.G.Q.Q.^.^.^.^.Q.G.Q.Q.Q.Q.Q.^.S.G.Q.Q.^.Q.G.Q.^.Q.G.^.Q.Q.Q.Q.G.Q.Q.Q.Q.Q.G.G.Q.Q.Q.^.^.Q.^.Q.Q.G.Q.Q.G.Q.Q.Q.Q.^.Q.Q.Q.Q.Q.Q.Q.Q.G.Q.Q.Q.Q.Q.Q.G.Q.G.Q.Q.Q.^.^.Q.^.Q.Q.G.G.F.G.F.Q.G.G.Q.G./.^.Q.Q.Q.G.F.Q.G.S.Q.Q.Q.Q.!.Q.G.Q.Q.^.^.Q.Q.Q.G.Q.^.Q.Q.Q.^.^.^.^./.^.^.Q.Q.Q.Q.^.Q.^.Q.^.^.^.^.Q.Q.Q.Q.Q.Q.Q.^.Q.^.^.Q.Q.Q.Q.Q.Q.Q.Q.^././.^.Q./.^.^.Q.Q.Q.Q.Q.Q.Q.Q.^./.^.Q.^.^.G.F.Q.Q.S.G.Q.Q.^.Q.^.^.Q.Q.Q.Q.Q.^.^.^.^.^.Q.G.G.Q.Q.^.^.Q.^./.^././.^./.Q.^.Q.^.Q.Q.Q.Q.^.^.Q.^.^.Q.Q.^.G.G.Q.^.^.Q.Q.Q.G.Q.Q.Q.Q.Q.G.Q.Q.G.Q.Q.^.G.Q.Q.Q.G.Q.^.^./.^.^.^.^.^.^.^.Q.Q.!.Q.G.F.G.F.G.F.F.G.F.G.G.G.G.G.G.Q.G.N.- . X   X X X X X X   X X                                                                                                                                                         . . . . . . # 5 Y  .$.Y.%.%.X.X.X.+.O...............................................................O...................................O.O...........................O.....O...O.O.....O.O.O.O...O.O.....O.....O.........",
"o X X o o X o o o o o o o o o o o o o o o o o o o o o o o o o o o o o o o o o o o o o o o o o o o o o o o o o o o o o o o o o o o o o o o o o o o o o o o o o o o o o o o o o o o o o o o o o o o o o o o o o o o o o o o o o o o o o o o o o o o o o o o o o o o o o o o o o o o o o o o o o o o o o o o o o o o o o o o o o o o X X o o o o o o o o o o o o o o o o o o o o o o o o o o o o o o o o o o o o o o o o o o o o X X o o o o o o o o o o o o o o o o o o o o o o o o o o o o o o o o o o o o o o o o o o o o o o o o X X o o o o o o o o X o o X X o o o X o o o o o o o o o o o o o o o o o o o o o o o o o o o o o o o o o o o o o X o X X o o o o o o X X X o o o o X X X X X X X X X X X X   X . s (./.Q.Q.A.G.G.G.G.G.G.G.F.F.G.G.F.G.F.F.Q.!.A.A.G.G.G.G.Z.^.OX*X*X*X$X$X$X&X#X$X&X&X&X&X&X&X&X&X*X*X&X&X&X&X&X$X&X*X*X&X&X&X&X&X&X&X=X*X=X*X*X&X&X&X&X$X&X*X=X&X&X=X*X&X&X&X#X#X#X*X=X=X&X*X*X$X&X&X#X#X}.N.S.^.Q.Q.Q.Q.G.G.F.Q.Q.Q.^.Q.Q.Q.^.G.F.G.Q.^.^.^.^.^.G.G.Q.G.^.Q.^./.S.Q.Q.Q.^.Q.G.Q.Q.G.Q.Q.^.^.Q.Q.Q.Q.Q.Q.Q.!.^.^.Q.Q.G.G.Q.G.Q.Q.Q.G.G.G.Q.Q.Q.Q./.^.Q.Q.Q.Q.G.Q.Q.^.Q.Q.^.^.^.^.^.^.Q.S.Q.Q.Q.Q.G.F.G.Q.^.^.G.F.S.G.^.G.Q.G.Q.Q.Q.Q.Q.Q.!.Q.^.Q.Q.Q.Q.^.Q.Q.G.Q.Q.Q.Q.Q.Q.Q.G.Q.Q.Q.Q.Q./././.^.^.Q.^.G.G.Q.^.Q.^./.^.^./.^.Q.Q.^.Q.Q.^.Q.^.^.Q.^.!.Q.Q.Q.Q.Q.Q.Q.^.^.Q.^././././.^.Q.^.^.Q.Q.^.^.Q.Q.Q.Q././.^.G.G.G.G.G.^.^.Q.^.^.^.Q.Q.Q.Q.G.Q.Q.Q.^.Q.^.^./.^.G.Q.^.Q.^.^.Q./.^.Q.Q.^.^././.^.Q.Q.Q.Q.Q.^.Q.Q.^./.^.^.Q.Q.Q.Q.^.Q.G.Q.Q.G.Q.!.^.Q.Q.^.^.^.^.^.^.Q.Q.Q.Q.G.G.Q.Q.^.^.Q.^.Q.Q.!.Q.Q.G.!.G.G.G.G.F.F.Q.G.F.F.G.F.F.F.G.Q.Q.G.,.- . X X X X X X X           X X X X   X                                                                                                                                                     . . . . # 5 Y  .$.%.%.%.+.X.X.O.....................................O...............O.......O...........O.....................O...........................O.O.O.O.....O.O.O...............................O.....",
"o X o o X o o o o o o o o o o o o o o o o o o o o o o o o o o o o o o o o o o o o o o o o o o o o o o o o o o o o o o o o o o o o o o o o o o o o o o o o o o o o o o o o o o o o o o o o o o o o o o o o o o o o o o o o o o o o o o o o o o o o o o o o o o o o o o o o o o o o o o o o o o o o o o o o o o o o o o o o o o o o X o o o o o o o o o o o o o o o o o o o o o o o o o o o o o o o o o o o o o o o o o o o o o o o o o o o o o o o o o o o o o o o o o o o o o o o o X o o o o o o o o o o o o o X o o o o o o o X o X X o o o o o o o o o o o o o o o o o o o o o o o o o o o o o o o o o o o o o o o o o o o o o o o o o o o o X X X X o o o o o X X X X X o o o o X o o X X X X X X X X X   X . T (./.^.^.Q.F.G.G.G.G.G.Q.F.F.F.G.G.G.F.F.F.G.Q.F.F.G.G.A.4.S.OX*X*X*X$X$X&X&X$X&X&X$X$X&X$X$X&X&X*X=X*X*X&X$X&X$X&X&X$X&X&X$X$X$X&X&X&X*X*X*X&X*X*X*X&X&X*X=X=X*X*X=X=X*X&X&X&X&X&X&X&X&X&X&X$X&X&X&X#X#X'.N.S.^.^.Q.Q.Q.Q.Q.G.G.G.Q.Q.Q.^.Q.Q.Q.F.Q.G.Q.Q.Q.^.^.Q.Q.Q.Q.^.Q.Q./.^.G.^.Q.Q.Q.Q.Q.Q.G.Q.Q.G.G.Q.Q.Q.Q.Q.Q.G.^.Q.Q.^.G.G.G.G.Q.Q.Q.Q.^.G.G.Q.^.Q.Q./.^.^.Q.G.Q.G.G.G.Q.Q.Q.Q.Q.^.Q.Q.^./.Q.G.G.Q.Q.Q.G.G.G.G.Q.^.Q.Q.Q.^.^.G.Q.G.G.Q.Q.Q.Q.Q.Q.Q.G.G.^.Q.Q.Q.G.G.A.Q.Q.Q.^.Q.Q.Q.^.^.^.^.^.^.^.^.Q.^.^.^.G.Q.Q.Q.Q.^.^.^.^.^./.Q.!.Q.Q.G.Q.Q.Q.Q.!.!.^.Q.^.Q.^.^.^.^.^.^.^.^.^.^.^.^./.^./././.^.^.Q.Q.^.Q.^.^.^./.^.!.^.Q.G.Q.^.^.Q.^.^././.^.Q.Q.^.Q.Q.^.Q.Q.^.^.^.^.^.^.Q.Q.Q.Q.^.^.^./.^.^.Q././.^.Q.Q.G.Q.Q.Q.Q.G.Q.Q.Q.^.^.Q.G.G.Q.Q.Q.^.Q.Q.Q.Q.Q.^.Q.Q.Q.Q.Q.G.Q.Q.Q.Q.G.G.^.^.^.^.^.!.Q.G.G.G.Q.G.G.G.Q.G.F.!.Q.G.G.Q.G.Q.G.G.F.G.Q.Q.Q.,.# o X X X X X X X X X X         X   X X                                                                                                                                                           . . . . @ 5 0 | Y.Y.%.%.X.......O.....O.O.........................O.O...............O.O...........................O.........O...............................................O.....................O.......",
"X X o X X o o o o o o o o o o o o o o o o o o o o o o o o o o o o o o o o o o o o o o o o o o o o o o o o o o o o o o o o o o o o X X o o o o o o o o o o o o o o o o o o o o o o o o o o o o o o o o o o o o o o o o o o o o o o o o o o o o o o o o o o o o o o o o o o X o o o o o o o o o o o o o o o o o X o o o o o o o o o o X o o o o o o o o o o o X o o o o o o o o o o o o o o o o o o o o o o o o o o o X o o o o o o o o o o o o o o o o o o o o o o o o o o o o o o o o o o o o o o o o o o o o o o o o o o o o o o o X o o o o o o o o o o o o o o o o o o o o o o o o o o o o o o o o o o o o o o o o o o o o o o o o X X X X X X X o o o X X o o X X o X X X X X X o X X X X X X X X X X X X o . E (.^.Q.Q.!.Q.Q.G.Q.G.Q.Q.Q.F.F.F.!.G.Q.G.G.F.F.G.F.Q.Q.A.4.Q.OX*X*X=X$X$X&X#X#X$X&X&X&X&X#X$X&X*X&X*X=X&X&X&X&X$X&X&X&X#X&X&X#X&X$X$X$X&X$X&X&X&X=X*X&X*X*X*X=X=X*X&X*X=X=X&X&X&X*X&X&X&X&X&X&X&X#X&X#XoX'.N.S.^.^.Q.Q.^.Q.^.Q.G.Q.Q.Q.Q.Q.Q.Q.^.G.G.Q.G.G.G.Q.G.G.Q.Q.Q.Q.^.Q.Q.Q.Q.Q.^.Q.Q.Q.Q.Q.G.Q.Q.^.Q.Q.Q.Q.Q.^.G.Q.Q.Q.G.Q.G.G.Q.G.Q.Q.Q.^././.^.Q.^./.Q.Q.^.^.^.Q.^.^.Q.G.G.G.Q.!.!.Q.^.Q.Q.Q.^.^.G.G.Q.Q.!.G.G.G.F.G.Q.!.G.G.Q.G.Q.Q.G.Q.G.Q.Q.Q.Q.G.G.A.G.Q.G.Q.Q.^.G.S.G.Q.Q.Q.Q.Q.Q.F.Q.G.G.G.Q.^.^.^.^.^.^.^.^.Q.Q.Q.Q.^.^.Q.^.^.^.Q.Q.Q.Q.G.Q.Q.Q.!.^.Q.Q.^.^.^.^.^.^.^.Q.^.^.^.^.^././.^.Q./.^.Q.Q.G.^.Q.^.^.^.^.^.Q.Q.Q.Q.Q.G.Q.Q.Q.Q.^.Q.^./.^.^.^.Q.Q.^.Q.^.Q./.^.Q.Q.^.Q.Q.^.Q.^.^.Q.^.^.Q.^./././.^.^.Q.^.Q.Q.^.Q.Q.G.G.Q.!.Q.F.G.Q.G.Q.^.Q.G.Q.^.Q.^.Q.^.^.^.Q.Q.^.Q.G.G.^.^.^.^.^.!.!.!.G.G.G.Q.^.F.F.G.G.G.G.Q.Q.Q.Q.G.Q.!.Q.G.G.Q.Q.G.,.@ o o X X o X X X X X X X X     X X X             X                                                                                                                                                         . . @ 5 0 | #.%.%.@.+.O...O...O.O...........................................O.O.O.O.......................................................O.O...................O.O.................O...O.O.O.O.",
"o X X X o o o o o o o o X X o o o o o o o o o o o o o o o o o o o o o o o o o o o o o o o o o o o o o o o o o o o o o o o o o X X X o o o o o o o o o o o o o o o o o o o o o o o o o o o o o o o o o o o o o o o o o o o o o o o o o o o o o o o o o o o o o o o o o o o o o o o o o o o o o o o o o o o o o o o o o o o o o o o o o o o o o o o o o o o o o o o o o o o o o o o o o o o o o o o o o o o o o o o o o o o o o X o o o o o o o o o o o o o o o o o o o o o o o o o o o o o o o o o o o o o o o o o o o o o o o o o o o o o o o o o o o o o o o o o o o o o o o o o o o o o o o o o o o o o o o o o o o o o o o o o o o X X o o X X o o o X X o o X X X X X X X o X X X X X X X X X X X X X X X X . >.(.^.Q.G.G.F.G.G.G.Q.Q.G.Q.F.G.F.F.G.F.F.F.F.F.A.A.A.F.A.4.Q.OX*X*X*X*X&X&X&X$X&X$X&X$X&X$X&X&X&X*X*X=X*X&X&X$X$X&X$X&X$X$X$X&X&X$X$X&X$X&X$X&X&X&X&X&X*X*X&X*X*X&X&X&X&X*X=X*X&X&X&X&X=X$X&X=X&X&X&X#XoX~.N.Q.^.^.^.Q.Q.Q.^./.G.G.Q.Q.G.Q.Q.Q.Q.Q.G.G.G.G.G.G.G.G.G.G.G.Q.G.Q.G.F.Q.Q.Q.^.Q.Q.Q.G.Q.G.G.G.Q.Q.Q.Q.Q.^.Q.Q.Q.Q.^.Q.G.G.Q.Q.Q.Q.G.Q.^.^.^.^.Q.Q.^.Q.^.^.^.^.^.^.^.Q.Q.G.G.G.Q.Q.Q.^.^.Q.Q.Q.Q.^.G.Q.Q.G.Q.Q.G.G.G.Q.G.G.G.G.Q.G.G.G.G.G.G.Q.G.Q.Q.F.F.Q.G.Q.^.Q.^.^.Q.Q.^.Q.^.Q.Q.Q.Q.Q.G.G.G.Q.Q./.^././././././.(././././././.^.^.Q.^.^.Q.Q.Q.Q.Q.^./.^./././.^././.^.^.^.^.^.Q.Q.Q.^.Q.^.Q.Q.^.Q.Q.^.Q.^.^.Q.Q.^.Q.Q.Q.Q.Q.^.G.G.Q.Q.Q.^.^.^./.^.^./.Q.^.^.^.^.Q.^.Q.^.Q.Q.Q.Q.Q.Q.Q.Q.Q.^.Q.^.^.^.^.Q.^.Q.^.^.^.Q.^.^.Q.Q.Q.Q.Q.Q.G.Q.Q.G.G.Q.Q.Q.G.Q.^.^.G.^./.^.Q./.Q.^.G.G.^.^.Q.Q.Q.G.Q.G.G.Q.!.^.!.G.G.G.G.Q.G.G.G.Q.Q.!.Q.!.G.G.Q.G.Q.,.@ X o X o X X X X X X X X X X X X X                 X X                                                                                                                                                     . . .   . @ 5 0 [ #.%.%.%.+.X.......O...O.O...................................................................O.O...O.....................O.O...................O.O.................O...O.O...O.",
"o o o o o o o o o o o o o X o o o o o o o o o o o o o o o o o o o o o o o o o o o o o o o o o o o o o o o o o o o o o o o o o o X X o o o o o o o o o o o o o o o o o o o o o o o o o o o o o o o o o o o o o o o o o o o o o o o o o o o o o o o o o o o o o o o o o o o o o o o o o o o o o o o o o o o o o o o o o o o o o o o o o o o o o o o o o o o o o o o o o o o o o o o o o o o o o o o o o o o o o o o o o o o o o o o o X o o o o o o o o o o o o o o o o o o o o o o o o o o o o o o o o o o o o o o o o o o o o o o o o o o o o o o o o o o o o o o o o o o o o o o o o X o o o o o o o X o o X o o o o o o o o o o o o X X X o o o o o o X o o o X X X X X X X o X X X X X X X X X X X X X   X X . >.(.^.Q.G.G.F.G.G.F.Q.Q.Q.G.G.F.G.G.G.G.F.F.G.G.F.A.A.Z.A.Z.^.OX*X*X*X*X*X&X$X$X&X&X$X$X$X&X&X&X$X&X*X*X*X*X&X&X&X&X*X$X&X&X&X&X$X#X&X&X&X&X&X*X&X#X#X&X*X*X&X&X=X&X&X&X&X&X*X*X*X&X&X&X*X*X&X&X=X=X*X$XoX~.N.^./.^././.G.Q.Q.Q.Q.F.G.G.G.G.Q.Q.^.Q.G.Q.Q.G.G.G.Q.G.Q.Q.Q.Q.Q.G.Q.Q.F.Q.Q.Q.^.Q.Q.G.Q.G.Q.Q.Q.Q.G.Q.Q.^.!.Q.Q.Q.Q.G.G.G.Q.^.G.G.G.G.Q.Q.Q.Q.^.^.^.Q.^.^.^.^./.^.^.^./.^.Q.G.Q.Q.Q.^.Q.Q.Q.Q.!.^.G.G.^.^.Q.Q.Q.Q.^.Q.G.G.G.G.Q.Q.S.G.G.Q.G.Q.G.G.Q.Q.Q.Q.^.Q.^.^.^.^.Q.Q.Q.Q.^.Q.Q.Q.Q.^.^.^.Q.Q.Q./.^.^.^.^.^.^.D.D.D.S.S.S.^././.(.(././.(.(.(.(.(./.(./././././.^./.^././.^.^././.^.^.^.Q.Q.^./.Q.^.Q.G.Q.Q.Q.Q.Q.Q.^.Q.Q.Q./.^.G.G.Q.Q.^.^././.^./.^.^././.Q.^.^.Q.^.^.^.Q.Q.G.Q.Q.Q.Q.^.Q.^.Q.Q.^.^.Q./.^.^.^.^.Q.Q.^./.^.Q.^.Q.^.^.Q./.^.Q.Q.^.^.^././.^.^.^./.Q.Q.^.^.Q.^.Q.Q.^.^.Q.Q.G.G.!.G.G.Q.!.^.Q.Q.G.G.G.G.G.G.Q.G.G.Q.Q.G.G.Q.G.Q.>.@ O o X X X X X X X X X X X X X X X X X X                                                                                                                                                                           .     . @ % q [ #.%.%.%.+.X.O.O.O...O.....O.O.....O.............................................O.O.......O...........O.O.O.O.....O.O.O.......................O.O.....................O.",
"X o o o o o o o o o o o o o o o o o o o o o o o o o o o o o o o o o o o o o o o o o o o o o o o o o o o o o o o o o o o o o o o o X X o o o o o o o o o o o o o o o o o o o o o o o o o o o o o o o o o o o o o o o o o o o o o o o o o o o o o o o o o o o o o o o o o o o o o o o o o o o o o o o o o o o o o o o o o o o o o o o o o o o o o o o o o o o o o o o o o o o o o o o o o o o o o o o o o o o o o X o o o o o o o o o o o o o o o o o o o o o o o o o o o o o o o o o o o o o o o o o o o o o o o o o o o o o o o o o o X o o o o o o o o o o o o o o o o o o o o o o o X o o o o o o o o o o o o o o o o o o o o o o o o X o o o o X X o o o o o X X X o X X X X o X X o X X X X X X X X X     . # ,./.^.Q.G.G.G.F.G.G.G.G.Q.G.Q.G.F.F.F.G.G.G.G.Q.Q.G.G.F.Z.A.(.OX*X*X*X*X$X&X&X$X&X$X$X&X&X&X&X&X&X&X&X&X&X&X*X*X&X&X*X&X$X#X#X$X&X&X$X&X&X*X=X=X&X&X#X&X=X=X*X&X&X&X*X*X&X&X*X&X&X&X&X&X*X*X*X&X&X=X*X$XoX~.D.^././.^./.G.G.Q.^.^.Q.Q.^./.Q.Q.G.Q./.^.Q.^.^.Q.S.Q.Q.Q.^.Q.Q.Q.^.Q.Q.Q.Q.Q.Q.Q.Q.G.F.Q.Q.G.Q.Q.Q.Q.Q.G.^.Q.Q.Q.G.Q.G.F.G.Q.^.Q.Q.Q.F.Q.Q.Q.Q.G.Q.Q.^.Q./.^.^./.^.^.G.Q./././.Q.Q.Q.Q.Q.Q.Q.G.Q.Q.^.Q.^./.^.Q.G.Q.Q.Q.Q.Q.^.Q.Q.Q.Q.G.Q.Q.Q.Q.G.Q.Q.Q.^.Q.Q.Q.^.Q.Q.Q.Q.^.Q.G.Q.Q.Q.^.Q.Q.Q.^.Q.Q.Q.^.^.Q.Q.Q.Q.D.T T T E E E E E >.>.>.,.,.,.N.D.D.S.S.S.S.S.Q.^.(.(.(.(.(.(.(.(.(.(.(.(.(./././.(././.^.Q.Q.Q.^.^.Q.Q.Q.^.^.^.^./.^.^.Q.^./.^.^./.Q.Q.Q./././.^.^.^.^.Q.^.^.Q.Q.!.Q.Q.Q.Q.G.Q.Q.Q.^.^.Q.^.^.Q.^./.Q.Q.Q.G.Q.^.^.Q.Q.^./.^./.^.^./.^.Q.G.G.G./.Q.^.^.^.Q.^.^.Q.Q.^.Q.G.Q.^.Q.G.G.!.!.G.Q.Q.Q.^.Q.G.G.Q.Q.Q.G.G.G.F.G.Q.Q.!.Q.Q.^.E . o X X X X X X X X X X X X X X X X X X X X X X X                                                                                                                                                                           . . . . % q [  .$.%.%.+.+.X.O.O.O.O.O.O.O.O.O...........................O.....O.O.........O.O.O...O.O.O.O...O.O...O.O...................................O.....................O.",
"o o X o o o o o o o o o o o o o o o o o o o o o o o o o o o o o o o o o o o o o o o o o o o o o o o o o o o o o o o o o o o o o o o o o o o o o o o o o o o o o o o o o o o o o o o o o o o o o o o o o o o o o o o o o o o o o o o o o o o o o o o o o o o o o o o o o o o o o o o o o o o o o o o o o o o o o o o o o o o o o o o o o o o o o o o o o o o o o o o o o o o o o o o o o o o o o o o o o o o o o o o o o o o o o o o o o o o o o o o o o o o o o o o o o o o o o o o o o o o o o o o o o o o o o o o o o o o o o o o o o o o o o o o o o o o o o o o o o o o o o o o o o o o o o o o o o o o o o o o o o o o o o o o o o o X o X X X X X o o o o o X X o X X o o o X X X X X X X X X X X X X X X # N.^.Q.F.Q.Q.G.Q.G.G.G.G.G.Q.G.F.G.Q.G.Q.!.G.G.G.G.G.Q.F.Z.Q.}.*X*X*X=X=X*X&X&X&X&X#X#X&X&X&X&X&X&X&X$X$X&X&X&X*X=X&X*X*X&X&X$X#X&X&X*X&X$X&X&X*X*X&X&X*X=X=X*X&X#X#X#X&X*X&X*X=X&X*X=X*X*X&X*X=X&X*X*X$XoX~.D.^.^.^././.G.Q.^.Q.^.Q.G.Q.Q.^.G.^.Q.Q.^.G.G.G.^.S.S.Q.Q.^.Q.Q.Q.G.G.Q.Q.Q.Q.^.Q.G.F.Q.G.Q.Q.G.G.Q.Q.F.G.G.Q.^.G.Q.Q.G.A.G.Q.Q.Q.Q.Q.G.F.G.Q.Q.G.Q.Q.^.Q.^.Q.^.Q.Q.Q.Q.G.G.Q.Q.Q.Q.Q.^.Q.Q.Q.G.F.Q.Q.^.^.^.Q.Q.Q.G.G.G.G.G.G.Q.^.^.^.^.^.^.^.^./.Q.Q.Q.Q.Q.Q.Q.Q.Q.Q.Q.Q.Q.Q.^.^.^.^.^.Q.Q.S.G.Q.Q.G.Q.^.^./.^.S.D.S.J.J.J.J.N.N.m.m.m.>.>.>.>.>.>.>.>.E E E E E >.>.,.,.,.,.,.m.N.D.S.S.S.S.^.^.(.(.(.(./././.(./.(./.(././././././././.^.^././.^.Q.G.G.^.^./././././.^.Q.G.F.G.G.G.Q.Q.G.G.G.Q.Q.Q.Q.Q.Q.Q.Q.G.Q.^.Q.^.^.^.Q.Q.Q.Q.Q.^.^././.^.Q././.^.Q.G.G.G.G.Q.Q.^.Q.Q.Q.Q.G.Q./.Q.Q.Q.^.^.^.G.G.G.^.Q.^.^.Q.G.Q.^.Q.Q.Q.Q.!.G.F.A.F.Q.Q.Q.^.E . o X X X X X X X X X X X X X X X X X X X X X X X           X X   X                                                                                                                                                               . . . . % q G  .$.%.%.%.%.+.+.+.+.+.O.O.O.....................................................O.O.O.O.O...O...........O...........................................O.O.....",
"o o o o o o o o o o o o o o o o o o o o o o o o o X o o o o o o o o o o o o o o o o o o o o o o o o o o o o o o o o o o o o o o X X X o o o o o o o o o o o o o o o o o o o o o o o o o o o o o o o o o o o o o o o o o o o o o o o o o o o o o o o o o o o o o o o o o o o o o o o o o o o o o o o o o o o o o o o o o o o o o o o o o o o o o o o o o o o o o o o o o o o o o o o o o o o o o o o o o o o o o o X X o o o o o X o o o o o o o o o o o o o o o o o o o o o o o o o o o o o o o o o o o o o o o o o o o o o o o o o o o o o o o o o o o o o o o o o o o o o o o o o o o o o o o o o o o o o o o o o o o o o o o o o o o o X o o o o o o o o o o X X X o X X X X X X X X X X X X X X X X X X X . - N.^.G.G.G.F.G.G.G.G.G.G.G.A.F.G.Z.F.G.G.G.G.G.F.F.G.G.G.Z.D.OX*X$X*X*X*X=X*X*X*X=X&X&X=X=X&X&X&X&X&X$X&X#X#X#X#X$X*X$X&X=X*X=X*X$X&X&X&X&X#X$X$X*X&X&X&X&X*X*X*X&X&X&X&X=X=X*X=X=X=X=X=X=X*X*X=X=X=X*X*XoXJ.D.(.^.^./.^.^.Q.^.Q.Q.^.^./.Q.^.Q.Q.Q.G.^.^.G.G.Q.Q.A.S.F.G.Q.G.F.G.Q.F.G.Q.G.G.G.Q.F.G.F.A.G.Q.G.G.G.F.G.G.G.G.G.^.Q.Q.Q.F.Q.Q.Q.Q.Q.Q.G.G.Q.Q.Q.Q.Q.Q.Q.G.Q.G.Q.Q.Q.Q./.Q.Q.Q.Q.Q.Q.Q.A.G.Q.^.Q.G.G.Q.Q.^.^.^.Q.Q.Q./.^.Q.Q.Q.G.Q.^.Q.Q.^.^.^.^.^.Q.^.^./.G.S.Q.^./.^.^.Q.G.G.Q.Q.Q.Q.Q././.Q.Q.^.^.Q.Q.^.Q.Q.S.(.OX}.oXoX{.'.{.'.'.'.'.'.'.~.~.~.~.~.~.J.J.J.N.N.N.m.>.>.>.E >.E E E E E T T E E >.,.,.,.,.,.N.D.D.D.S.S.^.^.^.(.(.(.(.(.(.(.(.(./././.(.(./././.^.G.Q.Q.Q.G.Q.Q.Q.Q.F.G.G.F.Q.G.G.Q.Q.Q.^.^.Q.G.Q.Q.Q.^.^.^.Q.Q.Q.^.Q.^.^.^.^.Q.Q././.^.^.G.G.^.^.^.Q./.^.Q.Q.Q.Q.Q.Q.Q.^.^.Q.!.G.!.Q.Q.Q.^.Q.Q.Q.^.^./.Q.G.F.F.G.Q.Q.G.G.!.^.G.s . o X X o o X X X X X X o X X X X X X X X X X X X X       X X     X       X X                                                                                                                                                         . . . . . % q G  .#.*.X.%.+.+.+.O.O...................................................................O.....O.O.O.O.O.O.O...............................O...O.........",
"o o o o o o o o o o o o o o o o o o o o o o o o o o o o o o o o o o o o o o o o o o o o o o o o o X o o o o o o o o o o o o o o X o o o o o o o o o o o o o o o o o o o o o o o o o X o o o o o o o o o o o o o o o o o o o o o o o o o o o o o o o o o o o o o o o o o o o o o o o o o o o o o o o o o o o o o o o o o o o o o o o o o o o o o o o o o o o o o o o o o o o o o o o o o o o o o o X o o o o o o o o o o o o o o o o o o o o o o o o o o o o o o o o o o o o o o o o o o o o o o o o o o o o o o o o o o o o o o o o o o o o o o o o o o o o o o o o o o o o o o o o X o o o o o o X o o o o o o o o o o o o o o o o o X o o o o o o o o o o o o X X X X X X X X X X X o X X o X X X X X X X X . - D.Q.G.G.A.F.F.F.F.G.G.G.G.A.Z.F.F.F.F.F.F.Q.F.G.F.F.G.G.Z.S.}.*X*X*X*X$X*X=X*X*X=X&X&X=X=X=X=X&X&X&X&X$X&X$X$X#X&X$X$X&X#X&X&X*X*X&X&X&X*X*X$X&X&X&X&X&X&X&X&X*X*X&X&X&X&X*X*X=X=X=X=X=X*X*X*X=X*X=X*X$XoXJ.D.^.^.^.^.^./.Q.G.^.Q.^.Q.Q.Q.Q.Q.Q.^.G.Q.Q.Q.Q.G.Q.G.F.A.F.Q.G.Q.Q.Q.G.F.G.A.G.G.G.G.G.G.F.G.G.Q.!.^.Q.G.!.G.G.S.G.F.G.A.S.Q.Q.Q.Q.!.Q.Q.G.Q.^.Q.G.Q.G.G.G.Q.Q.Q.Q.Q.G.Q.Q.G.G.Q.Q.Q.G.G.G.Q.G.Q./.Q.S.G.Q.^.^.^.^.^.Q.Q.^./.Q.Q.Q.G.Q.^.Q.G.Q.Q./.Q.Q.Q.Q.Q.G.S.G.^.^.^.^.Q.Q.A.S.G.G.Q.Q.^.^.Q.Q.Q.^.^.Q.Q.^.S.(.OXOX$X#X#X#X#X#XoX#XoXoXoXoXoXoXoXoXoX{.{.{.{.'.'.'.'.'.'.~.~.~.~.J.V.N.N.N.m.>.m.>.>.>.>.E E E E E E E E >.>.>.>.,.m.N.D.D.S.S.S.^.^.^.(.(././.^.Q.^.Q.Q.Q.^.!.Q.Q.Q.Q.F.F.F.Q.Q.Q.Q.Q.^.^.^.Q.^.^.Q.^.Q.Q.^.Q.Q.^.^.Q.Q.G.!.^.^.Q.Q.^././././.Q.Q.Q.Q.Q.Q./././.^.Q.Q.G.Q.Q.G.G.!.Q.Q.Q.Q.^.Q.Q.Q.Q.G.G.Q.Q.Q.Q.Q.Q.Q.Q.Q.Q.S.e . o X X + o X X X X X X o X X X X X X X X X X X X       X     X X X X X X   X                                                                                                                                                               . . . . @ 5 0 ) *.o.X.+.+.O.O.O.......................................................................O.O.O.....O...............................................",
"o o o o o o o o o o o o o o o o o o o o o o o o o o o o o o o o o o o o o o o o o o o o o o o X o X o o X o o o o o o o o o o o X o o o o o o o o o o o o o o o o o o o o o o o o o o o o o o o o o o o o o o o o o o o o o o o o o o o o o o o o o o o o o o o o o o o o o o o o o o o o o o o o o o o o o o o o o o o o o o o o X o o o o o o o o o o o o o o o o o o o o o o o o o o o o o o o o o o o o o o o o o o o o o o o o o o o o o o o o o o o o o o o o o o o o o o o o o o o o o o o o o o o o o o o o o o o o o o o o o o o o o o o o o o o o o o o o o o o o o o o o o o o o o o o X o o o o o X o o o o o o o o o o o o o o o o o X o o o o o o X X X X X X X o o o o X X X X X X X X X       . - S.^.Q.^.!.G.G.Q.G.F.G.G.F.F.F.F.G.G.G.G.F.F.G.G.G.G.G.F.4.D.OX*X*X=X*X*X*X*X&X&X&X&X&X#X&X&X&X&X&X&X$X$X$X&X&X$X$X$X&X$X&X#X&X$X$X&X$X&X$X&X*X*X&X&X&X*X*X&X&X*X*X*X&X&X&X&X*X=X=X*X=X=X*X*X=X=X*X*X$X#X{.J.S.^.^.^.Q.G.G.Q.Q.G.G.S.G.G.Q.F.G.Q.G.^.Q.Q.Q.G.Q.G.G.G.Q.Q.Q.G.Q.Q.Q.Q.G.Q.Q.Q.G.Q.G.Q.G.G.Q.G.Q.^.Q.^.Q.G.G.Q.Q.G.G.G.G.Z.F.Q.Q.Q.Q.Q.^.Q.Q.Q.Q.G.G.G.Q.Q.Q.Q.^.^.Q.G.Q.G.Q.Q.G.Q.Q.Q.Q.Q.Q.Q.Q.Q.^.Q.Q.G.G.G.G.G.S.G.Q.Q.Q.Q.^.^.G.G.Q.Q.G.G.Q.Q.^.^.Q.!.^./.^.G.G.Q.^.^.Q.^.Q.Q.Q.G.^.Q.Q.Q.Q.G.G.Q.Q.^.^.Q.S.}.*X*X*X*X$X*X$X&X&X$X&X$X$X$X*X$X$X*X$X#X#X#X#XoXoXoXoXoXoXoXoXoXoX{.'.'.'.'.'.'.'.'.'.'.~.~.~.~.J.J.J.V.V.N.N.m.m.>.>.>.>.E E E E E E E E T ,.^.(./.^.Q.^.^.Q.Q.^.Q./.^.!.Q.F.Q.!.^.Q.Q.Q.^.^.Q.^./.Q.Q.^.^.Q.Q.Q.Q.^.Q.G.G.^.!.G.Q.^.^.^./././.^.Q.^.^.^.Q.G.G.G.G.^.Q.F.F.G.Q.^.Q.G.Q.G.F.G.Q.Q.Q.^.G.G.Q.^./.^.Q.!.^.^.^.G.S.e . O o X + o X X X X o o X X X   X X X X X X X X X X X X X X X X X   X X     X X X X                                                                                                                                                                 . . . 5 J ` *...X.O...O.........................O.........................O.........O.O...O.O...O.O.O.O...O.O...........O.O.O.O.......O.........O.O.O...",
"o o o o o X o o o o o o o X X o o o o o o o o o o o o o o o o o o o o X o o o o o o o o o o o o o o o o o X o o o o o o o o o o X o o o o o o o o o o o o o o o o o o o o o o o o o o o o o o o o o o o o o o o o o o o o o o o o o o o o o o o o o o o o o o o o o o o o o o o o o o o o o o o o o o o o o o o o o o o o o o o o X X o o o o o o o o o o o o o o o o o o o o o o o X o o o o o o o o o o o o o o o o o o o o o o o o o o o o o o o o o o o o o o o o o o o o o o o o o o o o o o o o o o o o o o o o o o o o o o o X o o o o o o o o o o o o o o o o o o o o o o o o o o o o o X o o X o o o o o o o o o o o o o o o X o o o o o o o o o o o o X X X X X o X o X X X X X X X X X X X           3 S.^.F.Q.Q.!.Q.Q.Q.G.Q.F.G.F.F.G.F.A.A.F.G.G.G.G.F.G.G.F.A.S.OX*X*X*X*X$X#X&X*X*X&X&X&X&X&X&X&X&X&X&X#X$X#X$X&X$X&X$X$X$X$X&X#X&X$X$X#X#X#X&X$X&X&X&X&X&X*X*X*X=X=X*X=X=X*X*X*X=X=X=X=X=X=X*X=X=X=X$X$X#X{.J.S.(.^.^.Q.Q.Q.G.Q.S.G.G.G.Q.Q.S.A.F.Q.G.G.Q.Q.G.F.Q.G.F.G.G.Q.Q.G.Q.G.Q.G.Q.Q.Q.Q.G.Q.G.G.G.Q.Q.G.^.^.Q.^.G.G.Q.Q.Q.Q.Q.^.!.G.Q.^.Q.G.G.^.^.Q.^.Q.Q.Q.S.G.Q.Q.Q.Q.^./.Q.^.^.Q.^.Q.Q.Q.G.Q.Q.Q.Q.Q.G.Q.Q.Q.G.G.G.G.Q.G.F.G.G.G.Q.Q.^.^.G.^.^./.^.^.G.Q.^.Q.G.^.G.!.^.S.S.Q.Q.^.^.^.Q.^.^.Q./.^.^./.^.Q.Q./.Q.^.Q.D.OX*X*X*X*X=X*X*X*X=X=X=X*X*X=X=X=X*X=X=X*X$X&X&X&X$X#X#X&X&X$X&X&X&X#X$X#XoXoX#XoXoX#X#XoXoXoXoXoXoXoXoX].{.{.'.'.{.'.'.~.~.J.J.J.J.N.N.m.m.E I D.(././.^.Q.Q.Q.Q.Q.Q.Q./.^.Q.G.G.Q.Q.Q.Q.Q.Q.^.^.Q.G.Q.G.Q.^.^.G.G./.Q.Q.Q.Q.Q.G.G.!.^.^.^.^.^.^.^.^.^./.^.^.^.G.G.G.G.Q.!.Q.Q.!.Q.G.^.Q.^.G.G.F.G.Q.Q.G.Q.Q.!./.^.^.G.Q.!.^.^.S.r . o X o o o X X X X o o o X X X X X X X X X X X X X X X X X X X X X X X   X X X X X   X         X                                                                                                                                                     . . @ [ o.o.o.......................O.O.......O.........................O...O.................O.O.O.........O...........O.O.................O.O.O.O.O.",
"o o o o o o o o o o o o o X o o o o o o o o o o o o o o o o o o o o o o o o o o o o o o o o o o o o o o X o o o o o o o o o o o o o o o o o o o o o o o o o o o o o o o o o o o o o o o o o o o o o o o o o o o o o o o o o o o o o o o o o o o o o o o o o o o o o o o o o o o o o o o o o o o o o o o o o o o o o o o o o o o o o o o o o o o o o o o o o o o o o o o o o o o o o o o o o o o o o o o o o o o o o o o o o o o o o o o o o o o o o o o o o o o o o o o o o o o o o o o o o o o o o o o o o o o o o o o o o o o o o o o X o o o o o o o o o o o o o o o o o o o o o o o o o o o X X o X X o o o o X X o o o o o o o o o o o X X X X o o o o o o X X X X X X X X X X o X X X X X X X X X X       r S.Q.G.G.G.Q.G.G.G.G.F.G.G.G.F.G.G.G.G.F.F.S.G.G.G.G.G.Z.A.^.OX*X*X*X=X*X$X$X$X&X=X&X&X*X&X*X*X&X&X&X#X$X$X&X&X*X&X$X&X#X#X#X$X&X*X*X&X#X&X&X$X#X#X&X#X#X#X#X&X&X&X#X#X&X&X&X*X*X*X*X=X*X=X=X=X=X&X*X$X#X{.J.S.(.^.^.G.G.Q.^.Q.G.A.G.Q.G.G.Q.G.Q.Q.Q.Q.Q.Q.Q.G.G.Q.Q.Q.F.F.Q.Q.Q.Q.Q.Q.Q.Q.Q.Q.Q.G.Q.Q.Q.Q.Q.G.Q.^.Q.Q.G.G.G.G.S.G.G.G.Q.G.G.Q.Q.!.Q.Q.Q.G.G.Q.Q.^.Q.S.G.Q.Q.^.Q.^.Q.^.^./.Q.Q.Q.G.G.Q.Q.^././.^.Q.Q.G.Q.Q.Q.G.Q.Q.Q.G.Q.G.Q.Q.G.Q.G.G.Q././.Q.Q.G.Q.^.^.^.^.G.Q.Q.G.^.^.^.Q.Q.^.Q.^.Q.Q.Q.Q.^.^./.^.^.^./.^.S.OX*X*X=X*X=X*X*X=X*X*X=X&X&X=X=X=X=X=X=X=X=X=X*X*X*X&X&X&X=X=X=X&X&X=X&X&X&X&X$X&X$X&X*X*X*X$X*X&X$X&X$X$X#X#X#X#X#X#XoXoXoXoX{.'.'.'.'.'.~.N.>.D.^.Q.^.Q.G.Q.Q.Q.Q.^.^.Q.^.^.Q.G.Q.Q.G.Q.^.Q.G.^.^.^.Q.^.^./.^.Q.Q././.Q.Q.Q.S.G./.^.^.^.^.^.^.^.^.Q.Q.Q.Q.^.Q.Q.Q.Q.^.Q.^.Q.Q.G.^.G.^./.^.Q.Q.Q.Q.G.!./.^.^.^.Q.Q.Q.Q.Q.Q.^.^.Q.3 . o o + o X o o o o o o X X X X X X X X X X o X X X X X X X X X X o X X X X X X X X                                                                                                                                                                     . %  .o.o.o.............................O.......O.........................................O.....O.....................O...................O.........",
"o o o o o o o o o o o o o o o o o X X o o o o o o o o o o o o o X X X o o o o o o o o o o o o o o o o o o o o o o o o o o o o o o o o o o o o o o o o o o o o o o o o o o o o o o o X o o o o o o o o o o o o o o o o o o o o o o o o o o o o o o o o o o o o o o o X o o o o o o o o o o o o o o o o o o o o o o o o o o o o o o o o o o o o o o X o o o o o o o o o o o o o o o o o o o o o o o o o o o o o o o o o o o o o o o o o o o o o o o o o o o o o o o X o o o o o o o o o o o o o o o o o o o o X o o o X o o o o o o o o o o o o o o o o o o o o o o o o o o o o o o o o o o o o o o o o o o o o o o X o o o o o o o o o o o o X X X X o o X X X X X X X X X X X X X o X X X X X X X X     X     . e ^.Q.G.Q.G.G.G.G.F.Q.G.F.G.G.G.F.Q.G.G.G.G.G.F.G.F.G.G.A.D.^.OX*X*X*X*X*X*X$X$X&X&X&X#X&X&X$X=X&X&X&X$X#X$X#X#X$X&X&X=X&X&X#X#X#X$X&X&X&X&X&X&X&X&X&X&X&X#X#X#X&X&X#X#X#X#X#X&X&X*X&X*X*X*X=X&X&X&X#X$X#X'.J.S.^.^./.^.Q.G.G.^.^.Q.^.^.Q.Q.Q.G.Q.Q.Q.G.G.G.Q.G.A.G.Q.Q.G.Q.G.G.Q.G.G.G.G.G.Q.^.^.Q.Q.Q.Q.G.A.S.Q.Q.Q.Q.Q.Q.S.G.G.Q.Q.G.S.A.F.G.F.F.G.G.Q.Q.Q.F.G.Q.Q.Q.Q.Q.Q.G.Q.Q.Q.Q.^.Q.Q.^.^.Q.Q.Q.Q.Q.Q.Q.Q.G.G.G.Q.Q.Q.^.Q.Q.Q.Q.Q.Q.Q.Q.G.Q.Q.Q.Q.Q.^.^.^.G.Q.^./.^.^.Q.G.Q.Q.S.Q.Q.^.Q.Q.Q.^.^.Q.Q.Q.Q.^.Q.Q.Q.Q.^.G.Q.OX=X=X*X*X=X=X=X=X=X=X=X*X*X&X*X=X=X=X=X=X=X=X=X*X=X=X=X&X&X*X=X=X=X=X*X=X=X*X&X&X*X*X*X*X=X*X*X&X*X*X*X*X*X$X&X$X$X$X&X#X$X#X#X#X#X#XoXoX'.~.,.D./.Q.Q.Q.G.G.G.Q.Q.Q.^.^.Q.^.Q.G.^.Q.!.Q.^.Q.Q.G.Q.^.^./.^./././.^./././.^.Q.Q.^.^.Q.^.^.^.Q.G.G.^.^.Q.Q.Q.Q.Q.Q.Q.Q.^.^.^.Q.^.Q.G./.!.^.^.^.Q.G.G.Q.Q.^.Q.^.^.Q.Q.^.G.Q.^././.Q.3 X o o X o o o X X X X X X X X X X o X X X X X X X o X X X + o X X X X X o X X X X X X X                                                                                                                                                                 . 5 #.X.........................................O.O.O...O.O.....................O...O.O...O.....O.O...........O.O.....O.O...O...............O.O.O...",
"o o o o o X X o o o o o o o o o o o o o X X o o o o o o o o o o o o o o o o o o o o o o o o o o o o o o o o o o o X o o o o o o o o o o o o o o o o o o o o o o o o o o o o o o o o o o o o o o o o o o o o o o o o o o o o o o o o o o o o o X X o o o o o o o o o o o o o o o o o o o o o o o o o o o o o o o o o o o o o o o o o o o o o o o X X o o o o o o o o o o o o o o o o o o o o o o o o o o o o o o o o o o o o o o o o o o o o o o o o o o o o o o o o o o o o o o o o o o o o o o o o o o o o o o o o o o X X o o o o o o o o o o o o o o o o o o o o o o o o o o o o o o X X o o o o o o o o o o o o o o o o o o o o o o o o X X X o o o o o X o o o X X X o o X X X X X X X X X X X X X         s ^.G.G.F.G.F.F.G.F.G.G.G.G.Q.Q.G.G.Q.Q.Q.Q.G.Q.G.G.Q.Q.G.A.^.OX*X&X&X*X$X$X&X&X&X&X&X#X$X&X$X=X*X&X*X&X#X#X&X&X#X&X&X&X&X#X#X#X#X&X&X&X&X&X&X&X&X&X&X&X&X&X&X&X&X&X&X&X$X$X#X#X&X*X&X&X&X*X*X=X=X&X#X#X{.~.D.K.(.^.^.^./.Q.G.G.Q.Q.^.Q.Q.Q.G.G.G.Q.Q.Q.Q.G.G.Q.G.A.A.A.Q.Q.Q.G.G.G.G.Q.Q.G.F.Q.Q.G.Q.Q.Q.Q.Q.G.G.Q.Q.G.G.Q.G.G.Q.Q.^.Q.A.A.A.G.Q.G.G.Q.Q.Q.Q.Q.A.Q.^.Q.Q.Q.Q.Q.Q.Q.Q.Q.^.^.Q.Q.Q.Q.Q.Q.G.G.G.F.Q.F.G.Q.G.Q.G.G.G.G.^.Q.Q.Q.Q.Q.Q.Q.Q.Q.^.Q.Q.Q.Q./.^.^.^.^.^.Q.Q.G.Q.G.G.^.Q.Q.Q.Q.Q.Q.Q.Q.Q.Q.Q.Q.Q.G.Q.Q.G.Q.OX=X=X=X=X=X=X=X=X=X=X=X=X*X=X&X&X&X*X=X=X=X=X=X=X=X=X=X=X=X*X&X*X=X=X=X=X=X=X=X=X=X=X=X*X=X=X=X=X=X*X&X&X*X*X*X&X&X&X*X*X*X*X*X&X$X$X$X#X{.~.,.S.^.^.Q.^.Q.Q.Q.^./././././.^./.Q.^.^.^.!.^.Q./.^.Q.Q.^.^.^.^./././.^./././.Q.Q.Q.!.Q.Q.Q.Q.Q.G.!.Q.G.Q.Q.^.Q.Q.Q.G.G.Q.^.Q.^.^.^.G.G.Q.Q.G.Q.Q.G.G.Q.Q.Q.^.Q.^.Q.Q.^.Q.G.G.Q.^.S.3 o o o o X o o o X + o o X X X X o o X X + + o o + o o o o o o o X X X X X X X   X X X X X X X X X X X   X                                                                                                                                             . . q $.X...........O.O.......................O.O...........O.................................O...............O.O.O.O...........O.O.............O.O...",
"o o o o o o X o o o o o o o o o X o o o o o o o o o o o o o o o o o o o o o o o o o o o o o o o o o o o o o o o o o o o o o o o o o o o o o o o o o o o o o o o o o o o o o o o o o o o o o o o o o o o o o o o o o o o o o o o o o o o o o o X o o o o o o o o o o o o o o o o o o o o o o o o o o o o o o o o o o o o o o o o o o o o o o o o o o o o o o o o o o o o o o o o o o o o o o o o o o o o o o o o o o o o o o o o o o o o o o o o o o o o o o o o o o o o o o o o o o o o o o o o o o o o o o o o o o o o o o o X o o o o o o o o o o o o o o o o o o o o o o o o o o o o o o X X o o o o o o o o o o o o o o o o o o o o o X X X X o o o o o o X X X X X X X X o X X X X X X X X X X X       X   s ^.G.G.G.F.F.F.F.F.F.G.G.G.F.Q.G.G.G.G.Q.Q.G.Q.G.G.G.G.G.S.(.OX*X*X&X$X$X&X#X#X#X&X&X#X#X#X#X*X*X&X*X*X&X$X&X#X#X&X&X&X#X#X#X$X#X&X$X&X&X&X&X&X&X&X&X&X&X#X&X&X&X*X&X&X&X*X&X&X&X&X&X*X&X*X=X*X&X&X&X&X#X'.D.Q.(.(.^.^././.Q.Q.Q.Q.Q.Q.G.G.F.G.Q.Q.Q.Q.Q.Q.G.F.G.Q.G.Q.Q.G.Q.Q.Q.G.G.Q.Q.Q.Q.G.Q.Q.G.G.Q.G.G.G.G.Q.Q.G.G.Q.G.^.Q.!.Q.^.G.G.G.^.^.^.^.^.Q.Q.Q.Q.Q.A.G.Q.Q.Q.Q.Q.F.Q.^.F.Q.Q.Q.^.Q.Q.Q.Q.Q.G.Q.Q.G.Q.G.G.Q.Q.Q.G.G.A.Q.Q.Q.Q.Q.Q.^.^./.^.^./.Q.Q.G.Q.^.^.Q.^.^./.^.Q.^./.Q.G.Q.Q.Q.G.G.G.Q.Q.^.^.Q.Q.Q.Q.Q.Q.G.Q.*X=X=X=X=X=X=X=X=X=X=X=X=X=X=X*X=X&X&X&X*X=X*X=X=X=X=X=X=X&X=X&X&X&X=X=X=X=X=X=X=X=X=X=X=X=X=X=X=X=X=X=X=X*X*X=X*X&X&X&X*X=X=X=X&X&X*X*X$XoX~.m.S.^.Q.Q.Q.!./.Q.Q.^.Q././././.^.^./.Q.^.^./.^.^.^.^.Q.Q.Q.^.^./.^./././.^./.^.^.Q.^.Q.Q.G.G.G.G.!.Q.Q.!.!.!.Q.Q.Q.G.Q.Q.Q.Q.^.^.^.!.G.G.Q.^././.Q.G.G.G.G.G.Q.Q.Q.Q.Q.^././.^.G.S.1 . @ . X X X X . X o o O o o o o o O O o o o O o o o o o o o o o o o o X X X X X X X X X X X X X X X X X   X             .               . . . .                                                                                                       . . G $.X.....................................................................................O.................................................O.O...",
"o o o o o o o o o o o o o o o o o o o o o o o o o o o o o o o o X X o o o o o o o o o o o o o o o o o o o o o o o o o o X o o o o o o o o o o o o o o o o o o o o o o o o o o o o o o o o o o o o o o o o o o o o o o o o o o o o o o o o o o o o o o o o o o o o o o o o o o o o o o o o o o o o o o o o o o o o o o o o o o o o o o o X X o o o o o o X o o o o o o o o o o o o o o o o o o o o o o o o o o o o o o o o o o o X o o o o o o o o o o o o o o o o o o o o o o o o o o o o o o o o o o o o o o o o o o o o o X X X o o o o o o o o o o o o o o o o o o o o o o o o o o o o o o X o o o o o o o o o o o o o o o o o o o o o X X o X o o o o o o o X o o X X X o o o X X X X X X X X X X       X . E (.^.G.F.G.F.G.G.G.G.F.G.G.G.G.Q.Q.Q.G.S.Q.^.Q.Q.Q.Q.G.S.D.(.*X*X=X=X*X*X&X&X$X#X&X*X#X#X#X&X$X*X*X=X*X*X&X*X*X&X&X&X&X&X&X#X#X#X$X&X&X&X&X&X&X&X&X&X&X&X&X&X&X&X&X&X$X*X=X&X&X&X&X$X&X&X=X=X=X=X&X&X$XoX~.N.^.(.^.^.^.Q.^.Q.^.^.Q.Q.G.G.G.G.Q.Q.G.G.Q.Q.G.Q.G.F.G.Q.G.Q.Q.G.Q.Q.Q.G.G.Q.Q./.Q.Q.Q.Q.Q.Q.Q.G.Q.Q.F.G.G.G.Q.Q.Q.Q.G.^.Q.^.^.Q.Q.^./.Q.G.Q.Q.G.^.^.G.F.Q.Q.Q.G.Q.G.S.G.G.G.Q.Q.^.^.Q.^.G.G.G.Q.Q.Q.Q.Q.G.G.Q.Q.Q.Q.Q.F.G.G.Q.G.^.^.Q././.Q.Q.Q.Q.Q.Q.G.^.^.^.^.^.^.^.Q././.Q.Q.G.Q.Q.Q.Q.Q.Q.Q.Q.Q.Q.^.^.!.Q.S.~.*X=X=X=X=X=X*X=X=X=X=X=X=X=X=X=X=X=X=X&X&X*X*X*X*X=X=X=X=X=X=X=X&X&X&X=X=X=X=X=X=X=X=X=X=X=X=X=X=X=X=X=X=X=X=X=X=X=X=X=X*X*X=X=X=X=X=X*X$XoX~.N.S.^.Q.Q.G.G.Q.^.Q.Q.Q.^.^.Q.Q.^.^.^./.^./.Q.^.^.^.^.^.Q.^.Q.Q.Q.^.^.^./.Q.^.^.^.^.Q.^.^.^.Q.G.G.G.G.G.G.G.Q.Q.Q.Q.Q.Q.^.Q.^./.^.^.^././.^.^.^.^.^.!.Q.!.Q.Q.G.G.Q.^.^.Q.Q.^.^.F.A.I 3 1 1 1 - - - - # # # @ . . . . . . . . . . o O O O O O O O o o o o O o X X X o o o + o X X X X           . . .   . % % % % 5 % % % % # . . . . . . . .                                                                                                 @ [ $.X.............................................O.O.O.....O.................O...O...O.O...O...............................................O.....",
"o o X o o o o X o o o o o X o o o o o o o o o o o o o o o o o o X o o o o o o o o o o o o o o o o o o o o o X X o o o o X o o o o o o o o o o o o o o o o o o o o o o o o o o o o o o o o o o o o o o o o o o o o o o o o o o o o o o o o o o o o o o o o o o o o o o o o o o o o o o o o o o o o o o o o o o o o o o o o o o o o o o o o o o o o o o o o o o o o o o o o o o o o o o o o o o o o o o o o o o o o o o o o o o o o X o o o o o o o o o o o o o o o o o o o o o o o o o o o o o o o o o o X o o o o o o o X X X o o o o o o o o o o o o o o o o o o o o o o o o o o o o o o o o o o o o o o o o o o o o o o o o o o o o o o X X X X X X o o X X X X o o o o o X X X X X X X X X X X X X     X X . >.(.(././.^.Q.G.Q.Q.G.G.G.G.G.Q.Q.G.Q.Q.G.G.Q.G.G.Q./.^.^.S.(.*X=X&X*X=X*X&X&X*X&X#X&X*X&X&X&X$X*X&X$X*X&X&X&X&X&X&X&X&X&X&X&X&X*X&X*X&X*X&X&X&X&X&X&X*X*X=X*X&X&X*X*X&X*X*X*X&X&X&X&X&X&X*X=X=X=X=X*X$X{.~.D.^.(./.^.^.Q.G.^.^.Q.Q.Q.G.F.G.G.G.G.G.G.G.Q.G.Q.Q.F.G.G.Q.!.!.Q.Q.Q.Q.Q.Q.Q.G.G.G.G.Q.G.G.Q.G.G.Q.G.S.G.G.G.G.G.^.^.^.Q.Q.Q.Q.Q.Q.^.^.Q.^./.^.Q.G./.^.Q.Q.Q.Q.^.Q.Q.G.G.Q.Q.G.Q.Q.Q.Q.Q.^.Q.Q.Q.Q.Q.Q.Q.Q.G.Q.Q.Q.^.^.Q.F.G.Q.Q.Q.Q.^.^.^.^.Q.Q.Q.^.Q.G.G.G.Q.^.Q.^.Q.Q./.^./.^.Q.G.Q.^.Q.Q.^.Q.Q.Q.^.Q.Q.Q.^.S.~.*X=X=X=X=X=X*X=X=X=X=X=X=X=X=X=X*X=X=X*X&X&X=X*X*X=X=X=X=X=X=X=X=X=X=X=X=X=X=X=X=X=X=X=X=X=X=X=X=X=X=X=X=X=X=X=X=X=X=X=X=X*X*X=X=X=X*X*X$XoX~.N.^.^.^.Q.Q.G.G.G.G.^.^.^./.^.Q././.^.^././.^.^.^.^.Q.^.^.^.^.Q.^.^.Q././.^.^.^././.^.^.^.Q.^.^.^.G.G.G.^.^.^.^.^.^.Q.Q.^.G.G.Q.^.Q.^.^.^.^.Q.^.^.^.Q.G.G.^.Q.G.G.G.Q.^.^.^.Q.!.Z.1.A.A.D.D.D.D.D.D.,.,.,.,.T T T T s s e r r 3 1 - - - # # @ . X o O o o o o o o X X o X + X + o o o + + .   .   . % q Y [ }  .#.#.#.#.#. .| [ ' 0 5 % # +   .                                                                                           .   %  .$.X.....O.......................................O.......O.O.O.O...........O.O.O.O.O.O.O...............................................O.........",
"o o X o o X X X o o o X X X o o o o o o o o o o o o o o o o o o X X o o o o o o o o o X o o o o o o o o o o o X X o o o o o o o o o o o o o o o o o o o o o o o o o o o o o o o o X o o o o o o o o o o o o o o o o o o o o o o o o o o o o o o o o o o o o o o o o o o o o o o o o o o o o X o o o o o o o o o o o o o o o o o o o o o o o o o o o o o o o o o o o o o o o o o o o o o o o o o o o o o o o o o o o o o o o o o o o o o o o o o o o o o o o o o o o o o o o o o o o o o o o o o o o o o o o o o o o o o o o o o o o o o o o o o o o o o o o o o o o o o o o o o o o o o o X X o o o o o o o o o o o o o o o o o o o o o o X X X o o o o o o o X o o X o o X X X X X X X X X X X X X X X   X   - >.D.D.S.D.D.D.D.^.^.^./.^./.^.^./.^.^.^.^.^./.^.Q.G.G.G.S.^.}.*X=X=X*X*X*X=X&X*X*X&X#X&X&X&X#X$X&X&X$X&X*X&X&X&X&X&X&X&X&X&X#X#X&X&X&X&X&X*X=X*X&X&X&X&X&X*X*X*X&X=X=X*X*X*X=X=X&X&X&X*X*X&X*X=X=X*X*X$XoX~.D.^./././././.^.Q.G.Q.Q.Q.Q.Q.G.G.G.G.G.G.G.G.Q.G.Q.G.F.F.F.G.F.G.Q.Q.^.Q.Q.Q.Q.Q.Q.Q.Q.Q.Q.G.Q.G.Q.Q.!.G.G.G.G.G.^.!.^.Q.Q.Q.Q.G.G.Q.^.Q.^./.^.^.Q.Q.Q.Q.G.Q.Q.^.^.Q.^.Q.Q.G.G.G.G.Q.Q.Q.Q.Q.F.G.G.G.G.G.Q.F.G.^.Q.Q.Q.G.G.Q.^.Q.Q.G.Q.Q.Q.Q.Q.Q.G.Q.^.^.Q.G.G.Q.^.G.G.Q.Q.^.Q./.Q.G.Q.Q.Q.Q.Q.Q.Q.Q.Q.^.^.^.^.S.~.*X=X=X=X=X=X=X=X=X*X*X=X=X=X=X=X*X&X&X&X&X&X*X=X*X*X*X=X=X=X&X&X=X=X=X=X=X=X=X=X=X=X=X=X*X=X=X=X=X=X=X=X=X=X*X=X=X=X=X=X=X=X*X*X&X*X=X*X$XoX~.N.^.^./.^.G.Q.G.G.Q.Q.^.^.^.^.^.^.^./.^.Q.^.^.G.Q.^.^.^.Q.^.^.Q.Q.Q.Q.^.^.^.Q.^././.^.Q.^.^.^.^.Q././.^.^.^.^.^.^./.^.^.^.^.^.Q.^.Q.G.Q.Q.Q.Q.^.Q.Q.Q.Q.Q.Q.Q.Q.Q.Q.G.A.G.Q.Q.Q.A.3.Z.Z.Z.A.S.S.S.S.G.Q.Q./.Q.Q.S.D.D.D.D.D.D.D.D.S.D.,.>.T T s s r - O O o O o o o o o X + + + X o o O + . . % q ' #.$.$.$.$.@.@.o.X.@.%.@.%.%.%.$.$. .[ 0 % .   +                                                                                           5 &.X.....O.O.......O.......................................O.O.......O.O.................O.........................................................",
"o o o o o X X o o o o X X X o X o X X o o o o o o o o o o o o o X X X o o o o o o o o o o o o o o o o o o o o o o o o o o o o o o X o X o o o o o X o o o o o o o o o o o o o o o o o o o o o o o o o o o o o o o o o o o o o o o o o o o o o o o o o o o o o o o o o o o o o o o o o o o o o o o o o o o o o o o o o o o o o o o o o o o o o o o o o o o o o o o o o o o o o o o o o o o o o o o o o o o o o o o o o o o o o o o o o o o o o o o o o X o o o o o o o o o o o o o o o o o o o o o o o o o o o o o o o o o o o o o o o o o o o o o o o o o o o o o o o o o o X o o o o o o o o X o o o o o o o o o o o o o o X o o o o o o X X X o o o X X o o X X X X X o X X X X X X X X X X X X X X X X o X > n.E f T s T T T T T E >.,.,.,.D.D.A.S.G.^.^.(.(.(.(.^.G.G.S.}.=X=X=X=X*X&X*X=X*X*X*X#X&X#X&X#X$X&X&X*X&X&X&X#X&X&X*X&X&X=X*X&X#X#X&X&X&X&X#X&X&X*X&X&X&X*X*X&X=X&X&X&X&X*X*X=X=X=X=X&X&X*X&X*X=X*X&X$X$XoXJ.D.(.^.^.Q.Q.Q.Q.Q.G.G.G.G.G.Q.^.G.G.Q.G.Q.G.Q.Q.Q.Q.Q.Q.G.G.G.G.Q.G.G.Q.Q.Q.G.G.Q.G.Q.Q.Q.Q.G.G.G.G.G.^.G.^.^.G.G.Q.Q.^.^.Q.!.^.G.F.Q.G.G.^.^.Q.!.Q.Q.Q.Q.^.G.G.Q.G.Q.Q.Q.G.G.F.Q.Q.Q.Q.Q.Q.Q.G.G.G.Q.Q.Q.Q.Q.Q.Q.^.^.^.Q.Q.Q.G.Q.G.G.F.G.Q.Q.Q.Q.Q.Q.Q.^.^.Q.G.G.Q.Q.G.Q.G.Q.^.Q.Q.G.Q.Q.Q.Q.^.Q.^.Q.^.Q.Q.^.Q.S.~.*X*X=X=X=X*X=X*X=X=X*X*X=X=X=X=X=X=X=X=X*X&X&X*X*X=X=X&X*X=X*X&X*X*X*X=X=X=X=X=X=X=X=X=X&X&X=X*X=X=X=X=X=X=X=X&X*X=X*X=X=X=X=X=X=X=X=X*X$XOX~.N.^././.^.^.Q.Q.Q.^.^.^.^.Q.^./.^.^././.^.Q.^.Q.Q.^.Q.^.Q.Q.^.Q.^.Q.Q.Q.^././.^././.^.^./.^././.^./.^./.Q.Q.^.^.Q.Q.Q.Q./././.^.G.^.^.G.^.Q.^.^.Q.^.Q.G.Q.Q.!.^.Q.Q.Q.A.A.G.G.G.G.Q.Q.Q.Q.Q.Q.^.Q.Q.Q.Q.^.!.Q.^.Q.^.G.G.S.A.A.A.Z.A.A.G.S.A.A.D.D.S.m.- o o o o o o o X X + + + o O . . @ 5 Y | #.&.o.o.o.o.o.X.o.o.X.X.+.+.X.X.X.X.@.@.$.$. .G 5 . .                                                                                     . . q $.X.X.O...O.O...............................................................................O.O.........................................O.O.......",
"o o o X o o X o o o X X X X X o o o o o o o o o o o o o o o o o o o o o o o o o o o o o o o o o o o o o o o X X o o X o o o o o o o X X o X o o o o o o o o o o X o o o o o o o o o o o o o o o o o o o o o o o o o o o o o o o o o o o o o o o o o o o o o o o o o o X X X o o X o o o o X X X o o o o o o o o o o o o o o o o o o o o o o o o o o o o o o o o o o o o o o o o o o o o o o o o o o o o o o o o o o o o o o o X X X X o o o o o X X o o o o o o o o o o o o o o o o o o o o o o o o o o o o o o o o o o o o o o o o o o o o o o o o o o o o o o o o o o o o o o X o o o o o o o o o o o o o o o o X o o o o o o o o o o X o X X o o o o X X X o o X X X o o X X X X X X X X X X X X X X X o   f V.m.m.N.N.N.m.m.>.>.E T T s s s s T T T E E >.,.m.N.D.S.S.J.}.=X*X=X=X*X&X&X&X=X*X&X#X#X&X&X&X&X&X&X$X&X&X&X&X#X&X&X&X#X&X&X&X#X&X&X&X&X*X*X&X&X&X&X&X&X&X&X*X*X*X&X&X#X#X#X&X*X&X*X=X&X&X&X&X*X=X&X&X$XoX~.D.(.^.^.^.Q.Q.G.^.G.Q.F.F.G.G.G.G.F.A.Q.G.Q.G.Q.Q.G.Q.Q.Q.G.Q.G.Q.Q.^.Q.G.G.Q.^.Q.Q.Q.G.G.G.G.Q.G.G.G.^.Q.G.^.^.Q.G.G.G.^.^.Q.Q.^.G.F.G.!.G.G.Q.Q.G.G.Q.Q.Q.^.Q.^.Q.^.Q.Q.Q.Q.Q.G.G.G.Q.Q.Q.Q.Q.Q.G.Q.^.Q.F.Q.Q.Q.Q.Q.Q.^.Q.G.F.A.Q.Q.G.G.S.Q.Q.Q.Q.G.G.Q.Q.Q.^.Q.G.Q.Q.F.Q.Q.G.G.G.G.G.S.G.^.^.^.^.Q.Q.Q.Q.Q.^.S.~.*X*X*X=X=X$X*X=X*X*X=X=X=X=X=X=X=X=X=X=X*X*X=X=X*X=X=X=X*X=X=X*X*X*X*X*X=X=X=X=X*X=X=X=X*X&X*X*X*X*X=X=X=X=X=X=X$X*X&X&X*X*X*X*X=X=X=X*X$XOX~.N.^.^./.^.Q.^.Q.^.^.^.G.^.^.G.G.^.^.^.^./.^.^.Q.G.Q.^.^.Q.Q.Q.Q.G.G.G.G.G.Q.^.Q.Q.Q.^.Q././.^./.Q.Q.^.^././.^.^.^.^.^.^.^.^.^.Q.^.G.^.^./.^.^.Q.Q.Q.G.G.F.G.Q.Q.Q.Q.^.^.Q.!.Q.Q.G.Q.Q.Q.^.^.Q.^.^.^.!.^.^.Q.Q.Q.^.Q.^./.^.^.Q.!.Q.Q.G.Q.Q.Q.G.A.Z.S.m.# . o X X o o o + + + + O . . @ 5 [ #.#.*.*.*.o.o.o.....+.+.o...+.O.+.+...O.O.X.X.o.o.*.&. .' 5                                                                                     . . G $.X.....O.................................................O.O.O.......O...................O.O.O...O.........O.............................O.......",
"o o o X X o o o o o o o o X o o o o o o o o o o o o o o o o o o X o o o o o o o o o o o o o o o o o o o o X X X o o o o o o o o o X X X X o o o o o o o o o o o o o o o o o o o o o o o o o o o o o o o o o o o o o o o o o o o o o o o o o o o o o o o o o o o o o o o X X o o X X o o o X o o o o o o o o o o o o o o o o o o o o o o o o o o o o o o o o o o o o o o o o o o o o o o o o o o o o o o o o o o o o o X X o o o X X o o o o X o o o o o o o o o o o o o o o o o o o o o o o o o o o o o o o o o X o o o o o o o o o o o o o o o o o o o o o X o o o o o o o o o o o o o o o o o o o o o o o o o o o o o o o o o o o o o X X X X X o o o X X X o o X X X X X X X X X X X X X X X X X X X X o   f oX[.'.'.'.'.`.`.~.J.V.V.V.V.N.N.N.m.m.m.>.E E E T E E >.m.~.OX=X=X=X*X*X&X&X&X*X=X*X&X#X#X#X&X#X$X&X&X&X&X*X&X&X&X&X&X&X#X&X&X&X&X&X#X#X&X=X=X&X&X&X&X&X&X&X*X=X=X=X&X&X&X&X&X&X&X&X&X&X&X&X&X&X*X&X&X#X{.J.D.^.^.^.^.Q.Q.G.Q.G.G.!.Q.G.Q.Q.Q.G.F.Q.Q.Q.G.Q.Q.Q.G.Q.Q.Q.Q.G.Q.G.Q.^.^.G.G.G.Q.^.G.Q.Q.^.G.^.Q.^.G.G./.G.G.G.Q.^.^.Q.Q.G.S.G.G.Q.G.G.Q.Q.Q.Q.G.G.Q.^.Q.G.G.Q.^.Q.^.^.^.^.Q.Q.G.G.G.G.Q.G.G.Q.Q.^.Q.Q.Q.Q.Q.^.Q.Q.Q.G.G./.Q.G.A.Q.Q.G.Q.G.S.G.G.Q.^.Q.Q.^.^.Q.Q./.Q.Q.^.G.Q.Q.Q.G.Q.Q.^.Q.G.Q.Q.^.^./.^././.^.S.(.*X=X=X*X*X*X$X*X*X&X*X=X=X=X=X=X*X*X=X=X*X&X*X=X=X=X=X=X=X=X=X=X*X&X&X*X=X=X=X=X*X*X=X=X=X=X=X=X=X=X=X*X=X=X*X*X&X*X*X&X&X&X&X&X&X=X=X=X*XoX~.D.(.^.^.^.^.^.^.^.^./.^.^.^.^.^.Q.^.Q././.^.Q.Q.Q.Q.^.^.^.^.^./.Q.^.^.Q.G.G.G.G.G.G.Q.G.Q.^.^.Q.Q.Q.G.Q.Q.Q.G.^.^.^.^.^.^.^./.^.^.Q.S.G.Q.^.Q.Q.^./.^.^.Q.Q.G.Q.Q.!.Q.Q.!.^./.Q.G.G.Q.Q.^./.^.^./.Q.Q./.^./.Q.^.Q.G.Q.^./.Q.^.^./.Q.Q.F.G.!.!.!.G.S.,.# . X X X X o + + + O O . . 5 ' #.$.o.o.X.....X.X.X.X.......O.+.O.O.+.............o.o.o.o.o.$.#.Y %                                                                                 . @ [ $.X.X.O.O.............................O...........O.O.....................O.O...................................O.........O.......................",
"o o o X o o X X o o o o o o o o o o o o o o o o o o o o o o o o o o o o o o o o o o o o o o o o o o o o o o X o o o o o o o o o o o o X o o o o o o o o o o o X o o o o o o o o o o o o o o o o o o o o o o o X X X o o o o o o o o o o o o o o o o o o o o o o o o o o o o o o o o o o o o o o o o o o o o o o o o o o o o o o o o o o o o o o o o o o o o o o o o o o o o o o o o o o o o o o o o o o o o o o o o o X o o o o o o o o o o o o o o o o o o o o o o o o o o o o o o o o o o o o o o o o o o o o X o o o o o o o o o o o o o o o o o o o o o o X o o X X o o o o o o o o o X o o o o o o o o o o o o o o o o o o o o o o o X X X X X X o o X X X X X X X X X X X X X X X X X X X X X X X X o   >.&XoXoX.X]..X].].].'.'.'.'.`.`.`.`.`.~.~.J.J.V.V.V.V.V.V.~.'.#X*X*X=X*X*X&X&X&X&X$X*X=X&X&X&X&X#X#X#X#X&X&X&X*X=X*X&X*X&X#X&X&X&X&X&X#X#X#X&X&X&X&X#X#X&X&X&X#X&X&X#X&X#X#X#X#X&X*X*X&X&X&X&X&X&X&X&X#X#X'.J.D.(.(.^.G.Q.Q.Q.Q.Q.S.G.^.Q.Q.Q.Q.Q.G.G.Q.Q.Q.Q.Q.Q.Q.Q.Q./.^.G.Q.G.G.Q.^.Q.Q.G.G.G.G.Q.^.Q.Q.Q.Q.^.^.S.G.Q.Q.G.G.G.^./.^.!.G.A.S.G.Q.G.S.G.Q.Q.Q.Q.Q.G.G.F.Q.G.Q.Q.^.Q.S.!.Q.Q.^.G.Q.^.Q.Q.Q.Q.Q.^.^.G.Q.Q.Q.Q.^.Q.G.F.Q.Q.G.G.Q.Q.G.G.G.Q.Q.Q.G.G.Q.Q.Q.Q.Q.Q.Q.Q.^./././.^././.^./.^.^.^.Q.G.G.Q.Q.Q.Q.Q.Q.Q.S.(.*X*X=X=X$X$X&X$X&X*X*X*X=X=X=X*X*X*X=X=X=X*X*X=X=X*X*X=X=X=X*X*X&X&X&X&X=X=X&X&X*X*X&X&X*X=X=X=X=X=X=X=X=X=X*X*X=X&X=X*X$X*X=X*X*X=X=X=X*XOXJ.D.(.^.Q.Q.Q.^.^.^.Q.Q.G.G.G.Q.^./.^.Q.^./.^./.^.^.Q.Q.Q.Q.Q.Q.Q.^.^.^.^./.^.Q.^.^.^.^.Q.G.G.Q.Q.Q.^.^.Q.Q.^.^.Q.^.^./.^./.^.^./.Q.^.^.Q.G.G.Q.Q.Q.^.Q.^./.Q.Q.Q.Q.^.Q.Q.^.Q.Q.^.^.^.Q.Q.Q.G.G.^.^.Q.^.^./.^.Q.^./.Q.^./.Q.^.^.Q.^.G.Q.!.Q.!.Q.!.Q.G.N.# X X X X X . o o + + @ @ 0 #.$.X.o.X.+.X.O.X.X.+.X...O.+.+.....................X.X.o.X.X.X.o.o.$. .q . .                                                                           . %  .%.X...O.O...........O.O.O...........O.O.......................O...............................................O.............O.....................",
"o o o X X o o o o o o o o o o o X X o o o o o o o o o o o o o o o o o o o o o o o o o X o o o o o o o o o o o o o o o o o o o o o o o o o o o o o o o o o o o X X X X o o o o o o o o o o o o o o o X X X o o X X X o o o o o o o o o o o o o o o o o o o o o o o o o o o o o o o o o o o o X X o o o X X o o o o o o o o o o o o o o o o o o o o o o o o o o o o o o o o o o o o o o o o o o o o o o o o o o o o o o o o o o o o o o o o o o o o o o o o o o o o o o o o o o o o o o o o o o o o o o o o o o o o o o o o o o o o o o o o o o o o o o o o o o o o X X X o o o o o o o o o X o o o o o o o o o o o X o o o o o o o o o o o o o o o o o o o X X X X X X X X o X X X X X X X X X X X X X X X o X n.&X#X#X#X#X].].#X#XoX{.].].]..X.X].{.].].'.'.'.'.'.'.'.'.'.oX#X&X*X&X*X&X$X$X#X#X#X&X&X*X&X$X#X&X&X#X#X#X#X#X#X#X#X#X&X*X#X#X&X&X&X&X&X#X#X&X&X&X&X#X#X#X#X#X#X#X&X#X#X&X#X&X$X#X#X#X#X&X&X&X&X&X$X$X$X#X'.N.D.(.(.(.(.^.^./.Q.^.Q.G.Q.Q.G.^.Q.G.^.Q.Q.^.Q.Q.Q.Q.Q.^.^.^.^.^.^.G.^.Q.G.G.Q.G.G.G.G.Q.G.Q.Q.^.Q.Q.^.^.Q.^.G.G.G.S.Z.Q.^.G.Q.G.G.!.Q.Q.G.G.G.G.Q.Q.Q.G.F.Q.G.Q.G.G.Q.Q.G.G.Q.Q.Q.Q.G.Q.^.^.Q.G.G.G.G.Q.Q.Q.Q.G.Q.Q.Q.Q.^.Q.Q.G.G.G.^.^.Q.Q.Q.^.^.Q.Q.G.^.^.!.Q.Q.Q.Q.Q.^.Q.Q.^./././.^.^.^./.^.Q.^.^.^.^.Q.G.G.^.(.*X*X=X=X=X=X=X*X=X=X=X&X=X=X=X=X=X*X=X=X=X=X*X=X=X=X=X=X=X=X=X=X*X&X&X&X&X=X=X&X&X&X*X*X&X&X&X&X=X=X*X*X&X=X=X=X=X*X&X*X&X*X*X=X=X=X=X=X*XOXJ.D.^.^.^.^.^.^.^.^././.Q.Q.G.G.G.G.^.Q.^.^././.^.^.Q.F.G.Q.Q.Q.Q.^.Q.Q./.^././././././.^./.^.Q.Q.^.^.G.Q.^.^./.G.^.G.^./.^.Q.G.Q.^.^./.^.Q.Q.Q.Q.^.^.Q.Q.^.Q.F.G.Q.Q.Q.Q.Q.Q.G.Q.^./.Q.^.^.G.G.Q.Q.Q.Q.Q.^.^.^.Q.^.Q.Q.^.^.^.Q.G.Q.G.Q.Q.Q.!.Q.Q.Q.G.,.@ . o X X   + o o + . % ] Y.$.X.........O.+.+.+.O.O.......+.....................X.o.o.X...O...o.o.$.#.G .                                                                           . 5 &.X.X...O.O.O.....O...O.....................O.........O.O...O.O...O.O...............O.................................................O.....O.......",
"o X o o o o o X o o o X X X X X o o o o X o o o o o o o o o o o o o o o o o o X X o o o o o o o o o o o o o o X o o o o o o o o o o o o o o o o o o o X o o o o o o X o X o o o o o o o o o o o o o X X o o o o o X o o o o o o o o o o o o o o o o o o o o o o o o o o o o o o o o o o o o X o X o o o X o o o o o o o o o o o o o o o o o o o o o o o o o o o o o o o o o o o o o o o o o o o o o o o o o o o o o o o o o o o o o o o o o o o o o o o o o o o o o o o o o o o o o o o o o o o o o o o o o o o o o o o o o o o o o o o o o o o o o o o o o o o X X o o o o o o o o o o o X o o o o o o o o o o o o o o o o o o o o o X X o o o o o X o o X X X X X X X X o o X X X X X X X X X X X X X X o X V.=X#X#X#X#X#X#X].#X#X#X#X#X#XoX#X#X#X#X#XoXoXoXoXoXoXoXoX#X#X&X#X&X&X&X*X$X&X&X#X#X#X#X*X&X&X#X#X#X&X#X#X#X#X#X&X&X#X#X&X&X&X#X&X&X&X#X#X#X&X&X&X&X*X*X#X#X&X&X&X&X=X&X&X&X#X&X&X&X&X#X&X&X&X$X$X&X&X$X{.'.N.m.J.(.(.(.(.(.(.(.(.(.(.(./.^.S./././.(././././.^././././.^.^.^.^.^.Q.^.^.^.G.G.G.G.G.^.Q.Q.^.Q.Q.Q.G.Q.Q.G.^.Q.^.Q.G.S.G.!.G.Q.F.F.Q.Q.Q.G.G.Q.G.S.S.Q.G.G.G.G.Q.G.Q.Q.!.G.F.G.Q.Q.Q.G.G.Q.^.G.Q.Q.Q.G.Q.G.Q.Q.Q.Q.Q.Q.^.Q.Q.Q.Q.Q.Q.^.Q.Q.Q.G.G.Q.Q.G.G.G.G.Q.Q.G.Q.Q.^.^.^.G.Q./.^.^.^.^./.^.Q.Q.Q.^.^.Q.^.G.S.}.=X*X=X=X*X*X=X=X=X=X=X=X=X=X=X=X*X&X=X=X*X&X&X*X=X=X=X=X=X*X=X=X=X=X*X*X&X&X=X=X=X&X&X&X&X*X&X&X&X*X=X*X$X*X*X=X*X=X=X=X=X*X*X=X=X=X=X=X$X{.J.D.^.^.Q.G.G.^.Q.^.^.^././.^./.^.^.^.Q.G.^.^.^.^.Q.^.Q.S.Q.Q.Q.Q.^.^.^.^.^.^./././.^./././.^.Q.Q.Q.Q./.^././.^.^.^.^.Q.^.^.^.^.^.Q.Q.Q./.^.Q.Q.Q.Q.Q.Q.Q.^.G.G.G.Q.Q.^.^.Q.^./.^.^.^.^.^.^.Q.Q.^.^.^.^.^.^.^.^.^.^.^.Q.Q.^.Q.Q.Q.Q.!.^.Q.Q.Q.Q.Q.G.G.>.. o X X     + . + . % [ Y.$.o.+.O.O.O.O.O.+.+.O...O.O.....O.......O...............o.X.o.......o.o.@.$.$.' % . .                                                                   . . q $.X.X...O...O.O.....O.....................O.........................O.O.......O.O...O.O.O.........O...O...........O.O.....................O.........",
"o X o o o o o o o o o X X X X o X o o o o o o o o X X o o o o o o o o o o o o o o o o o o o o o o o o o X o o o o o o o o o o o o o o o o o o o o o o o o o o o o o o o o o o o o o o o o o o o o o o o o o o o o X o o o o o o o o o o o o o o o o o o o o o o o o o o o o o o o o o o X X o o X o o o o o o o o o o o o o o o o o o o o o o o o o o o o o o o o o o o o o o o o o o o o o o o o o o o o o o o o o o o o o o o o o o o o o o o o o o o o o o o o o o o o o o o o o o o o o o o o o o o o o o o o o o o o o o o o o o o o o o o o o o o o o o X X X o o X X o o X X X X o X o o o o o o o o o o o o X o o o o o o o o o X o o X X o o o o o o o o X X X X X X X X X X X X X X X X X     X o X V.=X#X&X&X&X&X&X#X#X#X&X#X#X$X#X#X&X&X#X&X#X#X#X#X#X#X$X&X&X&X&X=X&X$X&X$X&X&X&X&X#X&X#X&X*X&X&X&X#X#X#X#X#X#X#X&X&X&X&X#X&X&X#X&X&X&X&X&X#X#X&X&X&X&X*X*X&X&X&X&X&X*X=X&X&X*X&X&X&X*X&X&X*X*X&X$X$X$X#X#X'.V.E T >.E E E E >.,.,.,.N.D.D.S.S.S.S.^.(.(.(.(.(.(.(.(.(.(.(.(.(./././.^./././.^.G.Q.G.G.Q.Q.^.^.Q.Q.Q.G.^.^.Q.Q.Q.Q.^.A.S.G.G.G.F.F.Q.G.G.G.G.G.G.F.G.G.G.Q.Q.Q.Q.G.Q.G.G.Q.G.F.G.G.^.Q.Q.Q.Q.G.Q.Q.^.^.Q.G.F.G.G.G.Q.Q.Q.Q.Q.Q.Q.Q.Q.Q.Q.Q.Q.Q.Q.G.Q.Q.Q.G.A.F.G.Q.G.G.Q././.^.Q.Q.Q.^.G.Q.Q.^.Q.Q.Q.Q.Q.Q.^.Q.D.}.=X*X=X=X=X*X=X=X=X=X=X&X&X*X=X*X*X&X&X=X=X=X=X*X=X=X=X*X=X=X*X=X=X=X=X=X=X=X*X*X=X=X=X*X*X*X*X*X&X&X=X=X$X*X=X=X=X=X=X=X=X=X=X=X=X=X=X=X$X{.D.S./././.Q.G.G.G.G.Q.Q.Q.Q.Q.^.^.^.^.Q.Q.Q.Q.Q.^.Q.Q.Q.Q.Q.Q.Q.Q.Q.Q.Q.Q.^.^.^.Q.^./.^.^.^.^.Q.G.G.Q.Q.^.^.Q.Q.^.Q.Q././.^.Q.Q.Q.^.Q.Q.Q.^.^.Q.Q.Q.Q.Q.Q.^.^./.!.^.Q.Q.^.^.^.^.^.Q.Q.Q.^.^.^.^.^.^.Q.Q.Q.^.Q.Q.Q.Q.Q.^.^./.Q.Q.Q.^.Q.Q.^.Q.Q.Q.Q.G.^.>.. o . X     + . . 5 }  .*.X.X...+.O.......+.....O...................................X.X.........+.X.X.@.$.| % . . .                                                               . . H $.X.X.O.....O.O.....O...O.O.O.........................................O.O.............................O...........O.O.........O...........O.........",
"o o o o o o o o o o o o o o o o o o o o o o o o o o o o o o o o o o o o o o X o o o o X o o o o o o o o o o o o o o o X o o o o o o o o o o o o o o o o o o o o o o o o o o o o o o o o o o o o o o o o o o o o o o o o o o o o o o o o o o o o o o o o o o o o o o o o o o o o o o o o o X o o o o o o o o o o o o o o o o o o o o o o o o o o X X o o o X o o o o o o o o o o o o o o o o o o o o o o o o o o o o o o o o o o o o o o o o o o o o o o o o o o o o o o o o o o o o X o o o o o o o o o o o o o o o o o o o o o o o o o o o o o o o o o o o o X X o o o o o o o o o o o o o o o o o o o o o o o X o o o o o o o o o o o o o o X o o X o o o o X X X X X X X X X X X X X X X X X X X X X X o o `.&X#X#X#X#X#X#X&X#X#X&X&X&X$X&X$X$X&X$X&X&X&X#X#X#X#X#X#X#X&X&X&X&X&X&X&X#X#X#X#X#X#X&X&X&X*X*X=X=X&X&X&X$X$X&X#X#X&X*X*X&X&X#X&X&X&X&X*X&X&X&X*X&X&X&X*X&X&X&X&X&X&X&X=X&X&X*X=X*X*X&X&X*X*X*X&X$X&X#X#X].`.V.m.>.>.>.>.E E E E E T T T T T s s s T T E E ,.,.m.N.D.D.D.D.S.^.^./.(.(.(./.^.Q.^./.G.Q.Q././.^.Q.Q.G.Q.^./.G.G.^.^.G.S.G.G.Q.Q.G.Q.Q.Q.Q.Q.Q.Q.G.G.Q.Q.Q.Q.G.G.G.Q.Q.A.Q.Q.G.F.G.G.Q.G.G.G.G.G.G.F.Q.Q.Q.^.^.Q.Q.G.Q.Q.Q.^.^.Q.Q.Q.^.Q.^.^.Q.Q.^.Q.Q.G.Q.Q.F.G.Q.Q.Q.Q.Q.Q.Q.Q.G.G.G.G.Q.Q.Q.^.Q.Q.Q.G.G.G.G.D.}.=X=X=X=X=X=X=X=X=X=X=X*X&X&X&X&X&X&X*X*X&X=X=X=X=X=X=X=X=X=X=X=X=X=X=X=X=X=X=X=X*X*X=X=X=X=X=X=X*X&X=X=X&X$X$X*X=X=X=X=X=X=X=X=X=X=X=X*X$X{.D.S.(./././.^.Q.Q.Q.Q.G.Q.G.G.G.Q.Q.Q.Q.Q.Q.Q.Q.Q.Q.^.^.Q.Q.^.Q.Q.Q.Q.Q.Q.^.Q.Q.Q./.^.^.^.^.^.Q.G.S.Q.Q.Q.Q.G.Q.^.^.Q.Q.Q.Q.Q.G.G.Q.Q.Q.Q.^.^.Q.^.Q.!.Q.Q.^.^.^.^.^./././.^.^.^./.^./.^.^.^.^.^.Q.Q.Q.Q.Q.Q.^.^.^.^.^.^.Q.Q.^.^.G.^.!.!.^.Q.G.Q.!.G.Q.E . o . X X   . . 5 } $.o.*.X.+...+.+.O.O.O.+.+.+...+.O...+.+.O.....+.O...............+...X.O.........O.X.o.$.[ # . +                                                                 @ [ %.X.X.O.............O.O.....O.O.O.O.O.....O.......O.O.........................................O.O.O.O.O.O.O...O.....O.....O...O...O.O.O.O...........",
"o X o o X o o o o o o o o o o o o o o o o o o o o o o o o o o o o o o o o o X o o o X o o o o o o o o o o o o o o o o o o o o o o o o o o o o o o o o o o o o o o o o o o o o o o o o o o o o o o o o o o o o o o o o o o o o o o o o o o o o o o o o o o o o o o o o o o o o o o o o o o o o o o o X o o o o o o o o o o o o o o o o o o o o o o X o o o o o o o o o o o o o o o o o o o o o o o o X o o o o o o o o o o o o o o o o o o o o o o o o o o o o o o o o o o o o o o o o o o o o o o o o X o o o o o o o o o o o o o X o o o o o o o o o o o o o o o o o o o o o o o o o o o o o o o o o o o o o o o o o o o o o o o o o o o o X X X o X X o o X o X X X X X X X X X X X X X X X X X X X X X X > '.*X#X#X#X#X&X&X&X#X#X&X&X#X#X&X&X&X&X$X&X&X&X&X#X#X#X&X#X#X#X#X#X#X&X&X&X&X#X#X#X#X#X&X&X&X&X=X=X=X=X=X&X&X&X$X#X#X#X#X&X*X&X&X&X&X#X&X&X#X#X*X*X&X&X&X&X&X&X&X&X*X&X*X=X*X&X&X*X*X&X*X*X*X=X*X*X$X$X#X#XoX].'.`.~.~.~.~.~.~.J.J.J.J.V.N.N.m.m.m.m.m.>.>.>.E E E E T T T T T E E T ,.S.^./.^.Q.Q.^.Q.^.Q.Q././.^.Q.!.G.!.^.^.G.Q.Q.G.Q.G.Q.Q.Q.Q.G.Q.Q.^.Q.^.Q.G.G.^.Q.Q.Q.Q.G.Q.Q.Q.Q.G.G.G.G.G.F.Q.^.G.G.Q.Q.^.Q.Q.^.^.Q.^.^.Q.G.G.G.^.Q.Q.Q.Q.Q.Q./.Q.Q.Q.Q.Q.Q.Q.Q.A.Q.Q.G.G.G.Q.Q.G.Q.Q.Q.^.G.Q.^.G.Q.^./.^.Q.^.^.Q.Q.S.S.}.=X=X=X=X=X=X*X=X=X*X=X*X*X*X*X*X*X&X*X*X&X&X&X*X=X=X=X=X=X=X=X=X=X=X=X&X*X*X*X=X=X*X*X*X*X=X=X=X*X&X=X=X*X&X&X$X$X*X&X*X=X=X*X=X=X*X*X*X$X}.D.^./.^./.^.Q.^.Q././.Q.^.^.Q.G.Q.Q.G.G.^.Q.Q.Q.G.^.Q.^.^./.^.^.^.Q.Q.Q.F.S.S.G.G.^.^././.^./.^.^./.^.^.Q.Q.Q.Q.^.Q.G.G.G.F.G.Q.Q.Q.Q.Q.Q.Q.^.Q.Q.G.G.!.G.^.^.Q.^.^.G.^.^.^.^.^.^.Q.^.Q.^.^.^.^.^.Q.Q.Q.Q.Q.Q.Q.Q.^././.Q.Q.Q.Q.Q.G.Q.^././.^.G.^.G.^.E . o o X   . . 5 | #.o.X.X.o.+.X.X.+.+.+.+.+.+.+.+.+.O.+.+.+.+.+.+.+.O...............X.............O.O...o.o.$.Y . +                                                                 # | %.X...O.O.....O...............O.O.O.O.O.O.O.O.O.O.O.O.............O.O.O.O...............................O.O.O.............O.O.........O.............",
"o X X X X o o o o o o o o o o X X o o o o o o o o o o X X o o o o o o o o o o o o o o o o o o o o o o o o o o o o o o o o o o o o o o o o o o o o o o o o o o o o X o o o o o o o o o o X o o o o o o o o o o o o o o o o o o o o o o o o o o o o o o o o o o o o o o o o o o o o o o o o o o o o o o o o o o o o o o o o o o o o o o o o o o o o o o o o o o o o o o o o o o o o o o o o o o o o X X o o o o o o o o o o o o o o o o o o o o o o o o o o o o o o o o o o o o o o o o o o o o o o o o o o o o o o o o o o o o o o X o o X o o o o o o o o o o o o o o o o o o o o o o o o o o o o o o o o o o X o o X o o o o o o o o o o o o X X X o o o o X o o X X X X X X X X X X X X X X   X X     X   a ].#X&X&X&X&X&X&X&X#X#X#X#X&X#X#X&X&X&X&X&X&X&X&X&X&X#X$X&X#X#X#X&X&X&X&X&X&X&X&X&X#X#X#X#X#X&X&X&X*X*X*X*X&X*X*X&X$X#X#X#X&X&X&X&X*X*X*X&X&X#X&X*X&X&X&X&X&X&X&X*X&X=X=X=X*X&X&X&X*X=X=X=X*X&X*X*X*X$X#X#X#X#X{.{.].{.{.].].{.].].'.'.'.'.'.`.~.~.~.~.~.~.J.J.J.J.J.J.J.J.V.N.m.m.E T S.G.^./.^.G.G.^.G.^.Q.G.Q.Q.Q.^.G.G.Q.^.Q.G.G.Q.Q.^.Q.Q.Q.Q.Q.Q.Q.G.Q.Q.Q.Q.Q.Q.^.Q.Q.^.^.Q.Q.Q.G.Q.!.Q.Q.Q.G.F.^.Q.G.Q.!.Q.Q.Q.G.^.Q.G.Q.G.G.G.S.G.Q.Q.Q.Q.Q.F.Q.^.Q.Q.Q.Q.!.G.Q.Q.G.G.G.Q.G.G.G.G.G.G.Q.Q.^.!.Q.^.^./.^.^./.Q./.^.^.^.S.OX=X*X=X*X=X=X=X=X=X=X=X*X*X*X*X*X*X=X=X=X=X&X&X*X&X=X=X=X=X=X=X=X=X=X=X=X*X*X*X=X*X*X*X*X&X*X*X=X=X=X=X=X=X=X=X=X=X*X=X=X=X=X=X=X=X=X*X$X$X'.N.^./.^.Q.G.G.G.G.Q.Q.Q.!.^.^.Q.Q.Q.G.G.Q.Q.Q.Q.Q.^.^.^.^.^.^.^.^.G.Q.Q.Q.Q.Q.Q.F.Q.^.^./././.(././.^.^.Q.^.Q.G.Q.Q.Q.Q.Q.Q.Q.^.^././.^.Q.^./.^.Q.Q.!.G.G.^./.^.^.^.^.Q.^./.^.^.^.^.Q./.^.^.^.^.^.Q.Q.Q.Q.!.Q.^.^.Q.^.^.Q.^.^.^.^./.Q.Q.^././.^.^.G.^.T . o o o o . @ ' $.o.o.....X.....+...O.O.O.O.....O.O...O.........................o.....o.......+.........X.X.o.$.q . +                                                               5  .X...O.....O.................................O.O...O...O.................O.O.O.....O.O.O...............................O.O.O...O.O.O.O.O.O.O.O.O.O...",
"o X X X X o o o o o o o o o o o o o o o o o o o o o o o o o o o o o o o o o o o o o o o o o o o o o o o o o o o o o o o o o o o o o o o o o o o o o o o o o o o o o o o o o o o o o o o o o o o X X o o o o o o o o o o o o o o o o o o o o o o o o o o o o o o o o o o o o o o o o o o o o o o o o o o o o o o o o o o o o o o o o o o o o o o o o o o o o o o o o o o o o o o o o o o o o o o o o o o o o o o o o o o o o o o o o o o o o o o o o o o o o o o o o o o o o o o o o o o o o o o o o o o o o o o o o o o o o o o o o o o o o X o o o o o o o o o o o o o o o o o o o o o o o o o o o o o o o o o o o o o o o o o o o o o X X o o X X X o X X o o X X o X X X X X X X X X X X X           X   a oX#X#X&X&X&X&X&X&X&X#X#X&X&X&X#X#X#X#X$X$X&X$X#X&X&X#X#X#X$X$X&X$X&X&X&X&X&X&X*X&X&X#X#X#X&X&X&X&X&X*X*X*X&X&X&X&X&X&X#X#X#X&X&X#X&X&X&X&X&X&X*X*X*X&X&X&X&X&X&X&X&X&X&X&X=X&X&X&X&X=X*X=X=X*X=X*X&X&X$X#X#X#X#X#X#X#X#XoXoX#X#XoXoXoXoXoX{.].].{.{.].].'.'.{.{.].'.'.'.'.'.'.'.~.D.>.S.G.G.Q./.^.G.G.G.G.Q.G.F.F.Q.G.!.G.G.Q.Q.Q.G.G.G.Q.Q.G.F.G.F.G.G.G.G.Q.Q.Q.^.Q.Q.^.^.Q.Q.Q.Q.Q.Q.Q.Q.^.^.Q.Q.G.G.Q.G.G.G.Q.G.G.Q.^./.G.G.Q.Q.Q.^.G.G.Q.Q.Q.Q.G.F.Q.^.Q.Q.Q.^.^.Q.^.^.Q.G.G.Q.Q.G.Q.Q.G.G.G.Q.^.^.^.^.^.^.^./.^.^.^.^.^.S.OX=X*X=X=X*X=X=X=X=X=X=X=X*X*X*X=X=X&X=X=X*X&X*X&X&X&X=X=X=X=X=X=X=X=X*X=X=X&X*X=X*X*X=X=X&X&X&X&X*X=X=X=X=X=X=X=X=X=X=X=X=X=X=X=X=X=X=X$XoX~.N.^./.^.^.Q.G.Q.G.G.G.G.Q.Q.Q.Q.Q.Q.Q.Q.Q.Q.Q.^.^./.^.^./.^.^.^.^./.^.Q.Q.Q.Q.^.Q.Q.Q.Q.^././.(.^.G.G.G.G.F.S.G.^.^.^.^.^.Q.Q.G.G.Q.Q.^.Q.^./.^.^.Q.G.Q.Q.Q.^.^./.^././.Q.^.^.G.Q.Q.Q.^.^.^.^.^.Q.Q.Q.Q.Q.Q.Q.Q.Q.G.Q.Q.^.^.^.^.Q.^./.^.^.^.^.^.K.G.G.s . O O o . @ 0 $.o.o...............O.......O.........O.................................o.o.X.+.......+.O.O.+.@.o.#.5 . .                                                           . q $.X...O.............................................O.........................O.......O.O.O.O.O.............................O.O.O.O.O.O.O.O.O.O.O.O.O.",
"o X o o X X o o o o o o o o o o o o o o o o o o o o o o o o o o X o o X o X o o o o o o o o o o o o o o o o o o o o o o o o o o o o o o o o o o o o o o o o o o o o o o o o o o o o o o o o o o o X o o o o o o o o o o o o o o X o o o o o o o o o o o o o o o o o o o o o o o o o o o o o o o o o X o o o o o o o o o o o o o o o o o o o o o o o o o o o o o o o o o o o o o o o o o o o o o o X o o o o o o o o o o o o o o o o o o o o o o o o o o o o o o o o o o o o o o o o o o o o o o o o o o X o X X o o o o X o o o o o o o o o o o o o o o o o o o o o o o o o o o o o o o o o o o o o o o o o o o o o o X o o o o o o o o X o o o X X X X X X o X X o o o X o X X X X X X X X             X   f $X#X#X#X&X&X&X&X&X&X#X#X&X&X&X&X#X&X#X#X#X#X&X&X&X&X&X&X$X$X$X#X#X#X#X#X#X#X#X#X*X$X#X#X#X#X#X&X&X&X$X&X&X&X&X&X&X*X*X&X&X&X&X#X#X#X*X&X&X&X#X&X*X*X*X*X&X&X&X&X&X&X&X&X&X*X*X&X&X&X*X*X*X=X*X&X*X=X=X*X&X&X&X#X$X$X$X$X#X#X#X$X$X&X#X#X#X#X#XoXoX#XoX#X#XoXoX#X#X#XoX#X#XoXoX{.'.~.,.S.^.Q.G.Q.^.Q.G.Q.G.G.^.G.G.G.Q.Q.G.G.Q.Q.Q.Q.G.G.G.G.G.F.Q.F.G.Q.Q.F.G.A.A.F.G.Q.Q.F.Q.Q.G.Q.Q.Q.G.Q.Q.G.Q.Q.G.G.Q.Q.Q.Q.Q.Q.Q.Q.Q.^.^.Q.Q.G.^.^.Q.Q.G.G.G.G.Q.Q.Q.^.^.^.^.G.^.^.^.^././.^.Q.^.Q.Q.Q.G.G.^././.^.^.^.Q.Q.Q.^.^.^./.^.Q.S.OX=X=X=X=X*X=X=X=X=X*X*X=X=X=X*X=X=X*X*X*X=X=X*X=X=X=X*X*X=X*X*X&X=X=X=X=X=X*X*X*X=X*X*X=X=X=X=X*X&X*X=X=X=X=X=X=X=X=X=X=X=X=X=X=X=X=X=X*XoX~.N.^./.^.Q.!.Q.Q.Q.Q.Q.Q.Q.^.Q.Q.Q.Q.Q.Q.Q.Q.Q.Q.Q.Q.Q.^.^.^.^.^.Q.Q.^.^.Q.Q.G.Q.^.^.Q.Q.Q.Q.G.Q.Q.G.Q.Q.Q.G.G.^.Q.Q.Q.Q.^.Q.Q.Q.Q.Q.Q.Q.Q.Q.^./.^.G.G.^.^.Q.Q.Q.^.^.^.G.^.^.Q.Q.^.^./.Q.^.Q.^.Q.Q.Q.Q.^.Q.Q.G.G.Q.G.G.G.G.Q.Q.G.Q.Q.G.^.^.^.Q.^.^.G.^.e . O O O . q $.@.X.X...........O...........O.....................O.+.................O.O.+.+.+.X.......O.O...X.o.$.[ @ .                                                           . G $.X...O.O.O.......O.O.O.O.........................O.O.O.......O.O.......................................O.......O.O.........................O.........",
"o o o o o o o o o o o o o o o o o o o o o o o o o o o o o o o o X o X o o X X o X X X o o o o o o o o o o o o o o o o o o o o o o o o o o o o o o o o o o o o o o o o o o o o o o o o o X o o o o o o o o o o o o o o o o o o o o o o o o o o o o X o o o o o o o o o o o o o o o o o o o o o o o o o o o o o o o o o o o o o o o o o o o o o o o X o o o o o o o o o o o o o o o o o o o o o o o o o o o o o o o o o o o o o o o o o o o o o O o o o o o o o o o o o o o o o o o o o o o o o o o o o o o o X X o o o o X o X o o o o o X X o o o o o o o o o o o o o o o o o o o o o o o o o o o o o o o o o X o o o o o o o o o o o X o o o o X o o o X X X X X X X X X o X X X X X X X X X X     X   X   f *X#X&X#X&X&X&X&X&X#X#X$X#X&X&X&X&X&X#X#X#X#X&X&X&X&X&X*X&X&X&X$X#X#X#X#X#X#X#X#X#X&X&X&X#X&X#X&X&X#X#X#X&X&X&X&X#X#X#X&X*X&X&X&X#X&X&X&X&X&X#X#X&X&X#X&X*X=X=X=X*X*X=X=X=X=X*X*X&X&X&X*X&X&X&X&X=X&X*X=X&X&X&X#X#X#X#X#X$X&X#X#X&X&X&X&X&X&X&X$X#X#X&X&X&X$X#X#X&X&X&X#X#X&X#X#X{.~.m.S.^.G.G.G.Q.^.G.G.Q.G.Q.!.Q.F.G.Q.Q.F.F.G.^.G.G.Q.Q.!.G.Q.G.Q.Q.G.F.G.G.G.F.F.F.Q.Q.Q.G.G.A.F.G.Q.Q.F.G.G.A.G.G.G.G.G.Q.^.Q.Q.^.^.^.^.^.Q.Q.Q.G.^.G.^.^.Q.^.Q.G.Q.Q.Q././.(.(.(.(.(.(.(.(.(.(././.^.Q.^.G.G.G.^.^.^.^.^.^.^.^.Q./././.^.^.OX=X=X=X=X=X=X=X=X=X*X&X=X=X=X=X&X*X=X*X*X=X=X&X=X=X=X=X=X=X=X=X=X=X=X=X=X=X=X*X&X*X=X=X=X=X=X=X=X=X&X&X=X=X=X*X*X=X=X=X=X=X=X=X=X=X=X=X*X$X~.N.^.^.^.G.G.Q.Q.Q.Q.Q.Q.Q.^.Q.^.^.^.Q.Q.^.Q.^./.^.^.Q.^.^.^.^./.^.Q.G.Q.^.Q.^.^.^.^.^.Q.Q.Q.Q.Q.Q.Q.Q.Q.Q.^.Q.!.Q.^.Q.Q.^.^.^.Q.Q.Q.Q.G.G.^.^.^.^.^.G.^././.^.^.^.^./.^././.^.^.Q.Q.Q.Q.Q.Q.^.Q.Q.Q.Q.Q.Q.^.Q.Q.!.Q.Q.Q.!.Q.G.G.Q.^.^./.Q.^.^.^.^.^.^.r . O o . %  .%.@.+.O.....o.o...............+.O.O.......................O.+...........O.+.+.+.+.X.......O...O...X.o.#.q . +                                                         . ` $.X...O...O.O.O.O.O.O.O.........O.............O...O.....O.O.O.O...............................O.......................O.O.O...........O.O.............",
"X X o o o o o o o X o o o X X o o o o o o o o o o o o o o o o o o X X o o o o o o o o o o o o o o o o o o o o o o o o o o o o o o o o o o o o o o o o o o o o o o o o o o o o o o o o o o o o o o o o o o o o o o o o o o o o o o o o o o o o o o o o o o o o o o o o o o o o o o o o o o o o o o o o o o o o o o o o o o o o o o o X o o o o o o o o o o o o o o o o o o o o o o o o o o o o o o o o o o o o o o o o o o o o o o o o o o o o o o o o o o o o o o o o o o o o o o o o o o o o o o X o o o o o o o o o o o o o o o o o o o o o o o o o o o o o o o o o o o o o o o o o o o o o o o o o o o o o o o o o X X X o o o o X X X X o o o X o o X X X X X o X X X X X X X X X X X X X X X   X   X   f *X#X#X#X#X#X&X&X=X&X&X&X&X$X&X&X#X#X#X#X#X#X#X&X#X&X#X&X&X&X&X&X&X#X#X#X&X#X#X&X&X&X&X&X&X&X&X*X*X&X&X&X&X#X$X&X&X$X#X#X&X*X*X&X#X$X&X*X*X*X&X#X#X&X#X#X#X*X*X=X=X=X=X=X=X*X&X$X&X&X#X&X&X&X&X#X&X*X&X&X&X&X&X&X&X$X$X*X$X&X&X&X&X&X$X#X#X&X&X&X&X&X*X&X$X$X&X&X&X&X&X*X$X&X#X#XoX~.N.S.^.^.^.G.G.^.^.G.G.Q.G.Q.Q.G.S.G.Q.!.G.G.Q.^.Q.G.G.Q.^.!.G.G.F.G.!.!.G.Q.Q.Q.Q.G.G.Q.Q.^.Q.S.Q.Q.Q./.Q.Q.^.G.G.F.G.Q.S.^.^.G.Q.Q.G.Q./.^.Q./.^.^.Q.^.!.G.Q.^.Q.Q.^./.Q.^.^.S.S.K.^.J.^.(.(.(.(.(.(.(.(.(.(.(.(.(././.(./.^./././.(./.^.~.*X=X=X=X=X=X=X=X=X=X=X&X&X=X*X&X&X&X&X*X*X=X=X=X=X=X=X=X=X=X=X*X=X=X*X=X*X&X*X*X$X#X$X&X*X*X&X*X=X=X*X*X&X*X=X=X*X=X=X=X*X=X=X=X=X=X=X=X$XOX~.D.^.Q.Q.Q.Q.Q.Q.Q.^.^.^.^./.Q.Q.Q.Q.^.^.Q.Q.^.Q.^.^.Q.^.^.Q.^.!./.^./.^.^.G.Q./.Q.G.G.^./././.^.Q.Q.^.Q.Q.Q.Q.!.^.^.^.^./././.^.Q.^.^.Q.^.Q.^.^././.^.Q.^.^./././.Q.^.^.^.Q.^././.^.^.Q.^.^.Q.Q.Q.Q.^.Q.Q.^.Q.Q.G.Q.Q.^.^.^././././.^././././././.^.S.3 . O + @ 0 %.%.+.....O.........O.............O...O.O.....................X.....O.................+.......O.O...X.X.$. .% . .                                                     . # [ X.X.O.O...O.O.........O...............O.....O.O.O.O.O.O...O.....O...O.O.O.O.....O.................O.O...................O.O.O.........................",
"o X o o o o o o o X o o o o o o o o o o o o o o o o o o o o o o o o o o o o o o o o o o o o o o o o o o o X X o X o o o o o o o o X X o o o o o o o o o o o o o o o o o o o o o o o o o o X X X o o o o o o o o o o o o o X o o o o o o o o o o o o o o o o o o o o o o o o o o o o o o o o o o o o o o o o o o o X o o o o o o o o o o o o o o o o o o o o o X o o o o o o X o o o o o o o o o o X X o o o o o o o o o o o o o o o o o o o o o o o o o o o o o o o o o o o o o o o o o o o o o o o o X X o o o o X o o o o o o o X o o o o o o o o o o o o o o o o o o o o o o o o o o o o o o o o o o o o o o o o o X X o o o o o X X X X o o o X X X X X o o X X o o o X X X X X X X X   X X X X     X   n.=XoX#X#X#X#X#X#X*X&X&X&X&X#X$X$X#X#X$X#X&X&X#X&X&X&X#X&X&X&X#X#X&X#X#X&X#X#X#X&X&X&X&X&X&X&X&X&X*X&X&X&X&X#X#X#X$X$X$X&X#X#X#X#X#X#X#X#X&X&X*X*X&X&X&X&X#X#X#X&X&X&X&X&X&X*X=X=X&X&X#X&X&X&X&X#X#X$X*X*X*X*X*X&X&X&X$X&X&X*X&X&X&X*X*X&X&X&X#X#X#X&X#X$X*X&X*X&X#X&X&X$X$X&X&X$XoX~.N.S.^.^././.^.Q.^.G.G.G.Q.G.G.^.G.G.G.G.Q.G.F.G.^.Q.Q.Q.G.F.G.G.G.G.G.G.Q.Q.Q.Q.Q.Q.G.G.G.Q.^.Q.G.G.G.Q.Q.Q.Q.Q.G.Q.G.G.Q.G.^.G.Q.G.G.G.Q./.Q.G.G.G.Q.G.G.^.Q.Q.Q.G.Q.Q.Q.Q.,.T T E T E E E E >.,.,.,.,.,.m.m.D.D.S.S.S.^.^.(.(.(.(.(.(.(.'.*X=X=X=X=X=X=X=X=X=X=X*X*X=X=X=X=X=X=X=X=X=X*X&X*X&X*X*X=X=X=X=X=X=X=X&X=X*X&X*X=X*X=X=X*X&X*X=X=X*X=X=X=X*X*X&X*X=X=X=X=X=X=X*X*X*X&X$X$XoX~.D.^.^.^.Q.Q.Q.Q.Q.Q.Q.^.^.^.G.Q.^.Q.^.Q.G.^.^.^.Q.G.^.G.Q.^.Q.^.G.^.^./.^./.^.^./.Q.Q.^.^.Q.Q.G.Q.^.Q.G.!.Q.G.G./.^.^./.^.^.^.^./.^.^.^.Q.^.^.^./.^.Q.^./.^.^.^.^.^.^.Q.^./.^.^./.Q.Q.G.Q.G.Q.G.G.Q./.Q.^./././.^.^.^.Q.Q.Q.!.Q.G.Q.^.Q.^.^./.^.^.G.S.3 . O . % | %.X.+.+.....O.O.........................................+.+.+.o.....................+.+.+.............X.@.$.0 . . .     X                                             . 5  .X...O.O...O.O.O.O.......O...............O.........O.O.....O.....O.O.O.....O.................................O.O...........O.O...............O.O.O.....",
"o X X X o o o o X o o o o o X X o o o o o o o o o o o o o o o o o o o o o o o o o o o o o o o o o o o o o o o o o o o o o o o o o X X o o o o o o o o X o o o o o o o o o o o o o o o o o X o o o o o o o o o o o o o o o o o o o o o o o o o o o o o o o o o o o o o o o o o o o o o o o o o o o o o o o o o o o o o o o o o o o o o o o o o o o o o o o o o o o o o o o o o o o o o o o o o o o o o o o o o o o o o o o o o o o o o o o o o o o o o o o o o o o o o o o o o o o o o o o o o o o X X X X X X X X X X X o o o o o o o o o o o o o o o o o o o o o o o o o o o o o o o o o o o o o o o o o o o o o o o o o o o o o o o o o o o o o X X X X X X X X X X X o X X X X X X X X X             X   n.=X#X#X$X$X#X#X#X&X*X&X$X#X#X#X#X$X#X&X$X&X&X#X#X&X&X#X#X#X&X#X#X#X#X#X#X&X&X&X&X#X&X&X#X&X&X&X&X&X&X&X&X&X&X$X$X&X$X$X&X$X&X#X#X#X#X#X#X#X#X&X&X&X&X&X&X&X#X&X#X&X&X&X&X&X&X*X=X=X&X&X&X&X&X&X$X&X&X#X#X&X$X*X*X*X*X*X*X&X#X&X&X&X&X&X&X*X*X&X&X#X#X&X$X&X&X=X*X&X&X*X*X$X$X&X$XoX~.N.G.^.G.G.^.^.Q.G.Q.Q.^.G.^.^.^.Q.G.G.G.!.Q.G.G.G.G.Q.Q.Q.G.A.G.G.Q.!.G.Q.G.Q.^.Q.Q.^.^.^.^.^.Q.G.Q.G.F.G.G.G.G.Q.Q.Q.Q.Q.G.!.^.Q.Q.G.Q.Q.Q./.^.^.Q.Q.^.^.Q.^.^.Q.G.G.Q.G.G.S.~.J.J.J.N.N.m.m.m.>.>.>.E E E E T E T T T T T T E >.,.N.J.~.OX*X*X=X=X=X=X=X=X=X=X=X*X*X&X*X*X*X=X=X=X=X=X=X*X&X*X*X*X=X=X=X=X=X=X=X=X=X=X=X$X&X*X=X=X=X*X=X=X=X&X&X=X=X=X=X*X&X=X=X=X=X=X=X=X$X$X&X$X$XoX~.D.^.^.^.G.G.Q.Q.Q.^.Q.Q.G.Q.^.Q.^.^.!.^./.^././.^.^./.^.G.G.G.G.G.Q.Q.^./././.Q.Q.Q.^./.Q.^.^.^.^.Q.Q.Q.Q.^.^.G.!./.^.^.Q./.^.^.Q.Q.^.^.G.G.G.^.Q.^./.^.^.^.^.^.Q.^.^.^.^.^.^.^.^.^.Q.^.G.Q.Q.Q.Q.Q.Q.Q.Q.^.Q.^.^./.^.Q.Q.^.!.G.G.^.^./.^.^.^.^.^.G.D.- . + . q $.X.+.+.+.............................+.+.+.....................O.O.X.................X.+.+...............o.$.} @ . . .   X X                                         . . q #.X.X.O.O...................O.............O.O...............O.............O.O...O.......O.........O.................O.........O...............O.O.O.O...",
"o o X o o o o o X o o o o o o o o o o o o o X o o o o o o o o o o X X o o o o o o o o o o o o o o o o o o o o o o o o o o o o o X X X o o o o o o o o o o o o X o o o o o o o o X o o o o o X o o o o o o o o o o o o o X o o o o o o o o o o o o o o o o o o o o o o o o o o o o o o X X o o o o o o o o o o o o o o o o o o o o o o o o o o o o o o o o o o o o o o o o o o o o o o o o o o o o o o o o o o o o o o o o o o o o o o o o o o o o o o o o o X o o o o o o o o o o o o X o o o o X X X X X X X X X o o X X X X X X X X X o o o o o o o o o o o o o o o o o o o o o o o o o o o o o o o o o o o o X X o o X X X o o o o X X X o o o o o X X o X X X o o o X X X X X X X X X X X X       X X o C.*X#X#X&X#X#X#X#X#X#X&X#X&X&X#X#X#X$X#X&X&X&X&X&X#X&X#X#X&X&X#X&X#X#X#X#X&X&X&X&X&X#X&X&X#X&X&X&X*X&X#X&X&X&X&X$X&X$X$X&X$X&X&X&X&X&X&X&X&X&X&X&X&X&X&X&X&X&X&X&X&X&X#X#X&X&X&X&X=X*X&X&X&X&X&X&X&X*X&X#X#X#X#X#X#X$X&X&X&X&X&X&X&X&X&X&X&X&X*X=X&X#X$X#X&X*X=X=X&X&X$X$X*X*X&X#XoX~.N.G.Q.Q.G.G.G.G.G.G.G.G.!.Q.Q.G.G.^.G.G.G.G.Q.G.G.Q.Q.Q.Q.Q.G.G.F.G.Q.^.Q.Q.Q.Q.Q.^.Q.^.^.Q.^.Q.Q.Q.^.Q.Q.Q.G.G.G.Q.G.Q.Q.G.G.G.G.Q.Q.Q.Q.Q.Q.Q.Q.^.G.Q.Q.Q.Q./.^.^.Q.^.Q.S.}.OXoX{.{.'.'.'.'.'.~.~.~.J.J.J.V.V.V.N.N.m.m.m.m.m.>.>.n.N.~.$X*X*X=X*X=X=X=X=X=X=X=X=X=X=X=X*X&X&X&X*X*X*X=X*X&X&X&X&X&X*X*X*X&X=X&X=X=X*X=X=X&X&X&X&X*X*X*X=X=X=X&X&X*X=X=X*X*X=X=X=X=X=X=X=X=X*X*X$X#XoXJ.D.^.^.Q.G.Q.Q.Q.Q.Q.Q.Q.Q.Q.^.G.!.^.^.^.^.^.^./.^.^.^.Q.Q.G.^.Q.G.^.!.Q.^./.^.^.Q.Q.^.^.Q.Q.Q.^.^.Q.^.Q.Q.Q.^.!.Q./.^././.^./././././././.^.^.^.^.^.^././.Q.^.^.Q.Q.^.^.Q.^.^.^.Q.^.^.^.Q.Q.Q.G.G.G.Q.Q.G.Q.^.Q.Q.^.Q.^.^.Q.!.G.G.!.Q.Q.Q.^.Q.^.G.G.m.- . @ # [ %.X.+.+.+...............................+.........................O.O.X...................................o.o.#.q . + .                                               . . 0 $.X...........................................O.................................O.........O.O.......O.....O.....................O.....O.O.O.O.O.O.O.O...",
"o o X X o o o o X X o o o o o o o o o o o o o o o o o o o o o o o X X o o o o o o o o o o o o o o o o o o o o o o o o o o o o o o o o o o o o o o o o o o o o o o o o o o o o o o o o o o o X o o o o o o o o o o o o o o o o o o o o o o o o o o o o o o o o o o o o o o o o o o o o o o o X o o o o o o o o o o o o o o o o o o o o o o o o o o o o o o o o o o o o o o o o o X o o o o o o o o o X o o o o o o o o o o o o o o o o o o o o o o o o o o X X o o o o o o o X X X o o o o o o o X o X o o X X X X X X X o X X X X X X X o o o o o X X X o o o o o o o o o o o o o o o o o o o o o o o o o o o o o o o X o o X o o o o X X X o o o o o o X o o X X o o o X X X X X X X X X X X X X     X   = R.&X#X#X&X#X#X#X#X#X#X&X#X&X$X$X#X#X&X&X&X&X&X&X&X&X&X&X#X#X&X&X#X#X#X#X#X&X&X&X&X&X&X#X#X#X#X&X&X&X&X&X&X&X$X*X$X&X$X&X&X&X&X$X&X&X&X&X&X&X&X&X&X&X&X&X&X&X&X&X&X&X&X$X$X&X&X&X*X&X*X&X&X*X*X*X&X&X*X*X&X*X*X*X*X&X&X&X#X#X&X&X&X*X&X&X=X*X&X&X*X&X$X&X&X#X&X&X*X*X&X*X$X$X*X$X#XoXJ.D.^.G.Q.^.Q.G.G.G.Q.Q.G.G.G.G.G.S.G.G.Q.Q.G.Q.^.G.G.Q.Q.Q.^.^.^.Q.G.G.Q.Q.Q.Q.G.^.Q.^.Q.Q.Q.G.F.S.G.Q.Q.Q.^.Q.Q.Q.G.G.G.Q.G.G.F.Q.Q.G.Q.Q.Q.Q.G.G.Q.Q.Q.Q.Q.Q.^.Q.^.^.^.Q.S.OXOX$X#X#X#X#XoXoX{.{.].{.].].'.'.'.'.'.`.[.[.`.`.'.~.~.`.'.oX$X*X*X*X*X*X=X=X=X=X=X=X=X=X=X&X*X*X&X&X*X*X*X*X&X&X&X&X&X&X*X*X*X*X=X=X*X*X=X=X=X=X*X=X*X&X&X=X*X=X=X=X=X*X&X*X=X*X=X=X=X=X*X=X=X=X*X&X$X#X'.J.S.^.^./.^.^.G.G.G.Q.G.Q.Q.^.^.^.Q.^.G.Q.Q.^.^.Q./././././.^.G.^.Q.Q.Q.Q.Q.^.Q.Q.Q.G.Q.^./.Q.Q.^.Q.Q.^.Q.^.Q.Q.^.^.^.Q.^.^././.^.^./././.^.^.^.^.^.^.^.^.^.Q.^.^.Q.Q./.Q.Q.^.^.^.^.^.^.^.^.^./.^.^.G.Q.^.^.G.^.^.^.Q.^./.^./.^.G.Q.G.Q.!.G.Q.Q.G.G.S.>.# @ . 5 #.%.+.+.+.+.+.....O.+.......................+.O.+.....................................X.....O.X.X.............o.$.' . . .           X                                   . @ Y $.X.........................................................................O.......O.......O.O.O...O.O.....O.O.O...O.O.O.O.O...O.O.O.O.....O...O.O.....",
"o o X X o o o o X o o o o o o o o o o o o o o o o o X o o o o o X o o o o o o o o o o o o o o o o o o o o o o o o o o o o o o o o o o o o o o o o o o o o o o o o o o o o o o o o o o o o X X o o X o o o o o o o o o o o o o o o o o o o o o o o o o o o o o o o o o o o o o o o o o o o o o o o o o o o o o o o o o o o o o o o o o o o o o o X X X X X o o o X X X X o o o X X X X X X X o X X X o o o o o o o o o o o o o o o o o o o o o o o o o o o X X X X o o o o o X o X X o o o o o X o o X o o X X o o o X X o o X X X X X X X X o o o o o o X X X X X X X o o X X X o o X o o o o o o o o o o o o o o o o o o o o o o o o X o o o X o o X X o o o o X X X o X X X X X X X X X X X X       X   > '.&X#X#X&X&X#X#X#X#X$X$X&X&X$X&X&X#X#X&X$X&X&X&X&X&X&X&X#X#X#X#X&X&X&X#X#X#X&X&X&X#X&X&X&X#X#X#X#X&X&X&X&X&X&X$X$X&X$X$X$X&X&X&X&X&X&X&X&X&X&X&X&X&X#X&X&X&X#X&X&X&X&X&X&X&X&X&X*X=X*X&X&X&X*X=X*X$X*X=X*X*X&X&X*X*X*X*X&X&X#X&X&X&X*X&X&X*X&X&X*X&X&X#X&X*X&X&X&X*X*X*X=X*X$X*X$X{.J.D.^.Q.G.Q.Q.Q.Q.G.Q.Q.Q.Q.G.G.Q.G.G.G.G.Q.Q.Q.^.^.Q.Q.G.Q.Q.^./.^.Q.Q.G.Q.Q.G.G.G.^.Q.G.G.F.G.Q.Q.F.Q.Q.Q././.^.Q.Q.Q.Q.Q.Q.Q.G.F.Q.G.Q.Q.Q.Q.Q.S.G.Q.Q.!.Q.Q.Q.Q.Q.^.Q.G.S.OX*X*X*X$X$X$X$X$X#X#X#X#X#X#X#XoXoXoX#XoX#XoXoX{.oXoX{.oX#X#X$X$X$X&X$X*X=X=X=X=X=X*X=X=X=X*X&X&X&X$X&X&X&X*X&X&X*X=X=X=X=X=X=X=X=X=X=X=X=X=X=X=X=X=X=X=X&X*X*X*X*X=X=X=X=X=X=X=X=X=X*X*X=X=X=X=X*X*X*X#X'.N.D./.^.^./.^./.^.^././././.^.^./.^.^.Q.G./.^.^.^.^.^.^././.^.Q.Q.G.Q.Q.Q.Q.^./.^.^.Q.^.Q.!.^.G.^.^.^././.Q.^.G.G.^.Q.^./.^.^.^././.^./././.^././././.^.^.^.^.Q.Q.Q.Q./.^.^.Q.Q.^.^.^././.^.^.Q././.Q.Q.^.^.Q.Q.Q.^.^.^.^.Q.Q.G.G.G.Q.G.G.G.G.G.G.G.S.E @ # @ 0 $.+.+.+.+.+.........+.+.......................+.+...............................O.O.O...X.X.X...X.X.O.........o.o.#.% . +           X X                                 . # [ $.X...............O.........O.............O...................................O.O.O...O.........O.O.....O.......O...O.O.....O.O.O.O.O.................O.",
"o o o o o o X X X X X o o o o o o o o o o o o o o o o o o o o o o o o o o o o o o o o o o o o o o o o o o o o o o o o o o o o o o X X o o o o o o o o o o o o o o o o o o o o o o o o o o o o o o o o o o o o o o o o o o o o o o o o o o o o o o o o o o o o o o o o o o o X o o o o o o o o o o o o o o o o o o o o o o o o o o o o o o X o X X o X X X X o o X X X X o X o o o X X X X X X X X X X X o o o o o o o o o o o o o o o o o o o o o o o o X X X X X X X X X o o o o o o o X X X o o X o o o o o o o o o o o X X X X X X X X X o o o o o o o o o X X X X X o o o o X X o o o o o o o o o o o o o o o o o X X o o o o o o X o o o o X X o X X o o o o X o o o X o X X X X X X X     X X       : `.=X#X&X&X&X&X&X#X#X*X$X$X$X&X&X$X$X#X$X*X&X#X#X#X&X&X*X$X$X&X#X#X#X#X#X#X&X#X#X#X#X#X#X#X&X#X&X#X#X&X&X&X&X&X$X$X&X$X&X*X*X$X&X&X&X&X#X&X&X&X&X&X&X#X&X&X&X=X=X=X&X&X&X$X&X&X&X&X*X&X&X&X&X&X*X*X#X$X*X=X=X*X$X$X&X*X*X&X=X&X&X&X#X&X=X&X&X&X&X&X*X=X&X#X&X*X&X*X=X*X*X*X*X*X$X$X{.J.D.Q.G.Q.Q.!.Q.Q.Q.Q.!.G.Q.Q.Q.Q./.Q.Q.Q.G.Q.Q.S.G.Q.F.G.Q.G.G.G.Q.Q.^.G.G.G.Q.Q.G.G.Q.G.G.G.Q.Q.Q.G.Q.!.Q.Q.Q.Q.Q.^.^.Q.Q.G.Q.G.Q.G.G.F.G.G.G.^.Q.G.Q.G.Q.Q.!.Q.Q.Q.Q.^.G.Q.OX*X*X*X*X*X&X&X*X$X$X$X*X&X$X$X$X#X#X#X#X#X&X*X$X$X$X#X#X$X$X&X&X&X&X&X&X&X=X=X=X=X=X&X=X=X=X=X=X=X=X*X&X&X&X&X&X&X&X&X&X*X=X=X*X*X*X=X=X=X=X=X=X=X=X=X=X*X=X*X&X*X*X*X*X=X=X=X=X=X=X*X=X=X=X=X=X=X*X$XoX'.m.N.(.(.(.(.(.(.(.(.(.(.(.(.(./././.^.^.^.Q.^.^.^./.^.^.^./.Q.Q.Q.Q.^.Q.^././.^./.Q.^.Q.^.^.^.Q.G.Q.^.^.^.Q.Q.^.G.G.Q.Q.Q.Q.^.^.^./././././.Q.^.^.^./././././.^.^.^.^.^././.^.Q.Q.^.^.^.^.^.^.^.^.^.^.Q.Q./.^.^.^.G.^.Q.^.^.^.G.G.G.G.!.G.F.F.G.F.F.S.T @ # @ [ %.X.+.+.+.+.+.+.+.O.+.....................................O...+...X.O...........................o.X.....O.X...o.o.$.q . +     X       X                               . . %  .X...O.....O...............................................................................................O.O.................O.O.........O.O...........",
"o o X X o o o X X X X o o o o o o o o o o o o o o o o o o o o o X o X o o o o o o X X o o o o o o o o o o o o o o o o o o o o o X X X o o o o o o o o o o o o o o o o o o o o o o o o o o X X o o o o o o o o o o o o o o o o o o o o o o o o o o o o o o o o o o o o o o o o o o o o o o o o o o o o o o o o o o o o o o o o o o o X X X X o X X X o X X o o o X X X X X X o o X X o o o o o o X X X X o o o o o o o o o o o o o o o o o o o o o o o o X X X X X X X X o o o X X o X X X X o o o o o o X X X X X o o X o o o X X X X X X o X X X o o o X o o X X X X X o o o o X X o o o o o o o o o o o o o o o o o X X o o o o o X X o o o o o X X o X X X X X X o o X X X X X X X X X X X   X X       : `.*X&X&X#X&X&X&X#X#X$X$X&X&X#X&X$X&X&X&X$X&X#X#X#X#X#X&X&X$X$X*X&X#X#X#X#X#X#X#X#X#X#X#X#X&X#X&X&X&X&X&X&X&X&X&X&X&X&X#X#X&X&X&X&X#X&X#X#X#X&X$X&X&X#X&X&X&X&X&X*X*X*X&X#X&X&X&X&X*X&X&X&X#X#X#X#X#X#X&X*X*X=X*X$X*X=X=X=X&X*X&X&X&X#X&X&X&X&X&X$X&X*X=X&X$X&X*X*X=X*X*X*X=X*X$XoX{.D.D.^.G.Q.Q.Q.G.G.G.F.G.G.G.G.Q.Q.Q.Q.Q.Q.Q.Q.Q.Q.G.S.F.F.F.G.G.G.G.Q.Q.G.G.G.G.G.G.G.G.G.Q.Q.Q.Q.Q.G.G.G.G.G.Q.Q.Q.Q.Q.^./.^.^.Q.Q.Q.Q.G.G.G.G.G.Q.G.Q.Q.Q.Q.Q.Q.Q.Q.^.^.Q.~.*X*X*X=X*X=X*X*X=X*X=X*X*X*X*X*X*X&X$X$X#X#X#X&X*X*X=X*X&X&X&X&X&X&X&X&X&X&X&X$X*X=X=X=X=X=X=X=X=X=X=X=X=X=X&X&X&X=X&X&X*X&X&X&X&X*X*X=X=X=X=X=X=X=X=X=X=X&X*X=X*X=X*X*X*X*X*X*X=X=X=X=X*X=X=X=X=X=X=X$XoX'.N.E m.N.m.N.D.D.S.S.S.S.S.^.(././.(.(./.(.(.(.(.(.(.(.(.(././.^.^.^.^./.^.^.^.^./.^.^.^././.^.^.Q.^.^.^.^.!.^.G.Q.G.G.!.Q.Q.Q.^.^.^.Q.^.^.^.G.G.G.G.Q.Q.Q.Q.^.Q.Q.Q.G.F.Q.^.Q.Q.Q.Q.Q.^.Q.Q.G.^.^./././.Q.^./././././.^.^./././.^.!.G.Q.Q.F.F.F.A.3.Z.s . . %  .%.+.+.X.+.+.+.+.+.+.................X.......................X...............................O.+.X.............+.X.$.G . + + +                                         . . 5 &.X.............................................................................................O.............................................O...........",
"o o o o o o o o o o o o o o o o o o o o o o X o o X X o o o o o o o o o o o o o o o o o o o o o o o o o o o o o o o o o o o o o o X X o o o o o o o o o o o X o o o X X o o o X o o o X o o o o o X o o o o o o o o o o o o o o o o o o o o o o o o o o o o o o o o o o o o o o o o o o o o o o o o o o o o o o o X o o X X X X X X X X X X X X X X X X o o X o o o o o X X o o X X o o X X o X X X X X X X X o o o o o o o o X o o o o o o X X X X X o X X X X X X X X X X X X X X X X X X X o o o o X X X X X X X X X X o o o X X X X X X o o o o o X X X X X X X X X o X X X X o X o o o o o o o o o o o o o o o o o o o o o o o X X o o o o o o X o o X X X X X o o X X X X X X X X X X X         X   > ].*X*X&X$X&X&X&X$X#X&X$X$X#X&X#X&X#X#X#X$X$X#X#X#X#X#X#X#X$X&X&X=X&X&X&X&X#X#X#X#X&X&X#X#X#X#X#X&X&X&X&X&X$X&X&X&X&X$X$X#X#X&X&X$X$X$X#X#X&X$X$X&X$X#X&X&X&X&X&X&X&X*X*X*X&X#X&X#X&X&X&X&X&X&X#X#X#X#X#X&X&X*X=X*X=X=X=X=X*X&X*X&X*X&X&X*X=X=X=X=X*X*X=X*X&X&X&X&X=X=X*X*X*X*X*XoX{.D.D.^.Q.Q.Q.Q.Q.G.Q.G.G.G.G.G.G.Q.G.Q.G.G.Q.Q.Q.Q.Q.G.G.G.G.F.G.G.F.G.Q.G.G.G.G.G.G.^.^.Q.^.^.^.Q.G.Q.G.Q.Q.Q.Q.Q.Q.Q.Q.Q.Q.G.Q.^.G.Q.Q.G.F.G.G.Q.Q.Q.Q.G.Q.G.G.G.Q.Q.^.^.G.~.*X=X=X=X=X=X*X*X=X=X=X=X*X*X*X*X=X=X&X*X&X&X#X#X$X*X=X=X*X*X&X&X=X*X*X&X=X&X=X*X*X=X=X=X=X=X=X=X=X=X*X*X*X=X=X&X&X=X=X=X=X*X&X&X*X*X&X*X=X=X=X=X=X=X=X=X=X=X*X&X=X=X=X*X*X&X*X*X&X*X=X=X=X=X=X=X=X=X=X&X#X{.~.N.m.>.>.>.>.E E E E E E E E E E >.,.,.,.,.,.m.N.D.D.S.S.^.(./.(./.(.(.(./././././././.Q.G.G.Q.^.Q.^.^.G.G.^.!.!.G.G.G.^.^.^.^.^.Q.^.Q.^.^.^.Q.^.Q.Q.Q.G.G.G.Q.Q.Q.Q.Q.G.Q.Q.Q.Q.^.Q.^.^.Q.Q.^.^./././.^.^.Q.^.^.^././.^.^.Q.!.Q.!.!.Q.G.G.G.H.H.3.Z.s . . 5 #.$.X.O.O.+.X.+.+.+.....................................+.....X.................................X.X.o...........X.o.$.} @ + + + X                                       . . q &.X.X.........O.........................................................O.............................................O.............O...............O.O...",
"o X X o o o o o o o o o o o o o X o o o o o X o o o o o X X o o o o o o o o o o o o o o o o o o o o o o o o o o o o o o o o o o o X X o o o o o o o o o o o o o o o o o o o o o o o o X o o o o o o o o o o o o o o o o o o o o o o o o o o o o o o o o o o o o o o o o o o o o o o o o o o o o o o o o o o o o o o o o o o o o o o o o o X X X o X o X o o X o X X X o X o o X X X o o X X X X X X X X X o o o X o o o X o o o o o X o o o o o o o o o X X X o o o X X X o X X X X X X X X X o o o o X o o o o X o o o X X o o o o X X X X X X X o o o X X X X X X X X X X X X X X X X o o o o X o o o o o o o o o o o o o o o o o o X X o o o o o o X X o o o X X X X X X X X X X X X X X X X       X   a *X$X*X&X*X&X&X#X#X&X#X#X#X#X#X#X#X#X#X#X#X&X#X#X#X#X&X#X#X#XoX#X&X&X&X&X&X&X&X&X&X&X&X#X&X&X&X&X#X&X&X&X&X#X#X$X&X&X#X&X&X&X&X&X$X&X&X#X#X#X&X$X$X&X#X#X#X&X&X#X&X&X*X&X&X*X&X&X#X#X&X&X&X*X&X$X&X#X#X#X#X&X*X*X*X*X=X=X=X=X=X*X&X&X&X&X&X&X*X*X*X*X&X*X=X=X&X$X&X*X=X*X*X*X$X$XoX{.D.D.^.Q.Q.Q.G.G.Q.G.Q.!.Q.Q.G.G.G.Q.Q.Q.F.G.S.Q.G.G.Q.Q.G.G.F.G.Q.Q.Q.^.Q.G.G.G.G.Q.Q.^.^.^.^.Q.Q.Q.Q.Q.Q.Q.G.G.Q.G.F.G.Q.Q.G.Q.Q.Q.G.G.G.G.G.F.G.G.Q.Q.G.G.G.G.F.F.F.G.^.S.~.*X=X=X*X=X=X*X=X=X=X=X=X&X&X&X&X=X=X*X*X&X&X&X&X&X&X*X*X*X*X&X&X=X=X&X&X=X&X=X=X=X=X=X=X=X=X=X=X=X*X=X*X=X=X=X=X=X*X*X=X=X=X=X*X*X*X$X&X*X=X=X*X=X*X*X*X=X=X=X=X=X=X=X=X*X*X*X=X*X&X*X*X*X=X=X=X=X=X=X&X#XoX].'.'.~.~.~.~.~.J.J.J.V.V.V.N.m.m.>.>.>.>.>.>.E E E T T T E >.,.,.,.,.,.D./.(.(.(./.^.^.^.G.G.^.^.^.Q.G.!.G.G.!.!.Q.Q.Q.Q.Q.Q.Q.Q.Q.Q.Q.G.Q.^.^.^././.Q.Q.Q.Q.Q.Q.^.^.^.Q.Q.^.^.Q.Q.^.Q.^.^.^.Q.^.^.^.^.^.^.^.^.^.^.^.^.^.^.^.Q.!.G.Q.Q.G.F.F.H.Z.1.1.e . . q #.X.X.O.O...............................................X.+.X.......+.+.......O.+.+.O.............X.X.O...........X.@. .# + +   X +                                     . . H $.X.X.O.....O...................................................O.........O.......O...................................................O.O.O...O...........",
"o o o o o o o o o o o o o o o o o o o o o o o o o o o o o o X X o o o o o o o o o o o o o o o o o o o o o o o o o o o o o o o o o o o o o o o o o o o X o o o o o o o o o o o o o o o o o X o o o o o o o o o o o o o o o o o o o o o o o o o o o o o o o o o o o o o o o o o o o o o o o o o o o o o o o o o o o X o X o o o X X o o X X X X X o o o X X X o X o X o o X o X X X o o o X X X X o o X X X X o o X o o o o o X X X X X X o o o o o o o o X o o o o o o o X o o o o o o o X o o o o o X o o o X o o o o X X o o o o o o X X o o X X o o o X X X X o o o o X o o X X X X X X X o o X o o o o o o o o o o o o o o o o o o o X o o o o o X o o X X X X X X X X X X X X X X X X X X X X X   X   g =X$X&X$X*X$X&X&X&X#X#X#X#X#X#X#X#X#X#X&X#X&X#X#X#X#X#X&X#X#X#X#X&X&X&X&X*X$X#X#X&X&X&X&X#X#X#X&X$X#X&X&X&X&X&X$X$X$X&X#X&X$X*X*X*X&X$X$X&X#X#X&X&X#X#X#X#X#X&X#X&X&X&X*X$X&X&X&X&X#X#X#X#X&X&X*X&X&X#X#X&X&X&X&X&X*X&X&X=X=X=X=X=X=X&X&X&X&X*X*X&X*X&X$X*X*X*X=X*X*X*X=X=X*X*X*XoX'.D.D.^.Q.Q.Q.Q.Q.G.G.G.Q.Q.!.G.G.G.G.G.Q.G.Q.G.G.^.Q.Q.G.G.G.G.G.G.G.^././.^.Q.Q.S.Q.G.Q.Q.Q.Q.Q.G.G.F.S.G.Q.G.Q.Q.Q.Q.A.G.Q.Q.Q.Q.Q.Q.Q.Q.^.Q.Q.Q.Q.G.Q.G.Q.Q.Q.Q.Q.G.G.Q.S.~.*X=X=X*X=X=X*X=X=X=X$X*X&X&X&X&X&X&X=X=X*X=X=X=X=X=X*X=X=X&X&X&X&X=X*X*X*X&X*X=X=X=X=X=X=X*X=X=X=X=X=X=X=X=X=X*X*X=X*X=X=X*X=X*X*X=X*X*X&X&X=X*X&X*X&X*X*X*X=X=X=X*X*X*X*X&X=X=X=X=X=X=X=X=X=X=X*X=X&X&X&X#X#X#X{.{.{.oXoXoXoX{.{.{.'.'.'.'.'.`.`.`.~.~.J.J.J.J.J.N.N.N.m.m.,.>.>.T E ^.(./././.(.(././.^.^.^.^.^.^.^.Q./.^.^.^.^.Q.Q.^.Q.^.Q.Q.G.G.G.G.G.Q.^.^.Q.Q.Q.^.Q.Q.Q.^.^.Q.Q.Q.Q.^.Q.Q././././././.G.G.^.^.^.^.^.^.^.Q.G.G.^.!.^.^.G.F.F.G.G.F.H.H.3.2.,.r . . J $.X.X.+.X...X.O.........................................O.......O.+.......o.....+.............O...+.+.+.X.O.+...X.+.X.#.% + +     X     X X                             . @ [ $.X.....................O.......................................O.O.......O.O.....O.O.....................................................................",
"X o o o o o o o o o o o o o o o o o o o o o o o o o o o o o o o o o o o o o o o o o o o o o o o o o o o o o o o o o o o o o o o o o o o o o o o o o X X X o o o o o o o o o o o o o o o o o o o X X o o o o o o o o o o o o o o o o o o o o o o o o o o o o o o o o o o o o o o o o o o o o o o o o o o o o o o o o X o X X o o X X X X X X X X o o X X o X X X X X X o o X X o o o o X o o X X X X o o X o X o o X o o o o o o o o X o o X o o o o o o o o o X o X X X o o o o o o o o o o o o o o o X X o X X X o X X X o o o o o X o o X o o X X o o X X o o o o o o X o o o X X o X X X X o o X o o o o X o o o o o o o o o o o o o o o o o o o X o o X X X X X o X X X X X X X X X X X X X X   X X   g =X&X$X&X#X#X#X&X&X&X&X&X&X&X&X&X&X&X&X&X&X&X#X#X#X#X#X&X&X&X#X#X#X#X&X&X&X*X&X#X#X&X&X&X&X&X#X#X&X$X&X$X$X&X#X&X&X&X$X&X&X&X&X&X*X*X&X$X&X&X#X#X&X&X#X#X#X#X&X#X&X&X&X*X*X&X&X&X&X#X#X#X#X&X&X&X&X&X&X#X#X&X&X&X&X=X=X=X*X&X=X=X=X=X=X=X*X&X&X*X*X=X&X&X*X&X&X*X*X*X*X=X=X=X=X*X#X'.N.S.^.Q.Q.Q.G.G.G.F.Q.Q.Q.Q.G.F.Q.G.Q.Q.Q.Q.G.G.G.G.^.^.Q.G.G.G.G.S.G.G./.^.Q.G.G.F.Q.Q.Q.Q.Q.Q.Q.Q.^.G.G.Q.G.G.Q.Q.Q.F.A.F.Q.Q.Q.!.^.^.Q.Q.G.Q.Q.Q.^.Q.Q.Q.!.Q.^.Q.Q.Q.Q.D.(.*X=X=X=X=X=X*X*X*X=X*X*X&X#X&X*X=X=X=X=X*X*X=X=X=X=X*X=X=X=X&X&X*X*X=X=X*X&X*X*X*X=X=X=X&X&X*X=X*X=X=X&X=X=X=X*X*X*X*X=X=X=X=X*X*X=X*X=X*X&X&X=X&X*X*X&X#X#X&X&X*X=X=X*X&X&X&X*X=X=X=X=X=X=X=X=X=X=X=X=X=X=X=X*X$X$X#X#X$X#X#X#X#X#X#X#XoXoXoXoXoX{.oX{.{.{.'.'.'.'.'.'.'.'.'.~.~.N.,.S././.Q.^.^.^.^.^.Q.Q.^.Q.^.^.^./.^./.^.^.^.Q.Q.Q.^.Q.G.Q.Q.G.Q.G.Q.^.Q.Q.Q.Q.Q.G.Q.^.^.Q.Q.Q.G.G.Q.Q.Q.Q.Q./.^./././.K.G.^.G.Q.Q.G.G.G.^./.^.^.!.G.G.F.Z.4.3.H.H.Z.3.3.2.,.3 . . Y $.o.+.X.+.+.+.+.+.X...X.....................+.+.O...................+.O.+.X.X.+.....................X.o...X.+.O.X...X.#.% + + +         X                               . % | X.X.......................O.O.....O.O.O.O.O.O.O.O.O.O.........O.O.O.O.O.O.O.O.O.O...................................O.O.O.O...............................",
"X X o o X o o o o o o o o o o o o X X o o o o o o o o o o o o o o o o o o o o o o o o o o o o o o o o o o o o o o o o o o o o o o o o o o o o o o o o X X o o o o o o X o o o o o o o o o o o o X X o o o o o o o o o o o o o o o o o o o o o o o o o o o o o o o o o o o o X o o o o o o o o X X X X X X X o o o X X o X o o X X o o o X o o X X o o X o o o o X o X X o X X o o o o o o X X X X X X X X X X X X X X X X X X X X X X X X X X X X o X X o X o o X X o o X X X X X X X X o o o o o o o o X o o o o o X o o o o X X o o o X X X X X X X o X X o X X X o X X X X X X X X X X X X o o X X o o X X o X o o o o o o o o X o o o o o o o o o X o X X X o o o X X X X X X X X X X X X   X   X X X f =X&X*X&X&X#X#X#X#X&X&X#X#X#X&X&X&X#X&X&X&X&X&X#X#X#X#X&X#X#X&X&X&X#X#X&X&X*X*X&X#X&X&X&X&X&X&X#X#X&X#X$X$X#X#X#X&X#X#X&X#X#X&X#X#X&X&X#X&X&X&X&X&X#X#X#X#X#X#X#X#X#X$X&X*X&X&X&X&X&X&X&X&X&X*X*X*X*X&X#X#X&X&X*X*X*X=X*X*X&X&X&X&X&X*X=X=X*X&X&X*X=X&X$X$X$X&X&X&X&X#X&X$X$X*X*X#X'.D.S.^.^.Q.G.G.F.F.A.F.F.Q.^.Q.G.G.F.G.Q.Q.Q.Q.G.G.F.G.Q.Q.G.^.G.G.G.S.G.G.G.G.Q.Q.G.G.Q.G.G.G.Q.Q.Q.^.^.Q.G.S.G.Q.Q.Q.Q.G.G.F.Q.G.^.Q.Q.Q.F.A.A.F.G.Q.S.G.G.F.G.Q.Q.Q.Q.Q.D.(.*X*X=X=X=X=X=X*X*X=X=X*X*X&X$X&X&X*X*X=X*X*X=X=X=X=X*X=X&X*X*X&X&X&X#X&X*X&X&X&X*X&X*X=X&X&X&X*X*X&X&X&X&X&X=X=X=X=X*X=X=X=X=X=X*X=X=X=X=X*X&X*X=X=X=X=X*X&X*X=X=X=X=X=X*X*X*X*X*X*X*X=X=X=X=X=X=X=X=X=X=X=X*X*X$X$X$X$X$X$X$X$X$X$X$X$X$X#X#X#X#X#X#X#X#XoX#X#XoXoXoXoXoXoXoX{.'.J.m.S././.^.^.G.Q.Q.^.^.Q.^.^./././.^.^.^.^.^.Q.^.^.Q.G.G.^.G.Q.^.Q.Q.G.Q.G.G.^.Q.Q.^.^././.^./.^.^.Q.Q.^.^.G.G.G.^.^.^.^.^.^.^.^.^././.^.^.Q.^./.Q.G.G.G.G.G.F.F.H.3.Z.3.1.2.<.1 . . Y $.X.X.X.X...X.o.+.X...X.X.X.O.............+.+.+...................................................+.X.........+.O.+.X.#.5 . + .         X X                             . 5  .X...O...................................................................O.O...............................................O.O.....................O.......",
"o o o o o o o o o o o o o o o o o o o o o o o o o o o o o o o o o o o o o o o o o o o o o o o o o o o o o o o o o o o o o o o o o o o o o o o o o o o o o o o o o o o o o o o o o o o o o o o o o X o o o o o o o o o o o o o o o o o o o o o o o o o o o o o o o o o o o o o o o o o o o o o X X X X X X X o o X X o o X X X o o X X o X X o o o X X X X X o X X o X X o X X o o o o o o X X X X X X o X X X X X o X X o o X o o o o X X o X o o o o o o o o o o o X X o o X X X X X X X o o o o X X o X X o o o o o o o o o o X o o X X X X o o o X X X X o X X X X X o o o X o o X o X X X X X X X o o o o o X X X X X X X X X X o X X o o o o o o X o X X o X X X X X X X X X X X X X X     X X X X   >.=X$X$X$X&X#X#X$X#X#X#X#X#X#X#X#X&X#X&X&X&X$X$X$X&X&X#X&X&X&X&X$X$X&X#X&X&X&X&X&X#X&X&X&X#X#X&X&X&X&X#X#X$X&X&X#X&X&X#X#X#X#X&X&X&X&X&X#X&X&X&X#X&X&X#X#X#X#X&X&X&X#X$X#X&X&X&X&X&X&X&X&X&X#X&X&X*X*X#X#X&X&X&X&X&X&X*X*X*X&X*X&X&X*X&X&X&X*X*X*X&X=X=X=X=X&X$X&X&X*X*X&X&X$X$X#X{.~.N.K./.Q.Q.G.G.!.G.G.F.G.A.G.Q.F.F.G.G.Q.Q.Q.Q.Q.Q.Q.G.G.G.G.Q./.Q.^.G.S.G.G.G.G.F.F.A.Q.^.Q.Q.G.F.G.G.^.Q.Q.Q.G.G.Q.Q.G.Q.Q.G.G.G.G.G.G.Q.Q.Q.G.G.G.F.G.G.G.Q.G.G.Q.G.Q.Q.D.}.*X*X*X$X$X=X=X*X*X*X=X=X&X*X*X&X&X*X&X&X*X*X*X*X=X=X=X=X*X*X*X&X#X&X#X#X#X&X*X&X&X&X&X&X&X$X$X=X*X*X&X&X*X*X=X=X=X=X*X=X=X*X=X=X=X=X=X=X=X=X=X*X=X=X=X=X=X=X=X*X*X*X=X*X&X*X=X=X=X=X=X=X=X=X=X=X=X*X=X=X=X&X&X=X*X=X=X=X*X=X=X=X=X=X=X*X*X*X*X*X*X$X$X&X&X*X$X$X&X*X$X$X#X$X$X#X{.~.N.S././.^.^././.^././.^.^.^.^.^.^.^././.^.G.Q.^.^.^.!.Q.Q.^.Q.Q.Q.^.Q.G.G.G.G.G.G.Q.!.Q.Q.Q.G.^.^.^.^.Q.^.^.^.^.^.^.^.^./.^././.^.^.^././.Q.G.Q.Q.Q.G.G.G.G.G.F.F.H.3.1.2.<.R - . . G $.X.....+.+.+.+.+.X.X.X.o.X.+.........X.+.....................................O...................O.+.+...O.O...O.+.X.#.5 . + .   X +                                 . . 5 &.X.....O.............O...........................O...........O...O.O.......O.O.........O.O.................................O.O.........O...................",
"o o X X o o o o o o o o o o o o o o o o o o o o o o o o o o o o o o o o o o o o o o o o o o o o o o o o o o o o o o o o o o o o o o o X o o o o o o o X o o o o o o o o o o o o o o o o o o o o o o o o o o o o o o o o o o o o o o o o o o o o o o o o o o X o o o o o o o o o o o o o o o o X o o o o o o X X X o o o o X X o o X o o X X X X X X X X o X X X X X X X X X X X X X o o o o X X o X X X X X X X X X X X o X o X o X X o o X o o o o o X X o X X X X X o o o o X X X X X X X o o X X X X X o X X o o o X X X o o X X o o o X X o o o o X o o X X X o X o o o o o o X X X o o X X X o X X o o o o X X X o X X o X o o o o o X X o X X o X o o X o o o o X X X X X X X X X X X     X     X   f =X=X=X*X=X*X&X*X&X&X#X#X#X#X#X#X#X#X#X#X#X#X#X$X#X#X#X&X&X$X$X$X#X$X&X&X&X&X$X&X$X&X#X&X&X#X#X#X&X&X&X&X&X&X&X&X&X&X#X#X#X&X&X&X&X&X&X#X#X#X&X&X#X&X&X#X#X&X&X&X&X&X&X&X&X*X&X&X&X&X&X&X&X#X#X&X&X&X&X#X#X#X&X$X&X*X&X&X*X&X*X=X=X=X*X&X&X*X*X*X$X*X=X=X=X=X=X=X=X*X*X*X*X*X*X#XoX~.N.S.^.Q.Q.Q.Q.Q.G.G.G.Q.G.G.Q.G.A.G.G.G.Q.Q.Q.Q.Q.Q.Q.Q.G.Q.G.G.^.Q.Q.Q.^.Q.Q.Q.G.G.F.G.Q.Q.Q.Q.Q.Q.Q.^.G.Q.Q.G.Q.Q.Q.Q.G.Q.^.Q.G.G.Q.Q.!.G.G.Q.G.G.Q.G.Q.G.Q.Q.Q.Q.Q.Q.G.D.}.*X*X=X=X*X*X*X&X*X*X=X=X*X*X*X*X=X=X*X*X&X&X&X&X&X&X&X*X=X=X*X*X*X=X*X*X*X&X=X*X&X&X&X&X*X$X&X&X*X*X=X=X&X*X=X=X*X=X*X=X=X*X&X*X=X*X=X=X=X=X=X=X=X=X=X=X=X=X=X*X=X*X*X*X&X=X=X=X=X=X=X=X*X=X=X=X=X=X*X&X*X=X*X&X=X=X=X=X=X=X=X=X=X=X=X*X=X=X=X&X*X$X&X&X&X=X*X*X*X*X*X=X*X*X*X$XoX~.N.^.^.Q.^.^.^.^././.^.^.^./.^.^.^././.^.G.Q.G.G.^.!.^.^./.Q.^.Q.Q.Q./.Q.Q.Q.G.G.F.G.F.G.G.Q.G.G.Q.^.^.^.G.G.Q./.^.^./.^.^.^.^.^.^.^.^.^.^.^.^.Q.Q.G.G.F.F.F.F.F.F.Z.3.1.2.<.T # . . 0 $.X.+.X.X.+.+.+.+.+.+.+.o.......O...........+.+...O.............................................O.....+.O.+.+...X.X.@.#.5 . + + .   X                               . . . 8 &.X.....................O.....O...............O...O.O.............O.O.O...............O.O.O.+.+.O.............O.O.O...O.....O.O.O.........O.............O...",
"o X X X o o o o o o o o o o o o o o o o o o o o o o o o o o o o o o o o o o o o o o o o o o o o o o o o o o o o o o o o o o o o o o o o o o o o o o o o o o o o o o o o o o o o o o o o o o o o o o o o o o o o o o o o o o o o o o o o o o o o o o o o o o o o o o o o o o X o o o o X X o o o X o o X o o X o X X X X X o o X X o o o X X X o X X X X X X o X X X X X o o o o X o o o o o o X X o X X X o X o X X X X X X o X o X X X X o X X o o o X o o X X X X X o X X X o o X X X X X o o o o X X X o o o o o o o X X X X X X o o X o o o o o X X X X o o X X X o o o o o X o X o o X X X X X o X o o o o o o o X X o o o X o o o o o X o o X X X o o o X o X X X X X X X X X X X X X X         X   g V.V.`.`.'.'.`.V.C.V.].#X#X$X$X&X$X#X#X#X$X$X$X$X$X#X#X#X#X#X#X#X#X#X#X#X#X#X#X$X#X#X#X&X&X*X&X#X#X&X&X$X&X&X*X&X&X&X#X#X#X#X#X&X&X&X&X&X&X&X&X#X#X&X&X#X&X&X$X#X&X&X&X&X&X&X&X&X&X*X*X&X&X&X#X&X&X&X&X&X#X#X#X#X#X&X&X&X*X&X&X&X&X*X*X*X&X*X*X&X*X$X&X*X*X*X*X*X*X*X*X*X&X$X$X#X{.~.N.S.^.G.Q./.Q.Q.!.G.G.Q.Q.Q.Q.Q.G.G.Q.Q.Q.Q.G.F.F.G.G.Q.G.Q.Q.G.Q.G.G.G.S.G.G.Q.Q.S.!.G.G.Q.Q.Q.Q.Q.G.Q.Q.Q.Q.G.Q.Q.Q.Q.G.Q.Q.Q.!.Q.Q.Q.G.G.G.G.G.G.^.Q.Q.Q.Q.Q.Q.Q.!.!.Q.D.OX*X=X*X=X=X=X=X&X&X&X*X*X*X*X&X*X*X=X=X*X*X*X=X=X=X*X&X*X=X*X=X*X=X=X*X=X=X=X=X=X=X=X=X*X*X=X*X&X=X&X*X=X*X=X=X=X=X*X&X&X=X=X&X&X=X*X*X=X=X=X=X=X=X=X=X=X=X*X&X*X*X*X*X=X*X=X=X*X=X=X=X=X=X*X=X=X=X=X=X=X=X=X=X&X&X=X=X=X=X=X=X=X*X=X=X*X*X*X=X=X=X=X&X&X&X&X&X=X=X*X*X*X*X=X*X$XoX~.N.^././././.^.^.^././.^.^.^.^.^.^.^././.G.G.Q.Q.^.^.^.^.Q.Q.Q.Q.G.G.^././.^.^.!.^.!.G.G.Q.^.^.G.G.Q.^.^.^.G.F.S.G.^.^.^.^.^.^.G.G.G.^.^.Q.^.^.Q.!.Q.^.Q.G.G.F.F.F.F.3.1.2.<.T @ . . q $.X.X...X.X.X.X.+.+.+.+.+.+.X...O.O.+.O...O.........X.+...........O...O.O.........................O.........O.+.+.X.@.#.% . + +                                     . . . G $.X...O.........................................O.......O.O.....O.....................O.O.O.O.O.O.O.O.O...............O.O...O.........................O.O...",
"o o X o o o o o o o o o o o o o o o o o o o o o o o o o o o o o o o o o o o o o o o o o o o o o o o o o o o o o X o o o o o X o o o o o o o o o o o o o o o o o o o o o o o o o o o o o o o o o o o o o o o o o o o o o o o o o o o o o o o o o o o o o o o o o o o o o o o o o o o o X X o o X o o o o o o X o X X X X o o o o X o o X X o X X X X X o X X o o X o X X o o X o o o o o o o X X X X X o X X o o X o o o X X X X o X X X X X X X o o o X X o o X o o o o X X X X X X X X X o o o o X X X X X X X o o o X X X o o X X o X X X X X o o X X X X o o o o o X o o o o o o X o o X X X o o X o o X X o X X o o o o o o o o o X X o o o o o o X X o X o o X X X X X X X X X X X X X             X : : : > > > > > : O : a g g g f n.n.C.V.V.V.P.`.[.].|.&X&X&X#X&X=X=X*X*X*X*X=X=X*X$X#X$X*X$X#X*X#X#X#X#X$X&X#X$X#X#X$X$X#X#X#X#X&X&X&X$X&X&X&X&X&X&X&X#X$X#X&X#X#X#X#X&X#X#X&X#X#X#X&X&X&X*X&X&X&X*X*X&X*X$X$X$X#X#X&X&X&X*X&X&X&X*X*X&X&X*X&X$X*X*X$X&X$X&X&X$X&X&X&X*X*X&X#X#X#X].J.N.Q.^.G.G.Q.Q.Q.G.Q.Q.G.Q.Q.Q.Q.G.G.G.Q.Q.Q.G.Q.Q.G.G.G.G.Q.Q.Q.Q.Q.G.G.Q.Q.Q.G.Q.G.G.G.S.Q.Q.G.G.^.Q.Q.G.G.G.Q.G.G.G.Q.Q.F.G.G.G.G.G.^.Q.G.G.G.G.F.F.F.Q.Q.Q.^.^.Q.Q.Q.Q.S.OX*X=X=X=X=X*X=X=X&X*X&X$X*X*X*X*X=X=X=X=X*X&X&X*X=X=X=X=X=X&X&X&X=X*X&X&X&X*X=X=X=X*X=X*X*X=X*X=X=X&X&X*X*X*X=X=X=X*X&X&X&X=X&X&X&X&X*X&X&X*X=X=X=X=X=X=X=X=X*X*X=X=X*X=X=X*X*X&X&X*X=X=X=X=X=X=X=X=X=X=X=X*X*X*X&X&X*X*X=X=X*X*X$X*X=X=X=X=X*X*X=X=X=X=X=X=X=X*X=X=X=X=X=X=X=X*XoX~.D.(././.^./.^.Q.Q.Q.^.^.^././.^.^.^.Q.^.Q.Q.^.^.Q.Q.G.G.Q.G.Q.Q.^.G.Q.^.^.^.^.!.G.Q./.Q.G./.^.^.^.^.^.^././.^.^.^./.^.^.^.^.^./.^.^.^.^.^.^.^.Q.Q.G.G.G.G.G.G.F.F.Z.3.2.2.<.T @ . . 5 #.@.+...X...+.+...+.+.+.+.+.O.......+...................X.............O.......+...............O.......+...O...X.X.o.%.#.% + +     X X                               . . # [ %.X...............................O.O.O.........................O...O.O.......O.....O...O.O.O.O.O.O.O.O.O.O.....O.............O.O.......O.O...........O.O...",
"o X X o o X o o o o o o o o o X o o o o o o o o o o o o X o o o o o o o o o o o o o o o o o o o o o o o o o o o o o o o o o o o o o o o o o o o o o o o o o o o o o o o o o o o o o o o o o o o o o X o o o o o o o o o o o o o o o o o o o o o o o o o o o o o o o o o o o o o o o o o X X o X o o o X o o X o X o o X X X o o X o X X X X o X X X X X X X o o o X X X o X X X X o o o o o o X X X X X X X X X X o o X X X X X X X X X o o o X X o o X X X X o o X o o X X X X X X X X X X X o o X X X X X X X o o X X X X o o X X X X X X X X o o o X X X X o X o o o o o X X X X o o X X X X X X o o o o X X X X o o o o o o o o o o o o X X X o o o o o X X X X X X X X X X X X X X X X               & = O O O O O o O O o o X     + + O O O O O : : > > a f f f f f n.n.C.V.V.J.V.`.].#X&X#X$X#X=X*X*X#X#X#X&X$X$X$X&X$X#X#X#X#X].#X#X#X#XoX#X#X#X#X&X&X&X&X$X#X&X#X#X#X#X#X#X#X&X#X#X#X#X&X#X#X#X#X#X$X&X&X*X&X&X$X#X#X#X#X&X&X&X&X*X&X&X&X&X*X*X&X*X&X&X&X$X&X*X&X&X&X&X$X&X&X*X#XoX{.J.N.S.^.Q.Q.G.Q.G.G.G.Q.Q.Q.Q.Q.G.G.G.Q.Q.G.G.F.G.Q.Q.^.Q.G.Q.Q.Q.Q.^.^.Q.Q.Q.Q.^.^.G.Q.Q.G.S.^.Q.Q.Q.^.Q.Q.G.G.Q.Q.Q.F.F.G.G.G.G.G.G.G.!.^.^.!.F.G.G.G.F.G.Q.Q.Q.Q.Q.!.Q.G.S.OX=X*X=X=X=X=X=X=X=X=X=X&X&X&X&X&X&X*X*X=X=X$X#X&X&X=X=X=X=X=X&X&X&X&X&X&X*X=X=X*X=X*X&X&X*X*X&X&X=X=X=X*X*X=X=X=X=X=X*X&X$X*X&X&X&X&X&X&X&X#X&X&X*X*X*X*X*X*X=X*X=X=X=X=X=X=X=X=X=X=X*X&X*X*X=X*X*X=X=X*X=X*X=X*X*X=X*X*X*X=X=X*X*X*X*X*X=X=X*X=X=X=X*X=X=X=X=X=X*X$X*X*X*X=X=X*XoX~.D.^.^.Q.Q.^.^.^.^.^.^.G.G.S.G.Q.^.Q.G.G.G.^.^.^.^.Q./.^.^.Q.Q.G.G.G.G.G.^.^.Q.Q.G.G.G.^.G.^././.^.^.^.^.^.^.^.^.^.^././.^.^.^.^.^.Q.Q.G.Q.!.Q.G.G.G.G.G.G.G.F.F.Z.Z.3.2.2.<.T . . . 5 #.%.+.+.+.X...O.....+.+.+.+...................................................+.+.X.......................O.O.X.X.o.$.| # + +     X X                                 . 5  .X.X.O...............O.O.....O.O.........O.O.........................O.O.O.O.....O.O.O.O.O.O...O.O...O.O.O.......O...O...............O.O.....O...............",
"o o o X o o o o o o o o o o o o o o o o o o o o o o o o o o o X o o o o o o o o o o o o o o o o o o o o o o X o o o o o o o o o o o o o o o o o o o o o o o o o o o o o o o o o o o o o o o o o o X X o o o o o o o o o o o o o o o o o o o o o o o o o o o o o o o o o o o o o o o o o X X o X o o o o o o X o X o o X X X X X X X X o X X X X X X X X X o o o o X X X X X X X X o o X X X o o X X X X X X X X X o o X o o o o o o o o o o o o X o o X o o X o o X X o X X X X X X X X X X X X X X X X X X X X X X o o X X X X X X X X X X X X X X X o X X X X X X o o o o o X X X X X X X X X X o o X X o o X o o o o o o o o o o o o o o X X X X X X X o o X X X X X X X X X X X X X X   X X           & = O O O O O o O o o O O O O O O O O O O O O o O O O o o o O o O O : : : > : : > a a a a g f n.n.n.n.n.C.J.`.`.`.`.{.$X$X=X#X#X=X=X$X#X&X$X#X$X&X$X&X$X&X&X$X$X&X#X&X#X#X&X*X#X$X*X&X&X&X#X#X#X#X#X#X$X#X&X&X&X&X$X#X#X#X#X#X#X$X&X&X&X&X&X&X&X*X=X*X&X&X&X=X*X*X*X&X&X$X#X$X#XoX].J.N.S.^.Q.Q.Q.G.G.F.G.G.Q.^.G.Q.G.G.F.F.F.G.Q.G.S.G.G.G.G.G.G.Q.G.G.G.G.G.G.G.G.G.^.G.G.Q.Q.G.G.Q.Q.Q.G.Q.Q.Q.Q.G.G.^.^.Q.G.Q.Q.Q.G.^.Q.G.Q.Q.Q.Q.Q.Q.Q.Q.G.G.Q.Q.Q.Q.Q.^.G.S.OX=X=X=X=X=X*X*X=X=X=X=X=X=X=X*X*X&X*X*X*X=X=X*X*X&X&X*X&X&X=X*X&X&X*X*X&X&X*X=X=X=X=X*X&X&X*X*X&X&X*X=X=X=X=X=X=X=X=X=X=X*X=X=X&X&X*X&X&X&X&X&X*X&X&X&X&X&X#X$X*X*X=X=X=X=X=X=X=X=X=X=X*X*X*X*X*X*X=X=X=X=X=X*X=X=X=X=X=X=X=X=X=X&X&X&X*X*X&X&X*X*X*X=X=X*X*X=X=X=X*X*X*X*X*X*X$XoXJ.D.^.^.Q.^.Q.Q.!.Q.Q.^.^.^.G.G.G.G.^.^.^.^.^.^.G.^.^.^.^./././.^.G.G.G.Q.^./././.^.^.Q.G.G.G.Q.^././.^.^.^./././.G.G.G.G.^.^.^.Q.^.^.Q.G.!.!.G.G.G.Q.Q.G.G.F.F.F.Z.3.3.2.2.<.T . . . %  .%.+.+.+.+.....O.....X.X.X...............................................X.X.X.+.+.+.+.O.O.O...............+.X.X.o.%.G . + +     X X                               . . q #.X.........O.O...................................O...................O.O.O.O.O.O.O.O.O.O...............O.O...................................................",
"o o o o o o o o X o o o o o o o o o o o o o o o o o o o o o o o o o o o o o o o o o o o o o o o o o o o o o o o o o o o o o o o o o X o o o o o o o o o o o o o o o o o o o o o o o o o o o o o o o o o o o o o o o o o o o o o o o o o o o o o o o o o o o o o X o o o o o o o o o o o o X X X X X o o X X X X X o X X X X X X X X X X X X X X X o X X X X o o o X X o X X X X X X X o X X o X X X X X o o o X X o o o o o X X o o o o o X X o o X o X X o o o o X X X X X X X X X X X X X X X X X X X X X X X X X o o X X X X X X X X X X X X X X X X X o o X X X o o o o o X o X X X X X X X o o o o o o o o o X X X o o X X X X X o o X X o o o X o X X X o o X X X X X X X X X X X X                 O = = = O & & O O O O O O O O o O O O O O O O O O O O : & : : : = = O O O O O O O o o O O O o o O O O O O : : > > > a g f f f f f n.C.V.V.V.V.`.].].].#X#X$X&X$X*X&X&X&X#X&X#X#X#X#X#X&X*X*X&X$X&X&X&X&X#X$X&X*X&X&X&X#X#X#X#X#X#X&X&X&X&X&X&X&X&X=X=X*X&X$X&X*X*X*X*X&X&X&X$X#X#X'.J.N.^.Q.^.Q.S.G.G.F.F.F.S.Q.Q.G.G.!.G.Q.Q.Q.Q.Q.G.F.Q.Q.G.Q.G.G.G.Q.G.G.G.Q.G.Q.G.Q.G.G.Q.Q.G.G.G.Q.Q.Q.Q.Q.G.G.Q.G.G.G.Q.Q.^.Q.Q.Q.Q.G.G.G.G.G.Q.Q.G.G.Q.!.Q.F.G.Q.Q.G.^.S.S.*X=X=X=X=X=X=X*X*X=X*X*X=X=X=X=X*X*X&X*X&X&X*X*X*X*X&X&X&X&X*X*X=X&X&X&X&X&X&X*X=X=X=X=X*X*X*X=X=X&X&X*X*X*X*X&X&X*X*X=X=X=X*X=X&X&X&X=X&X&X&X&X*X*X*X=X*X=X$X#X&X&X*X=X=X=X=X=X=X=X=X=X=X*X*X=X=X*X*X*X=X=X*X=X=X=X=X=X=X=X=X=X=X=X*X*X=X=X=X&X#X*X&X&X&X&X&X&X*X*X=X=X=X=X=X*X$XoXJ.D./.Q.Q.Q.Q.Q.^.^.^.^.^././././.^.^./.(.^.^.^././.^.^.^.^.^./././.^.G.Q.^.^.^./.^././.^./.^.G.G.Q.G.Q.G.G.^././.^.^.^.G.G.G.G.G.Q.^.^.Q.G.G.G.G.G.G.F.G.Q.G.F.Z.Z.3.1.2.,.,.I . . . @ [ %.+.+.+.+.+...O.....................................................+.X.X.X...+.+.+...........+.+.......O...X.X.o.$.q . +   .   X X                             . . . 0 $.X.........O.......................O.O.......................O.O.O.O.O.O.O.O.O.O.O.....................O.O.........X.....O.O.................................",
"X o o o o o o o o o o o o o o o o o o o o X X o o o o o o o o o o o o o o o o o o o o o o o o o o o o o o o o o o o o o o o o o o X X o o o o X X o o o o o o o o o o o o o o o o o o o o o o o o o o o o o o o o o o o o o o o o o o o o o o o o o o o o o o o o o o o o o o o o o o X o X X X X o o X X X X X X X X X X X X X X X X o o X X X o o o X X X X o o o X o o o X o o o o o o X X o o X X o o o X X X X X X o o X X X X o o X X X X X X X X o o X X X X X X X X X X X X X X X X X X X X o o o X X X X X X X o o o X X X X X o X X X X X X X X X o o X X X X X X X X X X X X o X X o o o o X X o o o o o o X X X X X o o o o o o X X o o X o X X X X X X X X X X X X X X X X X                 o = : = & O O O O & = O & O O o o O O & O & O O : : O : O O = : : : = O O : & & O O O O O O O O O O O O = & O O O O O o O O O O O & = : : : : > 3 a 3 a g f #X&X&X&X&X&X&X&X$X#X#X#X#X#X&X&X&X&X*X*X&X&X&X&X&X&X&X*X*X&X*X&X&X&X&X#X#X&X&X&X&X&X&X&X&X=X=X=X*X*X=X*X&X&X&X&X$X#X#X'.J.N.^.^.^.^.Q.S.G.G.G.G.S.S.G.Q.G.G.G.G.F.G.^.G.G.G.G.G.G.Q.G.G.G.G.Q.G.G.Q.Q.Q.Q.Q.Q.G.Q.Q.Q.Q.G.G.G.Q.Q.^.Q.G.G.G.G.G.F.G.G.G.Q.Q.Q.Q.Q.G.F.F.F.G.G.F.G.Q.!.Q.F.S.Q.^.^.S.~.*X=X=X=X=X=X=X=X*X*X*X*X=X*X=X=X*X=X&X&X*X*X$X*X*X*X*X&X&X&X&X&X&X&X*X*X&X&X&X#X&X*X=X=X*X=X=X=X=X=X=X=X=X=X*X&X&X&X&X*X=X*X*X*X=X&X&X=X*X*X&X&X*X*X=X=X=X=X*X&X&X*X*X=X=X*X=X*X&X&X=X*X=X&X*X=X=X=X*X*X=X=X=X=X=X=X=X=X=X=X=X=X=X=X=X=X=X=X=X=X*X&X&X&X&X&X&X&X&X=X*X*X=X*X*X*X$X{.J.D./.G.G.Q./.^.^.^.Q.Q.^.^./.^.^.^.Q.Q././././.^.^.Q.^.^.^.^./.^.^.^.Q.G.G.^./././././.^.^././.^.^.^.Q.^.G.Q.Q.^.^.Q.^.Q.Q.Q.Q.!.G.G.^.!.G.G.G.G.G.G.G.F.F.G.F.Z.3.3.3.2.,.,.s @ . . @ q $.%.+.+.+.+.+.+.+.O.......X.................X.+.....................O.+.+.....O.+.+.O.X.X.....O.+.+.O...X.+.+.+.@.#.% . + .   X   X X X                         . . @ F $.X.........................O.O.O.....O.......O.O.................O.................O.....O.O.O.....O.......................................O.................",
"o o o o o o o o o o o o o o o o o X X o o o o o o o o o o o o o o o o o o o o o o o o o o o o o o o o o o o o o o o o o o o o o o X X X o o o X o o o o o o o o o o o o o o o o o o o o o o o o o o o o o o o o o o o o o o o o o o o o o o o o o o o o o o o X X X o o o o o o o o o o o X o o o o o o o X X X X X X X X o X X o o X X o o o X X X X X X X o o o X X X X X X X X X X o o X X X X X X X X X X o o o X X o o o X o X o o X o X X X X X X o o o X X X o o X X X X X X X X X X o X X X X X X X X X X X X X X X X X o o X X X X X X X X o X X X X X X X X X X X X X X o o o o o o o o o o o o o o o o o o X X X X o o o o o o o o X o o X X o o X X X X X X X X X X X X X X X               X O & & = & O O O O & & O & O O o O O O O & & : O O & : O O o O = : : & & & & O O O & & & & O = = = = O O O & = : : & & & & & O = = : : : = = = = O O O O + a ].&X&X&X&X&X#X&X&X#X#X#X#X#X#X&X&X&X&X&X&X&X&X&X#X$X&X&X&X*X*X&X*X*X&X#X#X#X#X$X#X#X&X&X&X&X&X=X*X&X=X*X*X&X&X$X&X#X{.'.J.D.^.^.^.^.^./.Q.G.Q.Q.Q.Q.G.G.Q.G.A.A.A.G.Q.Q.Q.Q.G.Q.G.^.G.G.G.G.G.Q.Q.^.Q.Q.Q.^.^.Q.Q.Q.Q.Q.Q.S.G.G.G.Q.^.^.Q.Q.Q.Q.G.G.G.S.G.G.Q.G.Q.Q.Q.G.G.G.Q.G.G.Q.Q.Q.Q.G.Q.Q.^.S.~.=X=X=X=X=X=X=X=X=X=X=X=X=X=X=X=X=X=X*X&X&X*X$X&X&X*X*X&X$X&X$X$X&X&X#X&X*X&X*X*X&X&X&X*X=X&X=X=X=X=X=X=X=X=X*X=X=X*X&X=X=X=X=X=X&X&X&X*X=X=X*X&X&X*X=X=X=X=X=X=X*X*X=X=X=X=X=X=X=X*X&X&X*X*X*X&X*X=X=X=X=X=X=X=X=X=X*X=X=X=X=X=X=X*X*X=X=X=X=X=X=X=X=X*X=X=X*X*X&X=X=X=X=X=X*X$X$X{.J.D./.Q.G.G.Q.Q.^.Q.^.!.^.^.^.^.^.^.^.Q.G.G.^./.^.Q.Q.^.^.^.^.^.^./.^.^.^.G.G.^.^.^.^.^.G.G.^.^.^.^.^.G.^.^.!.G.Q./.Q.G./.^./.^.^.^.G.G.!.!.Q.Q.Q.!.G.G.G.F.F.F.A.A.3.1.2.<.<.s . . . @ 5  .%.+.+.+.+.+.+.+...................................+.+.............O.O...........+.+.+.+.+...O.X.....O.X.X.+.X.%.[ . . +     X     X X X                       . . %  .$.X...........O.........O.O.............O.......O.O.O.............................O.O.......................................................O.................",
"o o o o X o o o o o o o o o o o o o o o o o X X o o o o o o o o o o o o o o o o o o o o o o o o o o o o o o o o o o o o o o o X o o X X o o o o o o o o o o o o o o o o o o o o o o X o o o o X o o o o o o o o o o o o o o o o o o o o o o o o o o o o o o X X o X o o o o o o o o o o o X X o o o X o o X X o X X X X X o X X o o o X X X X X X X X X X X X o X X X X X X X X X X o o X X X X o o o o X X o X X o o X X o o X o X X X o o X X X X X X o o X X X X X X X X X X X X X X X X X X X X X X X o o X X X o o X X X X o o X X X o o o o X X o X X X X X X X X X X X X X X X o o o X o o o o o o o X X X o o o o X X X X o o X X o o o o o X o o X X X X X X X X X X X X X X   X                 O : & & O & O O O O O & = O O O O O O O O : : O O O : O O & O & : & O O O O O O o O O O : : O O O : & & O = : : = O O = : : & = = & = : : : : : : O O O O a ].#X&X&X&X&X&X&X&X&X&X#X#X#X$X$X&X$X#X&X&X&X&X#X#X#X#X&X*X&X&X&X&X&X&X*X&X#X#X#X#X#X&X&X&X&X*X*X*X=X&X&X&X=X&X&X&X#XoX'.D.D.^.G.Q.^.^.^.Q.^.Q.F.Q.G.G.G.G.G.S.G.A.S.F.G.Q.Q.G.G.G.G.Q.G.Q.G.G.Q.Q.Q.Q.G.G.S.Q.^.Q.Q.Q.G.Q.G.G.Q.Q.Q.G.Q.G.G.Q.G.F.G.Q.G./.^.^.Q.G.Q.Q.G.S.G.G.G.Q.Q.G.Q.Q.G.Q.Q.^.S.(.=X=X=X=X=X=X=X=X=X=X*X=X&X*X=X=X=X=X=X*X&X&X&X*X*X*X*X&X*X&X*X&X*X$X&X&X&X&X&X=X=X&X&X&X&X&X*X=X=X*X*X=X=X=X*X=X*X*X&X&X&X=X=X=X*X*X*X&X&X*X=X&X&X&X&X&X&X=X=X=X=X=X=X=X=X=X=X=X=X=X=X&X&X=X*X*X*X*X*X=X=X=X=X*X*X&X&X&X&X=X=X=X=X=X*X*X=X=X=X=X=X=X=X=X=X=X=X*X*X*X*X*X=X=X=X=X$X{.J.S./.^.G.G.Q.Q.G.G.G.Q.G.!.G.!.^.^./.^.^.^.Q.G.^.^.G.^.^.^.^.^././.^.^.^.G.G.^.G.Q.G.^.!.G.G.G.^.^.^.^.!.G.^.^.G.^./.Q.G.Q.!.!.!.!.G.G.G.G.G.!.!.G.G.F.G.G.F.F.Z.Z.Z.1.2.,.<.e . . . . # | %.+.+.+.+.+.+.X.........................O.O.......X.X...........................+...............+.+...o.X...o.$.0 . + .     X       X                         . . 5 #.%.X.........................................O.....O.O...........O.O.............................................................................O.............",
"o o o o X o o o o o o o o o o o o o o o o X X o o o o o o o o o o o o o o o o o o o o o o o o o o o o o o o o o o o o o o o o o o o o o o o o o o o o o o o o o o o o o o o o o o o o o o X o o o o o o o o o o o o o o o o o o o o o o o o o o o o o o o X X o o X o o X X o o X X X o o o X X o o X X o o o o o o X X X X X X X o o o X X X X X X X X X X X X o X X X X X X X X X o o X X X X X X X X X X X X X X o X X X X X X o X X o X X X X X X X X X X X o X X X X X X X X X X X X X X X X o X X X o o X X X o o o X X X X X X X X X X o o o o o X X X X X X X X X X X X X X X o o o X o o o o X X o o o o o o X X X X X X X o X X o o o o o o o X X o o o X X X X X X X X X X X X X X             O : O O O O O O O O O & & O O O & & O O O = : = O O & & & = O O O & O O O O O & O o O O = O O O O O O O O = = : & O & O O : : : = O O O & : : & O & O O o f *X#X&X&X&X&X&X&X&X&X#X#X&X&X&X&X&X&X&X$X&X*X*X&X#X#X#X$X&X&X&X&X&X&X#X&X&X&X&X*X&X&X&X&X&X&X*X*X*X&X&X*X&X&X*X*X$X#XoX'.D.S.^.^.^.^.G.Q.Q.G.Q.Q.G.Q.Q.G.G.Q.G.G.Q.G.G.Q.^.G.Q.G.Q.G.Q.Q.G.G.Q.G.Q.G.Q.G.G.G.G.G.G.F.G.Q.Q.G.G.G.Q.Q.Q.Q.Q.Q.Q.Q.Q.F.G.Q.Q.^.Q.^.Q.G.Q.^.Q.G.G.Q.Q.Q.G.Q.Q.Q.^.^.^.S.(.=X=X=X=X=X=X*X*X*X&X&X&X&X&X&X&X&X=X=X&X&X&X&X&X*X=X*X*X*X&X&X&X&X$X&X*X*X&X*X&X=X=X&X&X#X#X&X*X=X*X&X*X*X=X*X*X*X*X=X&X&X&X*X=X=X=X=X=X=X&X&X&X*X=X=X&X&X&X=X=X=X=X=X=X*X*X*X&X*X=X=X&X&X&X*X=X=X*X*X=X=X=X=X=X=X*X$X&X&X*X&X&X*X=X=X=X=X=X=X*X*X*X*X*X*X*X=X=X*X=X=X=X=X=X=X=X#X{.D.S.^.Q.!.!.Q.Q.Q.Q.F.Q.Q.!.!.G.!.!.G.!.^.!.^./.^./.^.G.^.^.^.^.^.^./.^.^.^.^.^.^.^.G.G.G.G.^.^.^.G.^.G.G.G.G.G.^.^.^.^.G.G.F.!.!.G.G.G.G.G.!.G.G.G.G.G.G.G.F.F.A.Z.3.1.1.,.,.3 . . . . @ 0 %.@.+.+.+.X.X.O.................................X.X.X.................................................X.X.o.@. .% . .   + X X                                 . . 5 #.X.......O...........O.O.......O.O.O.O.O.O...O...............O.............................O...............................................O...................",
"X o o X o o o o o o o o o o o o o o o o o o o X o o o o X o o o o o o o o o o o o o o o o o o o o o o o o o o o o o o o o o o o o o o o X X o o o o o o o o o o o o o o o o o o o o o o o o o o o o o o o o o o o o o X o o o o o o o o o o o o o o o o o X X X X X X X X X X X X X X o X X X o X X o o o X o o o o X X X X X X X X X X X X X X X X X X X X X X o o X X X X X X o X X X X X X X X X X X X X X X X X X X X X X o X X X X X o X X X X X o o X X o X X X X X X o o X X X X X X X X o X X o o o X X o o o X X X X X X X X X X X X X X X X o X X X X X X X o X X X X X X X X X X X X X X X o X X X o o X X o o o o o o o o X X o o X X o o X X X X X X o X X X X X X X X X X                   & : & & O O O O O O O O O O O O & O & O O = : : & = O = = O O O O = O O O O = O O O O O O O & O O O O O O O O O O & & & O O O & = : O = & & & = & = & : O n.=X&X&X&X&X*X&X&X*X&X#X#X#X#X$X&X&X*X*X&X&X&X&X*X&X#X#X#X&X&X&X&X&X&X&X&X#X&X$X&X*X*X&X*X*X*X*X*X&X&X&X$X*X&X&X*X&X#X#X'.N.D.^.Q.^.Q.G.G.G.Q.F.G.S.G.G.G.G.G.G.G.G.Q.Q.Q.Q.Q.G.G.Q.Q.G.^.G.G.G.G.G.G.Q.Q.Q.Q.Q.G.G.F.A.F.F.G.G.Q.Q.Q.G.Q.G.G.Q.Q.Q.Q.S.S.G.Q.Q.Q.Q.Q.Q.Q.Q.Q.G.G.G.Q.Q.Q.Q.Q.Q.Q./.S.(.=X=X=X=X=X=X=X=X=X*X&X&X*X&X&X&X#X&X&X&X#X&X&X#X&X*X*X&X$X$X&X$X&X&X&X$X*X*X*X*X=X*X*X*X*X&X&X&X=X=X*X*X&X&X*X*X*X*X=X=X*X&X&X&X&X&X&X=X=X*X&X&X&X&X*X=X=X*X=X=X=X=X=X*X*X*X&X*X*X*X=X=X*X&X&X&X*X*X*X=X=X=X=X=X=X=X*X*X&X=X=X*X&X*X=X=X=X=X=X*X=X=X=X=X=X=X*X*X*X*X$X&X=X=X=X=X$X'.D.K.(.Q.Q.Q.Q.Q.!.Q.G.G.G.G.G.!.G.G.G.G.G.G.^.^.^.^.^./.K.K.G.G.^.^.^.G.K.^./.^.G.G.^.^.^.G.!././.G.G.G.G.G.G.G.G.^./.^.^.^.G.G.!.!.!.G.!.!.!.!.G.G.G.G.G.G.F.F.Z.Z.3.3.1.,.,.3 . . . . . 5  .%.X.+.O.X.....................................o.o.o...................................O.O...............o.$.0 . + + . X X                                   . . q &.X...O...O.O...O.O.....................................................................................................................................O.......",
"o o o o o X o o o o o o o o o o o o o o o o o o o X o o o o X o o X o o o o o o o o o X X o o o X o o o X X o o o o o o o o o o o o o X o o o o o o o o o o o o o o o o o o o o o o o o o o o o o o o o o o o o o o o o o o o o o o o o o o o o o o o o o X X X X X X X X X X X X X X X X X X X X X X X X X o X X o X X o X X o X o o X X X X X X X X X X X X X o X X X X X X X o X X X X X X X X X X X X o X X X o X X X X X X X X X X X X X X X X X X X X X o o X X X X X o o X X X X X X X X o X X X X X X X X X X o o X X X X X X X X X X X X X X o X X X X X X X X o X X X X X X X X X X X X X o X X X X o o o o X o o o o o o o o o o X X X X X X X X X X X X X X X X X X X X X X                   o O & O O O O O O O O O O O O O O O O o O : = : : = & & O O O O = & O O O O & O & & & O O = = = O O & O O O : : O & & O : O O O O O O & & & & O : : : = O f &X#X&X&X&X&X&X&X*X&X&X&X#X#X&X&X&X&X&X&X&X&X#X&X&X#X&X&X&X&X&X&X*X&X&X&X#X#X#X#X&X&X&X&X*X*X&X&X&X&X&X$X&X*X*X*X&X#XoX'.N.D.S.G.^.Q.Q.Q.Q.Q.G.G.G.G.G.G.G.G.G.G.G.Q.G.Q.^.Q.Q.Q.Q.G.S.G.^.Q.Q.S.Q.Q.G.F.Q.Q.Q.Q.Q.G.G.S.F.G.G.G.G.Q.Q.G.G.F.G.^.G.G.Q.Q.Q.Q./.^.^.^.Q.Q.Q.Q.G.Q.Q.Q.^.Q.Q.Q.Q.Q.G.S.}.=X=X=X=X=X=X=X=X=X=X*X$X*X*X&X&X&X&X&X&X&X#X$X$X&X&X*X*X&X&X&X#X#X&X*X&X&X*X*X=X=X*X*X&X*X=X*X*X*X*X*X&X&X&X*X*X&X&X&X=X=X=X=X=X=X&X&X*X=X=X=X=X&X&X&X&X&X=X=X=X*X=X*X*X=X=X=X=X=X*X=X=X=X=X*X&X&X*X*X*X=X=X=X*X=X=X*X=X*X*X*X&X*X*X*X=X=X=X=X=X=X=X*X&X*X=X=X*X*X=X=X#X$X$X=X=X$X'.N.Q.(./.^.^.Q.Q.Q.G.G.!.Q.G.G.G.G.Q.^.G.^.^.^.G.^.^.^./.^.^.G.G./.^.^./.^./.^.^.^.^.^.G.^.G.G.^.^./.^.^.G.G.G.G.G.G.G.G.G.G.G.G.G.^.^.^.G.!.G.G.G.G.G.G.F.F.F.A.Z.3.3.1.1.2.,.3 . .   . . @ 0 $.%.X.+.O...........X.........................o.o.X...................................O...X.+.O.......o.@. .% . .   + + X                                   . . G $.X...............O.............................O.................O...............................O.O...........................................................",
"o o o o o o o o o o o o o o o o o o X o o o o o o o o o o o o o o o o o o o o o o o o X X o o o o o o X o o o o o o o o o o o o o o o o o o o o o o o o o o o o o o o o o o o o o o o o o o o o o o o o o o o o o o o o o o o o o o o o o o o o o o o o o X X X X X X X X X X X X X X X X X X X X X X X X X o o X o o o o X X X X o X X X X X X X X X X X X X X X X X X X X X X X o X X X X X X X X X X X X X X X X X X X X X X X X X X X X X X X X X X X X X X X X X X X X X X o X X X o X X o o X X X X X X X X X X X X X X X X X X X X X X X X X X X X X X X X X X X X X X X X X X o o o X X X o o X X X X X o o X X o o o o o o o X X o X X X X X X X o X X X X X X X X X X X X   X                 X O O O & O O O o O O O O O O O o o o o O : : : O = & & O O O O O O O O O & O O O O O O & : & O O & O O O : & = > : O & = = : : O O O & = : = & O : : : : = f *X#X&X&X&X&X&X&X&X*X&X&X&X&X&X&X&X&X*X*X*X&X&X&X&X&X&X&X&X&X&X&X*X&X&X&X&X&X#X#X#X&X#X&X&X&X&X&X#X&X&X&X&X&X=X*X$X$X#X'.N.D.^./.^.^.^.^.Q.Q.Q.Q.Q.G.G.^.^.G.^.G.G.Q.Q.G.Q.S.Q.^.Q.Q.S.G.S.Q.G.G.Q.S.G.S.G.^.Q.Q.Q.Q.Q.!.G.Q.Q.Q.G.Q.^.Q.G.Q.Q.Q.^.^.Q.Q.G.Q.G.G.G.Q.Q.Q.^.Q.G.G.Q.Q.Q.Q.G.Q.G.^.G.D.}.=X=X=X*X*X=X*X=X*X*X*X&X&X&X&X$X*X*X*X=X*X&X$X&X$X*X&X*X*X&X*X*X&X#X&X*X*X*X*X*X=X*X&X&X&X&X&X*X&X*X*X&X&X&X&X&X*X$X#X&X=X=X=X=X*X=X&X&X=X=X=X=X=X=X=X=X*X=X=X=X=X=X=X*X&X*X=X=X=X=X=X=X=X=X*X=X*X=X=X=X=X=X=X=X=X=X=X=X=X=X*X*X*X&X&X*X*X*X=X=X=X=X=X*X*X=X=X*X*X=X=X=X&X$X$X$X#X'.N.^./././.^.^.Q.!.G.G.^./.^.^.^.^.^.^.^./.^.^.^.G.^.G.G.^.G.^.G.G.G./.^.G././././.^.^.^.G.^.^.!.^.^./.^.^.^.G.G.G.G.G.^.G.G.G.G.!.G.G.!.G.Q.^.^.G.G.G.G.G.F.F.Z.Z.Z.3.1.2.2.<.1 . . . . . . % [ %.X.X.....................O.............O...o.+.X.X...+.................................X.+.O...O.X.@.$.q . o     + + X                                   . @ [ %.X.........O...................................O.O.O.......O...............O.O.....................O.O.....................................O...O.O...O.........",
"o o o o o o o o o o o o o o o o X X o o o X X X o o o o o X o o o o o o o o o o o o o o o X o o o o X X X o o o o o o o o o o o o o o o o o o o o o o o o o o o o o o o o o o o o o o o o o o o o o o o o o o X o o o o o o o o o o o o o o X X X X X X X X X X X X o X X X X o X X o X X X X X X X X X X X o X X X o X X X X X X X X X X X X X X X o X X X X X X X X X X X X X X X X X X X o o X o o X X X o o o o o X o o X X X X X X X X X X X X X X X X o X X X X X X X X X X X X X X X X X . . . o o X X X X X X X X X X X X X X X X X X X X X X X X X X X X X X X X X X X X X X o o X X X X o o o o X X X X X X o X X o X X o o o o X o o X X X X X o o o o X X X X X X X X X X X                 X > & O & : & & O O & O & & O O O O o o o O O O O O O O O O O O o O O O O O O O O O O O O & O O O O O O O O O O O O & O & O O > : O O O O : : & O : = : : = n.=X&X&X$X&X&X&X$X&X&X&X&X&X&X&X&X&X&X&X*X&X&X&X&X*X&X&X&X&X&X&X&X*X*X&X&X&X&X$X#X#X#X#X#X#X#X&X&X#X&X&X#X#X&X&X*X*X$X{.'.N.S.^.^.^.Q.G.G.Q.^.Q.Q.Q.^.Q.G.^.G.G.Q.G.G.G.Q.Q.G.F.Q.Q.G.G.S.G.S.G.Q.Q.G.Q.Q.S.F.Q.G.G.G.Q.^.^.Q.Q.G.Q.Q.Q.Q.Q.Q.G.Q.G.Q.Q.Q.G.Q.G.G.Q.G.Q.Q.Q.Q.^.Q.F.Q.Q.Q.G.G.Q.G.G.D.}.=X*X*X*X&X*X$X$X$X#X#X&X$X&X$X$X$X&X*X*X*X*X&X$X$X*X*X=X=X=X=X=X*X&X&X&X&X&X&X*X&X&X&X*X&X*X*X&X#X$X&X&X&X&X#X#X#X*X&X&X&X&X*X=X=X&X&X&X&X=X=X=X=X=X=X=X=X=X=X*X*X=X*X*X*X&X*X=X*X=X=X=X=X=X=X=X&X&X*X*X*X*X=X=X=X=X=X=X=X=X=X=X=X*X&X$X*X=X&X&X=X=X=X=X*X=X=X=X=X=X=X=X=X=X=X$X#X'.N.^.^.^.^.^.^.G.G.G.Q.Q.^././.^.^.!.^.!.G.G.G.^.G.^.G.G.G.^.^.^.^.^.^.G.G.G././././././.G.G./.!.^.G.G.^.^.^./.^./.^./././.^.^.G.G.G.G.^.^.G.G.G.Q.G.G.G.G.G.F.A.Z.3.3.1.1.,.,.1 . .   .   . . 5 #.%.X.X...O.O.O.+.+.O...O.+.O.O.O.X.O.O.O.X.o.+.+.+.X.............................O.O.O.+.....O.O.@.$.' # + + +   + X     X X                           . . 5  .%.X...O.O.....O.O.............O.O.................O.O.O.....O.O.............O.O.O.O...............................................................O...O.O.O.....",
"o o o o o o o o o o o o o o o o o o o o o o o o o o o o o X o o o o o o o o o o o o X X X X o o o o o o X o o o o o o o o o o o o o o o o o o o o o o o o o o o o o o o o o o o o o o o o o o o o o o o o o o o o o o o o o o o o o o o o X X X X X X X X X X X X o X X o o o o X X X X X X X X X X X X X X X X X X X X X X X X X X X X X X o X X X o o X X X X o o X X X X X X X X X X X X X o X X X X X X X X X X o X X X X X X X o o o X X X X X X X X X X X X X X X X X X X X X X o o X o . . @ . . . o o o o X X X X X X X X X X X X X X X o X X X X X X X X X X X X X X X X X X o X X X X o o o o o o X o o X X X X X X o X O O X X X X X X X X X X X o o X X X X X X X X     X X                 X : & O O > : O O O O O & O o O O O O O o o o o O O O O O O O O O : O O O O = : & & O O O O O O O O O O O O O O O O O O O = & = > > & O O O & & O O O & = = C.=X&X&X&X&X&X&X&X&X&X&X&X&X&X&X&X&X*X&X&X&X&X#X&X#X&X&X&X&X&X&X&X&X&X&X&X*X=X*X&X#X#X#X#X#X&X&X&X&X#X#X#X#X#X#X$X#X#X{.~.N.S.^./.^.^.!.Q.G.Q.Q.Q.Q.Q.Q.G.Q.G.A.S.G.G.G.G.^.Q.S.S.G.Q.Q.G.G.G.F.G.G.Q.Q.G.Q.G.G.G.F.F.G.G.Q.^.Q.G.S.Q.Q.G.G.G.G.G.Q.G.G.F.G.F.G.G.G.G.G.Q.G.G.Q.^.S.F.G.Q.Q.Q.Q.F.G.D.}.=X=X=X=X=X=X*X=X=X$X#X#X&X#X#X#X#X#X#X$X$X&X*X&X$X$X&X&X*X=X*X*X*X*X&X&X&X&X*X$X&X&X=X*X&X&X*X=X&X#X#X$X&X&X*X&X#X#X&X&X&X*X*X*X=X&X=X&X&X&X*X=X=X=X=X=X&X&X&X&X&X&X*X*X&X&X&X&X&X*X=X*X=X=X=X=X=X=X*X*X=X*X*X*X&X*X=X=X=X=X=X=X=X=X=X=X=X=X=X&X&X*X=X=X*X*X=X=X=X=X=X=X=X=X=X*XoX~.N.^./.^./.^.^.^.!.^.G.G.^.^.^.G.G.!.^.!.G.G.G.G.^.!.G.G.G.G.^.^./.^.^.^.^.G.K.G.G.^.G.K.G.G.G.!.G.!.!.^.G.G.G.G.G.^.^.!.G.G.G.!.G.G.^.^.^.Q.G.F.F.G.G.G.F.F.Z.Z.Z.3.3.1.1.2.,.- . . .       . . 0 $.$.X.X...O.X.X.+.+.X.......X.O...........*.X.+.+.+.......+.+.O.O.........+.O.+.O.O.+.O.+.O.X.X.%. .5 . + +             X X                           . . q #.%.X.O.O...............O.O...........O.......................O...............O.O...O.O...............O.O.O.O...............O.....O.O.....O.O.....................",
"o o o o o o o o o o o o o o X X o o o X o o o o o o o o o o o o o o o o o o o o X X X o o o o o o o o X X o o o o o o o o o o X o o o o o o o o o o o o o o o o o o o o o o o o o o o o X o o o o o o o o o o o o o o o o o o o X X o o o X X o X X o X X X X X X o o o X o o X X o X X X X X X X X X X X o X X o o X X X X X X o X X o X X X X X X X o X X X X o o X X X X X X X X X X X X X o X X X X X X X X X X X X X X X X X X o o X X X X X X X X o X X o o X X X X X X X X X X X X X . # 3 e 1 , @ @ . . . . o o X X X X X X X X X X X X o X X X X X X X X X X X X X X X X X X X X X X X X X X o o X X X o X X X X o X X o o o X X X X X X X X X o o o o X X X X X X X X X X X                   X O O = O O O O O O O o o O O O O O O O o o o o o O O o O O o o O : O O O & & & O & = O & O & & O O O O O O O O O O O O O & : O O : > = & O O O O O O O = = C.=X&X&X&X&X&X&X&X&X&X&X&X&X&X&X$X$X*X&X&X#X&X&X&X#X&X&X&X&X&X*X&X*X&X&X&X=X=X*X*X&X&X#X#X&X&X&X*X=X*X&X&X&X#X&X#X#X#X{.~.N.S.^.^.^.Q.G.G.G.G.G.F.G.G.G.G.G.^.G.G.S.S.G.G.G.G.G.G.G.F.G.Q.F.F.G.G.S.A.Q.Q.Q.Q.Q.Q.S.G.F.F.S.G.F.G.G.Q.Q.Q.G.S.G.G.G.Q.Q.Q.G.F.G.G.G.Q.Q.G.Q.Q.G.Q.Q.F.F.G.G.Q.Q.Q.G.D.}.'.'.J.V.].#X#X#X#X$X$X*X=X=X$X=X=X#X$X*X$X#X$X$X&X#X#X#X#X&X$X&X&X&X&X$X#X&X&X&X&X$X*X=X=X&X#X$X=X&X&X&X&X&X*X*X&X#X#X&X&X*X*X&X&X=X=X*X&X&X&X*X=X=X=X=X*X&X&X&X*X&X*X*X*X=X&X&X*X*X=X=X=X=X=X=X*X=X*X&X&X=X=X*X&X*X=X=X=X=X=X=X=X=X=X=X=X=X=X=X=X=X=X=X=X*X=X=X=X=X=X=X=X=X*X$XoX~.N.^.^.^.^.^./.^.^.Q./.^.^.^.G.^.G.G.!.!.!.!.!.G.G.G.G.G.G.G./././.G.G.G.K.K.K.K.G.K.K.K.K.G.G.G.G.G.G.G.G.G.G.G.G.G.G.^.G.G.^.!.G.G.G.Q.Q.G.!.Q.G.G.G.G.F.F.Z.Z.3.1.4.1.2.,.,.- . .             # [ $.$.X.X.X.+.X.X.+.......................*.o.+.....+...+.+.+.....O.............+.O.+.+.+.O.X.@.$.q @ + . .             X X                           . . H $.X.X...O.................O...............................................................................O.O.......................O.O...................O.O.O...",
"o o o o o o o o o o o X X o o o o o o o X o o o o o o o X o o o o o o o o o o o o o o o o o o o o o o o o o o o o o o o o o o o o o o o o o o o o o o o o o o o o o o o o o o o o o o o o o o o X X o o o o o o o o o X X X o o o o o o X X X X X o o X o o X o X X o X X X o X X o o o o o o o X X o o o o X X X X X X X X X X X X X X X X X X X X X X X X X X X X X X X X X X X X X X X X X X X X X X X X X X X o o o X X X X X X X o o o X X o o X X X X X X X X X X X X X X X X X o X o . , K U U b 4 4 1 # @ @ @ . . o X X X X X X X X X X X X X o o X X X X X X X X o X X X X X X X X X o o o X o X X X X o X X X X o X X X X X X X X o X X X X X X X X X X X X X X X X X X X X   X X X           X & O : : O o O & O O O O o O & O o o O o o o o O O o O O o o O O & & O O O & & & O O O & & & & O O O O o O : : = & & o o O O O O O & : : : & & & : O O : : V.*X$X$X&X&X&X&X&X&X&X&X#X#X#X#X&X&X#X&X&X&X&X&X&X#X#X#X#X#X&X#X#X#X#X#X&X&X=X&X&X=X*X&X&X&X*X&X&X&X&X*X=X*X&X&X&X#X#X{.~.N.S.^.Q.Q.Q.G.G.^.G.Q.Q.G.G.S.G.G.G.G.Q.Q.Q.G.S.Q.Q.F.G.Q.G.Q.G.G.F.A.G.G.F.G.G.Q.Q.Q.^.^.Q.Q.Q.S.G.G.G.Q.Q.Q.G.Q.G.G.G.Q.Q.Q.^.Q.G.G.G.G.G.Q.Q.Q.Q.G.G.Q.Q.G.Q.Q.F.Q.Q.Q.^.m.3 : : : > 9 r a a g f E n.n.C.V.V.V.V.V.`.$X#X$X$X=X=X=X=X=X=X=X=X=X*X&X&X&X#X&X&X#X#X$X$X$X#X&X&X&X&X#X=X&X&X&X$X&X&X&X&X*X*X=X*X*X=X=X*X&X&X*X*X*X*X&X*X=X=X=X*X*X=X=X=X*X&X&X&X*X&X*X*X&X&X*X*X=X=X*X&X*X=X=X=X=X=X=X=X=X*X*X=X=X*X*X*X*X=X=X=X=X=X=X=X=X=X=X*X=X=X=X=X=X=X*XoX~.D.^.^.^.G.^.^.^.^.^.^.^.^././.K.^.G.Q.!.!.!.!.Q.Q.Q.!.G.K.K.K.K.K.K.K.K.K.K.K.K.K.K.K.K.K.K.K.H.G.G.G.G.G.^.G.K.G.!.G.G.^.^.G.^.G.G.G.G.G.G.G.Q.Q.G.G.G.F.F.H.A.Z.3.1.3.2.,.E #                 . q  .%.@.X.+.X.O...O...X.X.X.X.o.o.........*.o.X.X.....+.X...X.X.........X.X.....X.+.......X.@.$._ % + + o X X X X X                                 . . @ ) $.X.X.O.O.............O.O.O.O.O.O.O.........................................................O...............O.O...O.O.O.O.O.O.............................O...O...",
"o o o o o o o o o o o X X o o o o o o o o X o o o o o o o o o o o o o o o o o o o o o o o o o o o o o o o o o o o o o o o o o o o o o o o o o o o o X o o o o o o o o o o o o o o o o o o o o o X o o o o X o o o o o X o o o o o o o o o X X X X X o o o o X X X X o X X o o X X X o o o o o o o X X X X X X X X X X X X X X X X X X X X X X X X X X X X X X X X X X X X X X X X X X X X X X o X X X X X X X X X X X o X X X o X X X o o o X X X X X X X X X X X X X X X X X X X X X X o . @ 2 K M n c c b b b 4 2 , # @ @ . . . o X X X X X X X X X X X X X X X X X X X X X X X X X X X X X X X X X X X X X o X X X o X X X X X X X X X X o o o X X X o X X X X X X X X X X X X X X X                 o = O O : O O O O O & O O O O & O O O o o o o O O = O O O o O O & & O O & O O O O O & O O O O O O O O O O o O : & & & & O O O O O O O O O O O & : : & : = > ~.*X#X$X&X&X&X*X&X&X&X#X&X&X#X#X#X&X&X&X&X#X&X#X&X#X&X#X#X#X#X#X#X#X#X#X&X&X&X*X=X*X=X=X*X=X=X=X&X&X#X#X&X=X=X&X&X$X#X{.J.N.^.^.Q.Q.Q.Q.G.G.G.G.Q.Q.Q.Q.Q.Q.Q.Q.Q.Q.Q.G.G.G.Q.Q.Q.Q.G.G.G.G.G.A.A.Q.Q.F.Q.Q.Q.G.G.Q.Q.Q.G.Q.^.Q.Q.Q.G.G.Q.G.Q.Q.Q.Q.G.Q.^.Q.Q.G.S.G.G.G.G.G.Q.Q.G.G.Q.G.Q.G.G.Q.Q.Q.^.s = : : & O = & = = O O O O O & = : : & : > a a g g f n.n.n.C.V.V.J.[.[.].#X&X$X#X*X=X=X=X=X=X=X*X*X=X=X*X&X&X$X&X#X#X#X#X#X&X$X$X&X$X&X*X*X*X*X*X&X*X*X*X&X&X&X=X*X*X*X*X=X*X*X&X#X&X&X&X&X&X&X&X&X&X=X=X=X=X=X=X=X=X=X=X=X*X&X&X=X*X*X*X*X&X&X&X*X&X=X=X=X=X=X=X=X=X*X*X=X=X=X$XoX~.D.(./.^././.^./.^.Q.Q.^.K.^.^.^.G.G.G.G.G.!.G.G.^././.K.K.K.L.L.L.L.L.L.L.L.Y.Y.Y.Y.L.L.L.L.L.K.H.H.G.G.G.K./.^.G.G.^.G.^.^.^.G.^.G.G.G.G.G.^.^.Q.!.!.G.G.F.H.F.F.A.3.1.2.,.E #                   . 5 } %.X.X...........O...................o.o...+.............X...................O...O.X.X.$.' # . + .     X X X X X     X X                         . % [ $.......O...................O.O.O.O...................O.............................................O.O.O.....O...........O...............................O.O.O.O.",
"o o o o o o o o o o o o X o o X o o o o o o o o o o o o o o o o o o o o o o o o o o o o o o o o o o o o o o o o o o o o o o o o o o o o o o o o o o o o o o o o o o o o o o o o o o o o o o o X X o o o o X o o o o o o o o o o o o o o X X o X X X X o o o X o X X X X X X o o o X X X o o o o X X X X X X X X X X X X X X X X o o o X X X o o o X X X X X X X X X X X X X X X X X X X X X X X X X X X X X X X X X X X X X X X X X X X X X X X X X X X X X X X X X o X X X X X X X o o o @ # b B N Z N n n M M c v v b 4 2 , @ @ @ . . . X X X X X X X X X X X X X X X X X X X X X X X X X X X X X X X X X X X X X X o o X X o o X X X X X X X o X X o o X X X X X X X X X X X X X X X                 O > & & O O O O o o : : O O O O O O o o o o O o O O O o o O O O O O O O & & O O O O O O O : & O O O O O O O O O O & & & O O O o O O & & & O O & O & = = = > ].*X&X&X&X#X&X*X&X&X&X#X#X#X&X&X#X#X&X&X&X&X&X&X&X&X&X&X&X#X#X#X#X#X#X#X#X&X&X*X*X&X&X&X&X&X&X*X=X*X&X#X#X&X&X&X&X&X#X'.J.N.S.^.^.Q.Q.Q.Q.G.G.G.G.G.Q.G.G.G.G.G.G.Q.G.Q.G.F.A.G.G.G.Q.Q.Q.Q.Q.G.A.G.Q.Q.Q.G.G.Q.G.A.F.F.G.Q.Q.Q.Q.G.G.A.G.Q.Q.G.G.Q.Q.^.Q.^.Q.Q.Q.G.Q.G.G.G.Q.Q.G.Q.Q.Q.Q.!.Q.Q.Q.Q.S.e # = = O O : = = & = & : : = : & & & O O O O O O & = = O O : : : : > 3 a a g g a f n.n.C.n.C.V.[.].oX#X#X#X*X=X=X=X=X=X=X=X=X=X=X=X*X*X=X*X#X&X&X#X&X$X&X&X#X&X&X&X&X*X*X*X&X*X*X&X&X&X&X*X=X&X=X*X&X=X*X=X=X=X=X=X=X=X=X=X=X=X*X*X&X*X*X*X*X&X&X*X=X*X*X*X=X*X*X*X=X=X*X*X=X*X$XoXJ.D.(././.^./././.^.G.^.^.K.K.^./.^.G.G.G.G.G.^.K.K.K.K.K.K.L.L.$.$.$.$.$.$.$.$.$.$.$.$.$.$.$.Y.L.L.L.L.K.K.K.^.G.G.G.G.^.^.^.^.G.^./.K.G.G.G.^.^.^.G.G.G.G.F.F.A.Z.3.3.2.2.,.T #                     . 5 | %.X.+.+.+.+.+.O...................X.o.o.........O.....X...........O.............@.$.G % . + . . . . X X X     X                             . . 5  .X...O...O...............O.O.............................................................................O...........................O.............................",
"o o o o o o o o o o o o X X o o o o o o o o o o o o o o o o o X o o o o o o o o o o o o o o o o o o o o o o o o o o o o o o o o o o o o o o o o o o o o o o o o o o o o o o o o o o o o o o o o o o o o o o o o o o o o o o o o o o X X X o o o o o o X o o X X o X X X X X X o o X X o X o o X X X X X X X X X X X X X X X X X o o X X X X X . . o o o o X X X X X X X X X X X X X X X X X X X X X X X X X X X X X X o o X X X X X X X X X X X X X X X X X X X X X X X X X X X X X o o o @ , v B N N m m m m m N n n M v v b b 2 , # @ @ . . . X o X X X X X X X X X X X X X o X X o X X X o X X o o X X X X X X X X X o X X X o o X X X X o o o X X o X X X X X X X X X X X X X X X X X               o : : & & o o O O o o O O O O O o o X o o o O O o O o O o O o O o O O O O O & O O O O O O O O O O O O O O O O O O O & & O o & O O O O & & & = : : = = = O a #X#X&X$X&X#X#X&X&X&X&X&X&X#X#X#X&X&X&X&X&X&X&X&X&X&X&X&X&X&X&X$X$X&X$X&X#X#X#X&X&X&X&X&X&X&X&X&X&X=X*X*X&X&X&X&X$X&X#X'.J.N.S.Q.G.G.Q.Q.Q.Q.G.G.G.G.Q.Q.Q.Q.Q.G.G.G.G.G.F.F.G.A.F.F.G.Q.Q.Q.Q.Q.G.G.Q.G.Q.Q.G.Q.F.G.G.Q.G.G.G.G.G.A.F.G.G.G.Q.Q.Q.G.G.Q.Q.Q.^.Q.Q.Q.G.G.Q.G.G.Q.G.Q.Q.Q.Q.Q.Q.Q.Q.A.N.3 # = O O = & O = = O O & O O O & = = O = = = = : : = = : = = : : : : = = & O = = = O O O O O = > > > 9 a a g f f >.n.n.n.C.[.].'.[.].'.`.#X=X=X=X=X=X=X=X$X$X$X&X&X&X=X*X*X&X&X&X&X=X&X&X&X&X&X&X=X&X&X*X&X*X*X*X=X=X=X=X=X=X=X=X=X=X*X&X&X*X*X&X$X&X*X*X*X*X*X=X*X=X=X*X*X=X*X$X{.J.N.^.^././.^.^.^.Q.^.^.^./.^.^.^.^.^.^.K.^./.K.K.K.K.L.L.Y.$.$.o.o.o.X.X.X.X.X.X.X.X.X.X.X.X.$.$.$.$.#.L.L.K.K.G.G.K.K.G.^.K.^./.^./.^.^.^.^.G.G.G.G.G.G.G.F.A.Z.Z.3.3.1.2.,.T @                     . . % [ $.%.@.+.+.+.+...............O.O.+.o...X.X...O.O.O.+.................X.X.X.X.%.$.G # . o X +   + X X X X X     X X                         . . 5 &.X...O...........................O...................O.............................................................................O...............................",
"o o o o o o o o o o o X o o o o o o o o o o o o o o o X o o o o o o o o o o o o o o o o o o o o o o o o o o o o o o o o o o o o o o X o o o o o o o o o o o X X o o o X o o o o o o o o o o o o o X o o o o o o o o o X o X o o X o o X X X X X o o X o o o X X o X X X X X o X X X o o X o o X X X X X o X X X X X X X X X X X X X X X X . . # # @ @ @ @ . o o o X X o o X X X X X o X X X X X X X X X X X X X o o o o o X X X X X X X o X X X X X X X X X X X X o o o X X X X X X X X . @ 2 v N N m N m m m m N N m m n n n v v b b 4 < , @ @ . . . . o X X X X X X X X X o o o X X o X X X X X o o X X X X X X X X X o X X X X X X X X o X X X X X X X o X o X X X X X X X X X X X                   O & O O O o O O & O X X o o O & O O O O O O O O O o o O O O O o O O O O O & O O O O O O O o O O O & O O O = O O & O o & & o O : : O O : O O : = = : : : : a oX#X$X&X&X&X#X#X#X&X&X&X&X&X&X#X#X#X&X*X&X&X&X&X#X#X&X&X&X*X&X&X$X*X*X*X*X&X&X#X#X#X&X&X&X&X&X&X&X&X*X*X*X&X&X&X$X#X{.'.J.D.^.Q.G.G.G.S.G.Q.Q.Q.F.G.Q.G.Q.Q.^.Q.G.F.G.G.Q.G.Q.G.F.A.A.A.S.F.G.Q.Q.Q.Q.G.G.G.G.G.S.G.Q.G.Q.F.Q.G.F.G.F.G.Q.G.Q.Q.Q.Q.Q.Q.Q.Q.Q.G.Q.G.G.G.G.Q.Q.Q.G.Q.Q.Q.Q.Q.Q.Q.S.4.m.1 = = = = & O O : = : & O O O O = O O : : : : : : = & = = : = = & : : = : : = : = = = = O & : : : = = = = O & O O O O O O = > > > > r 9 > a f f f f n.n.f `.*X$X&X&X*X=X*X=X=X*X&X&X*X=X*X&X&X&X&X&X&X&X&X&X=X&X&X=X=X=X=X=X=X=X=X=X=X=X=X=X=X=X=X*X$X&X*X=X=X=X*X*X*X=X=X*X*X*X$X{.J.D.^.G.^.^.^.^.^.^./.^././.^.^.^./.^.^.^./.K.K.K.K.L.Y.$. .*.*.*.o.......O.+.O.O.O.+.O.X...+.X.X.X.X.$.$.Y.L.K.K.K.K.^.^.G.G.G.!.Q.^./.G.G.G.G.G.G.!.G.G.F.F.F.A.Z.3.1.2.2.,.T .                       . . % G $.%.+.+.+.X.O...O.O.O.O...O.O.+.o.o.+.X.............O.............O.X.X.%.#.0 % . + +   X X X X   X + + X X                             . . 8 $.X...................................O.........................................................................O.O.O.O.O...............O...........O.O.............",
"o o o o o o o o o o o o X o o o o o o o o o o o o o o o X o o o o o o o o o o o o o o o o o o o o o o o o o o o o o o o o o o o o o o o o o o o o o o o o o X o o X X o o o o o o o o o o o o o X X o o o o o o o o o X X X o X X X X X o o X o o o o o o o o o X X X X X X o o o o o X X X X X X X X X X X X X X X X X X o X X X o o X o . # 4 K b 4 1 , # @ @ . . o o o o o o o o o o X X X X X o o X X X X X o X o o o X X X X X X X X X X X X X X X X X X X X X X o o X X X X X X . @ @ 4 B N Z Z Z Z N N N m Z A m m m m n n n n c v b 2 2 , # @ @ . . . X X X X X X X X X X X o X o o X X X X X X X X X X X X X X o X X o o X X X o X X X X o X X o X X X X X X X X X X X X X                     O = O o o O o O & & > & o X X o = O & = O o O O O O O O O o o O O & O O & O & & O O O O O O O & O & & O O & O O o O O O O O O = : : O O = : : & = : : : : a #X#X#X&X&X&X#X&X#X&X$X&X$X&X&X*X&X&X$X&X*X&X&X&X&X#X#X&X&X*X$X$X&X&X&X&X*X*X*X&X&X#X&X*X*X*X&X*X&X&X*X&X$X&X&X&X#XoX].'.D.D.Q.^.^.Q.Q.G.G.G.S.F.G.S.F.G.Q.Q.Q.Q.Q.G.F.F.S.Q.G.S.G.Q.G.G.G.G.G.F.Q.F.Q.Q.G.Q.S.F.G.G.F.G.F.Q.G.G.S.S.G.Q.G.Q.S.G.Q.Q.Q.Q.Q.Q.G.Q.G.G.G.G.Q.G.Q.Q.Q.G.Q.Q.Q.Q.!.^.Q.4.,.- = = & O O O = & = = O = = : : : : = : & : : : : & & & & O O O : : : & : = = : O O O = = = = : : = = : : : : : : : = : : : O O O = O = : = O O = & O O + V.=X#X&X&X&X=X=X=X=X=X*X*X=X=X=X&X&X*X=X*X&X&X&X&X&X*X*X*X=X=X=X*X=X=X=X=X=X=X=X=X=X=X=X=X*X=X=X=X=X=X=X=X=X=X=X*X*X*X$X{.D.D.^./.^.Q.^.G.^.^.^.^.^.Q.^.^.^.^.^.^.K.K.K.L.Y.Y. . .*.*.*.*.o.........+.+.+.O.+.O.O.O.O.O.O.O.....X.X.$.$.Y.L.K.K.K.^././.G.G.^.^.G.G.G.G.Q.G.G.F.G.F.F.A.H.Z.3.3.3.1.2.2.s .                         . . @ q #.%.%.+.X.X...O.O...O...+.+.+.X.*.o.X.X.........X.+.+.o.X.O.....X.%.%.} 5 @ + + + +   X X X X X X X X       X                         . . G $.X.................O.....O...............................O...........................................O.O.........O.O.O.O...........................................",
"o o o o o X o o o o o X X o o X o X X o o o o X o o o o o o o o o o o o o o o o o o o o o o o o o o o o o o o o o o o o o o o o o X X o X X o o o X o o o o o o o o o o X X o o o o o o o o o o X X o o o o o X X X X o X X X X X X o o o o X X o o o X o o o X X X X X o o X o o o X X X X X X X X X X X X X X X X X X X X X X X X X X + . , l v M M v v b 2 , # @ @ . . . o o o X X X X X X X X o o X X X X X X X X X X o o X X X X X X X X X X X X X X X X X X X X X X X X X X X X . @ , b M m N C Z Z Z Z Z C Z A Z m N m m m m m B n n v v b b 2 , , @ @ . . . o X X X X X X X X X X X X X X X X X X X X X X X X X X X X o X o o X X X X X X o X X X X X X X X X X X X X X X X                     o : & O O o o O O o : : o o o o O o O O O O O O O O O O O O O o o O & O = O O O O : O O O O & O O & : = O O & & O O O O O O O & O & : O & = : = = : = = O g $X&X&X#X#X&X#X#X#X#X#X#X#X$X$X$X*X*X*X*X&X&X&X$X&X&X#X#X&X*X&X&X&X&X#X&X&X*X&X&X&X&X&X=X*X=X=X*X&X&X&X&X$X&X&X&X#X$X{.'.D.D.G.Q.^.Q.Q.Q.G.G.G.G.F.G.Q.S.G.G.G.G.G.G.Q.G.F.G.Q.Q.Q.Q.Q.G.Q.Q.G.S.S.Q.Q.Q.Q.Q.Q.S.G.F.G.G.G.G.Q.Q.S.Q.Q.Q.^.G.G.G.G.G.G.Q.Q.Q.G.G.G.Q.G.Q.G.Q.G.Q.G.G.Q.Q.G.^.!.Q.F.D.,.- = O O & O O = = = O O & O O & & = & = : = : : : : : : : & O = = = : : & & = : : = O & O O & = O O O : : : : : : : : : O & : : : : : : : = : = : : : : & n.$X&X&X&X&X&X*X=X=X=X*X=X=X=X=X=X=X=X=X=X=X&X&X=X*X*X=X=X=X=X=X=X*X*X=X=X=X*X=X=X=X=X=X=X=X=X=X=X=X=X=X=X=X=X=X=X=X*X$X'.D.D.G.Q./././.^.Q.^.^.G.G.Q.^.^.^.^.^.K.K.L.L.Y.$.#.*.*.*.o...............+.+.O.....O...O.+.X.+.+...O.O.X.X.X.$.$.Y.K.K.K.K.K.K.G.G.^.^./.^.^.^.G.G.G.G.G.G.F.H.Z.3.3.3.2.2.2.e .                         . . . . 5 [ %.%.X.X...O.O.O.O.+...O.O.+.*.*.+.X.O.......X.....X...X.X.X.%.#.G # . . + + . . X X X X o X X X X                               . . @ [ $.X.........................O...........................O.O...................O.O...O.O.O...............O.................O.............O.O.........................",
"o o o o o o o o o o o X X o o X o o o o o o o o o o o o o o o o o o o o o o o o o o o o o o o o o o o o o o o o o o o o X o o o o X X o X o o o o o o o o o o o o o o o o o o o o o o o o X o o o o o o o o o X X X X X X X X o o o o o o X X X X o o X X X X X X X X o o X o o o o o X X X X X X X X X X o o X X X X X X o o X o X X o . @ < M B N B M n M v v b 4 2 , # @ @ . . . . X o X X X X X X X X X X X X X X X X X X X X X X X X X X X X X X X X X X X X X X X X X o X X X X . @ < M B N m N Z C C N N C C N Z m m m N N N m m m N n n n c v v b b 4 , # @ @ . . . . . X X o X X X X X X X X X X X X o X X X X X X X o X X X X X X X X X X X X o X X X X X X X X X X X X X                   X O : O O O o O O o o X o O o o o o O o o O O o O : : O & O O O O O O : : & O O O o O : & & O O O O O O : O O O = & O O & o O : O O O O & = : & O O = = = = g $X#X&X&X&X#X$X#X&X#X#X#X#X#X#X#X&X#X&X&X&X*X*X*X*X=X&X&X&X&X&X$X$X&X&X&X&X*X&X&X#X#X#X&X&X*X*X&X&X=X&X&X&X&X&X&X&X#X{.'.N.D.G.S.Q.G.G.G.Q.G.G.Q.G.F.G.Q.F.S.S.A.G.G.G.Q.G.F.Q.Q.Q.Q.Q.Q.Q.Q.G.Q.G.S.G.Q.Q.Q.Q.Q.G.G.G.Q.Q.G.G.Q.G.G.G.Q.G.G.G.G.G.G.S.A.F.F.G.F.G.F.F.G.G.G.^.Q.G.G.G.Q.G.G.Q.Q.F.4.>.- = = o O O O O O = = : = : & = = O O O = O O : : : : O O O O : : : : O : O & & O O & & O & O : : & & & O & : : = = = : : : : : > : : : : = : : = : : : : C.#X&X#X&X&X&X&X*X=X*X*X*X=X=X=X=X=X=X=X=X=X=X*X&X*X=X=X*X&X&X&X*X*X*X*X*X*X&X*X*X*X*X*X=X=X=X*X=X=X=X*X*X*X=X=X=X=X$X$X'.D.D.^.^.^.^.^.^.^./.^.^.Q.!.^.K.K.K.K.K.L.#.$.$.X.o.o.o...................O.+.+.O...O.......+.+.+.X.+.+...O.O.X.o.$.Y.L.K.K.G.K.G.G././.^.^.^.!.!.G.G.G.G.F.F.H.A.Z.Z.3.3.2.1.e                             . . . . % [  .$.%.@.X.X.....O...O.+.X.X.*.o.+.X.O.O.+.X.....+.X.%.$.#.G % . . . + + + +     X + + o o X X + X                             . . %  .X.+.........................O.............................O.....................O...................O.O.O.O...............O.........O.....................O.........",
"o o o o o o o o o o X X X o o o o o o o o o o o o o o o o o o o o o o o o o o o o o o X X X X o o o X X X o o X o o o o o o o o X X X X X X X o o o X o o o o o o o o o o o o o o o o o o o o o X X o o o o o o o o X X X X X o o o o o o o o X X X X o X X X o X X X o o X o X X X o X X X X X X X X X X X o X X X X X X X X X X X X o . @ b B Z Z N N m m M n M v v b 4 2 , @ @ @ . . o X X X X X X X X X X X X X X X X X X X X X X X X X X X X X X X X X X X X X X X X X X X X X X . @ b B N m N C C Z S Z Z C N m N Z m N C C N N N m m m m m m n n n c v v b 4 2 , # @ . . . . . X X X X X X X X X X X X X X X X X o X o o o X X X X o X X X X X X o X X X X X X X X X X X X                     X O & O O o O O o o o o O O o o O O O O & = O o O = : O O O O O O O : O O = O o O O O O & O & O O O O O & O O O O : = O O O O & : O & O & : & O O O : = O O f &X#X&X&X#X#X#X&X&X#X#X&X#X#X#X#X&X&X$X&X&X#X&X&X&X&X&X&X&X&X&X&X#X$X&X$X&X&X&X&X&X#X#X&X&X&X&X&X*X=X*X&X&X&X#X#X&X#X{.'.N.D././.^.^.Q.Q.G.G.Q.G.G.Q.F.G.Q.F.G.F.A.S.Q.Q.Q.G.S.Q.F.S.Q.Q.G.G.Q.G.Q.Q.^.G.G.Q.Q.Q.Q.G.S.Q.Q.G.F.G.Q.G.S.S.S.G.G.Q.^.^.^.G.Q.Q.Q.Q.Q.Q.Q.G.G.G.Q.Q.G.Q.G.G.Q.S.Q.Q.G.S.E - : O = = & : O o O & : : : : = : > = = & : : O & : : = = = & O & & = O O = O o O O O O & O O & : O O O O O O : : : = : : : : : : = : : : : : : : : : : = `.=X&X*X&X&X&X*X*X*X*X*X*X&X&X*X*X=X*X&X*X=X=X*X=X*X&X&X&X*X&X&X&X&X*X&X*X*X*X*X*X*X*X*X*X=X=X*X*X=X=X*X*X&X$X$X$X*X$XoX'.D.S.^.G.!.!.G.G.G.^.^.^.G.G.G.G.K.K.K.L.$.$.o.X.X.X.............O...........O.+.+.+.O...........O.O.O.+.O.O.O.O.X.X.$.$.Y.K.K.K.G.G.^.G.G.^.!.!.!.G.G.F.F.F.F.F.A.Z.Z.3.3.2.1.r                                 . . # q % 0 [ #.%.%.%.X.X.o.......X.o.*.X.X.....X.X.+.X.@.#. .Y 5 . . . .     X X X X   X o X X X X X X X X                         . . . 5  .X.O...O...................................................................................................................O.O.O.O.........................O.........",
"o o X o o o o o o X X X X o o o o o X X o X X o o o o o o o o o o o o o o o o o o o o X X X o o o o X o o o o o o o o o o o X o o X o X X X X o o X X X o o X o o o o o o o o o o o o o o o o X X o X o o X X o X X X X o o o o X X X o o o o X X X X o o X X o o X X X X X X X X X X X X X X X X X X X X X X X X X X X X X X X X X o . @ , v N Z A Z N N m N m m M n n v v b b 2 , # @ @ . . . X X X X X X X X X X X X X X o X X X X X X X X X X X X o o X   X X X X X o X X X X X X @ , M B N m m C C m C S S C Z C m N N N N m m N N N m m m m m N m m n M n n M v b 4 < , # @ @ . . . . . X X X X X X X X X X X X X X X X o X X X X X X X X o X X X X X X X X X X X X X X X X   X                   O & O o o O O O o O O O O = O O O O O O : : O o O O & O o O O O O : : O O O O o O O O O O O O O O O O = O O O = = & : & & O O : & O O O O O O O O & = & O n.$X#X$X&X&X&X#X#X&X#X#X#X#X#X#X&X&X&X$X$X&X#X#X#X#X#X#X#X#X$X#X&X$X#X&X#X&X&X&X&X&X&X&X&X&X&X&X&X&X&X&X*X&X&X&X#X#X#X].'.N.D./.^.Q.Q.Q.Q.Q.G.Q.Q.Q.G.Q.F.Q.^.G.G.G.F.F.F.G.^.Q.G.Q.Q.G.G.G.F.A.F.F.Q.Q.Q.Q.Q.Q.Q.Q.Q.Q.G.Q.^.G.F.Q.Q.G.G.Q.Q.Q.Q.Q.Q.Q.^.Q.Q.Q.^.Q.Q.^.G.S.Q.!.G.G.Q.G.S.G.Q.F.Q.F.S.T # & O = O = = & O O = : = & = : = : = O O & & : : & & & & : : & & & = = O = = O O O O O O & O & & & O O O = & O : : = = = = : : : : : : : : > > > : : = : V.*X$X&X&X&X&X&X&X&X*X=X=X&X&X&X*X=X=X&X*X=X=X&X*X=X*X&X*X*X=X=X*X*X*X*X*X*X=X=X=X=X=X=X=X=X=X=X=X=X=X=X=X*X*X=X=X$X$XoX'.N.S.^.^.G.Q.G.!.G.G.^./.^.G.K.K.K.L.L.Y.$.o...............X.................O.O.+.+.............O.O...+.O.O.O.......X.X.$.Y.K.K.G.G.G.G.G.G.G.G.!.G.G.F.F.F.F.A.A.Z.3.3.3.1.1.r                                     . . . . @ 5 0 [  .$.%.%.%.%.%.%.%.o.*.@.X.X.@.%.$.#. .[ 5 . . . X       X X X + X   X X X X X X X X X X   X                     . . . q #.X...O.O.O.O.........O...........................................................................................................................O.O.O.O.O...........",
"o o X o o o X o o o o o o X o o o X X X o o X o o X o o X o o o o o o o o o o o o o o o o o o X X o o o o X X X o o o o o o o o o o o o o o o o o o o o o o o X X o o o o o o o o o o o o X o o o o o o o X o X X X X X X X X X X X X X X X o X o o X X X o o o o X X X X X X X X X X X o X X X X X X X X X X X X X X X X X X X X X X . @ < B Z Z Z N C m N N Z N m m m m n n c v b b 2 < , # @ @ . . . o X X X X X X X o X X X X X X X X X X X X X X o o X X X X X X X X X X X X X . @ 2 M N m N m m N m N C S S C A Z Z Z Z C N m N N m m m N N m m N Z Z N N m n n M c c l 2 < , , @ @ @ . . . X X X X X X X X X X X X X X + X o o o X X o X X X X X X X X X X X X X X X X X X X X                 X = & O o o o O O O O O O O : : O O O O O O O O o o o O O O O O O O O O O O O O O O O O & & O O O & = O O O O & : = O O = : : = & O O O O O O o O & = & = O f #X#X&X&X$X$X#X&X&X#X#X#X#X#X#X#X#X#X#X#X&X#X#X#X#X#X&X&X&X&X&X&X&X&X#X#X&X&X#X#X&X#X#X&X&X&X*X&X&X&X&X&X*X&X&X&X&X#X{.'.N.D.Q.^.Q.G.Q.Q.Q.Q.G.Q.G.Q.!.G.G.G.G.Q.Q.G.G.F.S.Q.Q.Q.Q.Q.Q.Q.G.Q.Q.Q.G.G.Q.G.Q.G.Q.^.Q.Q.^.^.Q.G.^.Q.G.F.F.F.G.F.G.Q.G.F.F.Q.G.Q.Q.Q.Q.Q.G.Q.Q.Q.G.Q.G.Q.Q.Q.G.G.Q.Q.Z.D.T - = O O = O & : = & O O & O & = = : : = : & : : : & O O O O = O : : : : : = & = = & & O O : : = & O O : & : = & = : = = = : = = : : : : : : : : : = : : > `.*X*X=X=X=X*X$X&X&X&X&X*X*X*X=X=X*X=X=X&X*X=X*X&X&X&X&X&X*X=X=X=X*X*X=X=X=X=X=X=X=X=X=X=X=X=X=X=X=X=X=X=X=X=X=X=X=X*XoX'.D.S.G.G.G.G.G.!.G.G.G.G.G.G.G.G.L. .$.$.X.X...............O.O...O.O...............O.......O.O...O.O...O...O.O.O.O.....X.o.$.Y.L.K.K.K.G.G.G.G.G.G.G.G.F.G.F.A.A.A.Z.Z.3.3.1.1.r                                     . . . . . . . . % q H ' #.Y.#.$.Y.$.#.#.$.$. .[ 8 0 5 % % . .         X X X X + o + X X X X X X X X X X X X X X           X       . @ F $.X.O.....O.O.........................................................................................................................................O...............",
"o o X X o o X o o o o o o o o o o o o o o o o o o o o o o o o o o o o o o o o o o o o o o o o o o o o o o o X X o o o o o o o o o o o o o o o o o o o o o o o o X o o o o o o o o o o o o o o o X X X X X X o o X o X X X X X X X X X X X o o X o o X o o X o o o o X X o X X X X X o X X X X X X X X X X X X X X X X X X o X X X X X @ # b B N C Z Z C m C N m m N m m m N m m n M v v b b b 2 < , @ @ @ . . o o X X X X X X o o X X X X X X X X X o o X X X X X o X X X X X X X X . # b M N N C N Z Z N Z C C A Z Z Z A m C C N N m m m m m C N m m m m Z Z Z m m m N M M M c b b b 4 2 , # @ @ . . . . o o X X X X X X X X X X X X X X X X X X X X X o X o X X X X X X X X X X X                   X : = O O o o O O & = = & : & = : & O O O o o O O o O o o O O O O O O O O & & O : O O O O O O O O & & O o O O O & = O O & O = = O O O & & O o O O O = & = O n.*X#X&X*X&X&X&X&X$X&X&X$X#X#X#X#X#X#X#X#X#X#X&X&X#X#X#X#X$X=X*X&X&X*X&X&X&X&X&X#X&X#X#X#X&X&X&X=X&X#X&X&X&X&X=X*X&X#X{.~.N.S.^.G.Q.Q.G.G.G.Q.Q.G.G.F.Q.G.G.G.G.G.Q.G.F.F.G.G.Q.Q.Q.G.G.Q.G.G.Q.Q.Q.Q.Q.G.G.G.G.G.G.G.Q.G.Q.Q.Q.Q.Q.G.Q.G.F.A.A.G.F.G.F.F.F.A.G.G.G.G.Q.Q.G.G.F.G.G.Q.Q.Q.Q.Q.Q.Q.1.D.T - = & O = & O = & O = & O O & & : = : : : = & : & = & O O = = & & : : & & = = : = O & & O : > & O O & = = : : = = = = : = = = = = : : : : : : > : : > : > '.=X*X=X=X=X=X*X=X=X*X*X=X*X*X*X*X=X&X*X*X*X=X*X=X=X*X*X&X&X*X=X=X=X=X=X=X=X=X=X=X=X=X=X=X=X=X=X=X=X=X=X=X*X=X=X*X=X$X#X'.D.G.^.G.G.G.G.G.G.G.G.G.G.G.K.L. .$.$.X.X.X.......O.............O.O.O.......O.....O.O.O.O.O.......O.........O...........X.$.$.Y.K.K.K.G.G.G.G.G.G.G.G.G.G.F.F.H.H.Z.Z.3.3.1.1.3                                               . .   .   . . q q % 5 5 5 q q q 5 5 % . . . . . .           X X X X X + X X X X X X X X X X X X X X X           X       . # [ @.+.O.O...........................................................O.O.....................................O...........................................................",
"o o o o o o X o o o o o o o o o X o o o o o o o o o o o o o o X o o o o o o o o o o o X o o o o o o o o o o o o o o o o o o o o o o o o o o o o o o o o o o o o o o o o o o o o o o o o o o o o o o X X X X X X X o X X X X X o X X X X X X X X X o o X o o X X X X X X X o X o X X X X X X X X X X X X X X X X X X X X X X X X X o . @ , v B N C C Z C C N C Z N m m m N N N N m m m n n n c v v b b 2 , , @ @ . . . . X X X X X X X X X X X o X X X X X X X X X X X X X X X X X X . , b B N Z N C C N m m m Z A A Z C Z N m C m m C C N m m Z Z N N m N m N N N m m m m m N M M M n v v b b 4 , , # @ @ . . . o X X X X X X X X X X X o o X X X X X X X o o o o X X X X X X X X X X                 X O O O O O O O O & : : = & O O O = O o O O O O O O O O O o O O O O O O & O O O = & & & O O O O O O O & O & O O O O O O = O O O O O & O & O O O & O O = = : ~.&X#X&X&X=X&X#X&X#X$X$X$X&X&X&X#X#X$X&X&X&X&X&X&X&X$X#X#X#X$X$X#X&X&X&X&X&X&X&X$X&X&X&X#X&X&X&X*X*X&X#X$X&X&X*X*X&X#X{.~.N.D.Q.Q.G.Q.Q.G.G.Q.G.Q.Q.G.A.G.G.G.Q.!.Q.Q.G.Q.Q.G.Q.Q.Q.Q.Q.G.Q.F.Q.Q.Q.Q.G.G.Q.Q.Q.Q.Q.G.Q.^.Q.^.G.Q.Q.Q.Q.^.G.G.G.Q.Q.G.G.G.Q.Q.G.Q.G.G.Q.Q.Q.G.Q.G.Q.Q.Q.Q.Q.Q.Q.Q.4.4.e - & O = O & O : & = : = & O O O & : : : : : O O O : = O O O & = O O O O = = & & = & & & O : & & & & & & : : = : = = & : = & : = O = : : : > = : : : > : a oX*X*X=X=X=X=X=X=X=X=X=X=X*X&X&X$X$X$X=X*X*X*X&X*X=X*X*X*X*X*X=X=X=X=X=X=X=X=X=X=X=X=X=X*X*X=X=X=X=X=X=X=X=X*X*X=X=X*X#X'.D.G./.^.Q.Q.G.G.G.H.H.H.H.H.H. .$.$.X.X...X.X.....O.O...........O.....O...............O.O.+.O.O...O.......O.+.O.O.........X.o.$.L.K.K.G.G.G.G.G.G.G.G.G.G.F.H.Z.F.F.F.3.3.3.,.1                                                         . . . . . . . . . . . . # % . . .     X X X X     X X X + + X X X X X X X   X X X     X   X                 . . 5  .o.X.O...O.O...........................................O.......O...O.O.....................................O.............................................O.O...........",
"o o o o o X X o o o o o o o o o o o o o o o X o o o o o o o o o o o o o o o o o o o o o o o o o o o o o o o o o o o o o X o o o o o o o o o o o o o o o o o o X o o o o o o o o o o o o X X o o X X o X X X o X X o X X X X o o o o o o o X X X o o o X X X X o X X o X X o o X X X X X X X X X X X X X X X X X X X X X X X X X X o . @ 2 M N N C m m N Z C N C N m m m N N Z N m N N m m m n n n n M v v b 4 < , @ @ @ @ @ . . . X X X X X X X X X X X X X X X X o X X X X X X X . @ < M N m N m N N N N m C C A A Z Z m C C N m C m A Z Z Z m N C m m m m N m N m N m m m m m m m m m m M n v b b 4 2 , # @ @ . . . . X X X X X X o X o o o X X X X X X X o X X X X X X X X X X X X                 X = = O O O = = O O O O O O O O O o o O o O O O O O O O O o o O O O O O O = O O O = O o O O o O o O & : O O & O & O O O O O : O O O O O & O O & = : O & O = V.#X#X&X&X&X&X&X#X#X&X&X$X&X#X#X#X#X#X&X$X&X&X&X#X#X#X#X#X#X$X$X&X&X&X&X&X&X&X&X$X&X&X&X&X&X&X&X&X*X*X&X&X&X&X*X*X&X$X{.~.N.S.Q.G.Q.G.G.G.F.F.F.G.F.G.F.G.F.A.F.G.Q.!.G.G.Q.Q.Q.Q.Q.Q.G.Q.G.F.F.Q.G.Q.A.S.G.G.Q.G.^.^.G.G.G.Q.Q.Q.Q.Q.Q.Q.Q.Q.G.Q.^.Q.Q.G.Q.Q.Q.G.G.G.F.G.Q.Q.Q.Q.G.Q.Q.!.G.G.Q.Q.Z.S.e - : = O & O O : & O = : : : = O O O O & : = & O O O O O O O O & & & & O = = O O & & O & = = & : : = = & : : = : : : : : = : : : & O : : : & = = : = : = g $X*X&X=X*X*X*X=X=X*X=X=X*X*X*X*X=X&X$X&X&X*X*X&X&X$X&X*X&X&X&X&X*X=X=X=X*X*X*X*X=X=X=X*X*X*X=X=X=X=X=X=X=X=X*X*X=X*X$X#X~.D.S.Q.Q.Q.^.G.G.G.G.H.H.H.H. . .$.X.X.....O.O.........................O.+.................O.O.O...O.O.........O.O...........o.*.$.L.L.K.G.G.K.G.F.F.H.F.G.F.F.H.F.F.Z.Z.Z.Z.,.1 .                                                                   .   . . . . + O     X     X X X X X X X X X X X X X X X X X X X X o X         X                 . . q #.X.X.......O.........................................O.....................................................O.O.........................................................",
"X o o o o o o o o o o o o o o o X o o o o o o o o o o o o o o o o o o o o o o o o o o o o o o X X o o o o o o X o o o o o o o o X o o o X o o X o o X o o o o X X o o o o o o o o o o o o X o X X X o X X o o X X o o o X o o o o o o o X o X X o o o X X X X X X o X X X X o X X X X X X X X X X X X X X X X X X X X X X X X X X . . @ b B N m m m m m C Z N m N m m m m m N m m m m m m m N m m m m M M M M v b b 2 < , @ @ @ . . . X o X X X X X X X X X X X X o X X X X X X . . @ l M N N N m m N N C C C C C Z Z C C N C N C A C m Z C m N C N N N N m N m C m m C m m N m m m m m N N m M n n c b b b 2 1 , @ @ . . . . X X o o X X o X o o o X X X o o X X X X X X X X X X X X                 X O O O O O = & = = = O O O O O O O O o o o o O O o O O O O o o o o o O O O & O O O O O o o O O O O O : : = & O O & O O O & & & O = O & = & & : = & & = = = V.oX.X#X&X$X&X&X$X#X&X$X&X$X#X#X#X#X#X#X&X#X#X#X&X&X#X$X&X#X$X&X&X&X&X&X#X&X&X&X*X&X&X#X#X&X&X&X&X&X&X*X*X&X&X&X*X&X$X{.~.D.S.G.G.G.G.G.G.G.A.F.G.G.F.G.G.Q.!.G.F.F.G.G.F.G.Q.Q.Q.Q.G.S.G.Q.Q.F.S.G.G.F.S.F.F.G.G.G.G.Q.G.G.G.Q.Q.G.G.Q.^.Q.G.G.Q.G.Q.Q.Q.G.Q.Q.G.G.G.G.G.G.G.G.Q.G.Q.Q.G.Q.Q.Q.Q.S.W.r - : : = = & O & O O O = & & : : : O O O O & : : & O O O O O O O O O & & & : = O & & & : & & : = & & = = & = & : & : : : : : : : = : & O O : & = = = : = g $X*X*X=X*X=X*X&X*X=X*X*X=X=X=X=X=X=X*X&X&X&X*X*X*X*X&X&X&X#X#X&X&X&X*X*X&X&X*X*X*X*X=X=X*X*X=X=X=X=X=X=X=X=X=X=X*X=X$XoX~.D.S.G.!.Q.G.G.G.G.G.G.H.Z.L. .$.X.X.X.....O...O.O.O.....O.............+.+.O.+.O.............O...................X.............o. .$.L.K.G.G.G.G.G.G.G.F.F.F.F.F.A.A.A.A.Z.Z.,.- .                                                                                                   X X X X X X X X X X X X X X X X X X X X       X X               . . H $.X...O.....O...........O.............................O.O.................O...O.O.O.O.....O.O...............O.O.O.......................................O.O.....O.O.O...",
"o o o o o o o o o o o o o o o o o X o o o o o o o o o o o o o o o o o o o o o o o o o o o o o o o o o o o o X X o o o o o o o o o o o o o o o X o o o o o o o o o o o o o o o o o o o o o o o o X o o X X o o X X o o X o o o o o o o o X o o X X X X o X o o X X X X X X X X X X X X X X X X X X X X X X X X X X X X X X X X X X . @ , v B m m m N m m m m N N m m m m m m m m m m m C C Z C m m m m m m m m n M n M v v b 2 , # @ @ . . . . X X X X X X X X X X X X X X X X X . @ , v B N m m m m m m m m N m N m C C C C N N m C S Z m m m m N N N C Z C N N N m m m m m m m m m m m m m m m m m n n n v c b b 4 2 , # @ @ @ . . o o o o X o o o X X X o o o X X X X X X X X X X                   X O O O O O = O O & & O O O O O O O O O o O O & & o O O O O O o o O O O O O & O O & O O O O O & O & : & = : > : O O O O & O O O O & = : & & O O O O O = : > `.#X#X#X&X&X$X&X$X&X&X&X&X$X$X$X$X$X$X$X&X&X#X#X#X&X$X$X&X$X&X&X&X&X*X=X*X&X&X$X$X&X&X&X&X#X&X&X&X&X&X*X*X&X&X&X$X&X$X{.~.D.Q.G.G.G.G.G.G.F.G.F.G.Q.Q.G.F.F.G.G.G.G.G.Q.Q.G.Q.Q.^.G.G.G.F.G.Q.Q.^.G.G.Q.Q.F.G.F.G.Q.G.G.G.G.G.G.F.G.Q.G.Q.Q.Q.Q.Q.Q.Q.Q.Q.Q.Q.Q.Q.Q.F.Q.G.G.G.F.F.G.Q.Q.G.G.G.Q.G.D.S.3 = = : = O & = = & O = O O & O O & : & O O O O & O O = O O & O O O & & O & : = & O O & O & & = & = & & = & = & : : = = : = & = = = : & & = : : = = = : = g $X=X=X=X=X*X=X&X$X*X*X*X*X*X*X=X=X=X=X&X$X&X=X=X=X=X=X=X*X$X#X&X&X&X&X&X=X$X&X&X&X&X$X$X*X*X$X$X$X*X*X=X=X=X=X=X=X=X$X#X~.D.G.G.G.G.G.G.G.G.G.G.H.L. .$.X.X.X.X.X.....O.O.O.O.....O.............+.O...+.O...............O.......O.....O.X.+.O.............*. .L.L.K.G.K.G.G.G.G.G.H.F.F.F.F.A.A.F.Z.Z.,.- .                                                                                                 X X X X X X o o X X X X o X X X X X X X X X     X                 . @ Y $.X.....O...................................................O.......................O.................................................................O.....O.O...O.O.O.",
"o o X o o o o o o o o o o o o o o o o o o o o o o o o o o o o o o o o o o o o o o o o o o o o o X o o o o X X o o o o o o o o o o o o o o o o o o o o o o o o o o o o o o o o o X o o o X X o o X X o o o o X X o X X X o o o o X X X o o X X X X X X X o o X o o X X X X X X X X X X o X X X o X X X o X X X X X X X X X X X X X . @ < B N N m N Z C m N N N m m m m m m N m m m N N m C C N N N m m N m m N m m n n n M M v b b 2 2 # @ @ . . . . o X X X X X X X X X X X X X . @ 2 M N N m m N Z m m m m m m N C m m N N N Z C m C Z C m C m m N m m Z C Z N N N m N m m m m m m m m m m m m m m m m m N N n k c v b b 2 2 , @ @ @ . . . X X o X X o X X X X X X X X X X X X X X X                 O O O O O & O O O O O O O O O o o o o O o O O & O o o O & & O O O O O O O O O O O O & O O O O O & O = : O O & : & O O O O O & O O O O & & & = O O O O = : 3 '.#X#X#X&X&X&X&X*X$X$X#X&X$X&X&X&X&X*X&X$X&X#X&X&X#X&X$X#X&X$X&X&X&X*X=X=X&X&X$X$X$X&X&X&X&X&X*X*X&X&X&X*X&X*X*X*X&X#X{.~.D.Q.G.G.Q.Q.Q.G.Q.G.G.G.F.Q.Q.G.Q.Q.!.G.A.F.Q.Q.G.Q.G.Q.^.Q.G.Q.G.Q.Q.^.^.^.Q.Q.G.Q.G.S.G.Q.G.G.G.F.G.S.S.Q.Q.G.Q.Q.G.G.F.G.Q.S.Q.Q.Q.Q.!.Q.G.G.Q.G.F.G.G.G.Q.Q.!.G.G.Q.Z.S.r - : : & = : : : : : = & O O o O O & O O O o O o O O : & & O O O O = : & & = : = & O O O & = O = & : : & & & & O & & : : : & : : : : : & : : : = : : : = g #X$X&X=X&X&X*X*X&X#X$X&X&X&X*X*X=X=X=X=X*X=X=X*X*X=X=X=X*X*X*X$X&X&X&X&X*X=X*X*X&X$X$X$X&X*X*X*X*X*X$X=X=X=X=X=X=X=X$XoX~.D.^.G.F.G.H.G.G.F.F.H.Z. . .$.X.O...X.+.....O...........O.........O...+.+...+.+...+.O...O.....O.............O.X.X.....O.X.X.....o.*.$.L.K.G.G.G.G.G.G.G.H.G.F.F.A.A.A.Z.A.S.,.# . .                                                                               X X X X   X X   X X   + X X X X X X X X X X X X X X   X X X X X                   . @ [ $.X.O...............O...............O.O.............O.O...............................O.................................O...............O...............................",
"o o X o o o o o o o o o o o o o o o o o o o o X X X o X X X o o o o o o o o o o o o o o o o o o X o o o o X X o o o o o o o o o o o o o o o o o o o X o o o o o o o o o o o o X X o o o X X o o o X X X o o X X o X X X X X o o o o X X X X X X X X X o X X X X X X X X X X o X X X X X X X X X X X X o X X X X X X X     X X X X . @ l B m C m N C C m m N N m m m N N m N N m m m N m N Z N N N C C N m m m m N m m N m n n n n v b b 4 2 , # @ @ . . . . X X X X X X X X X . @ , v N N N N m m C N m m m m m N m N N m m N C C C m m N m m m C m N C A C Z N m Z m N m m m m m N m m m m N m N m m m C C Z N N m M n c v v b b 2 , , @ @ . . . . X X X X X X X X X X X X X                         O & O O O O & O o O & & O O O O O O o o O O O O O O O = O O O O = O O o O O O O O O O & O & & & O O O O O O & O O & O o O o O O O O = : : : : = O O O O = r '.#X#X$X&X&X&X&X$X&X*X&X&X&X$X$X&X&X$X#X&X&X&X&X&X&X#X$X&X#X&X&X&X$X&X&X&X&X&X&X$X*X&X&X*X&X&X&X&X*X*X&X*X&X&X&X*X&X#X{.J.N.^.Q.Q.^.Q.Q.Q.Q.G.F.G.G.G.Q.Q.Q.Q.G.Q.Q.A.F.Q.S.S.G.G.Q.Q.Q.F.G.F.G.G.G.Q.Q.^.Q.Q.Q.Q.Q.G.Q.G.Q.Q.Q.Q.G.F.Q.Q.F.G.G.A.S.F.G.Q.Q.G.Q.A.F.Q.G.Q.G.Q.G.F.Q.G.Q.G.!.^.Q.G.Z.,.1 - : : : = & O O O & O : = O : : O & O o O O X O & O : = & O & & & : = O O O & O & & : & & : & O : : : : > : = & : & O & : & O O = : = : : > : : : : : = f $X#X&X&X&X*X*X=X=X*X*X*X=X&X&X&X&X&X=X=X=X=X=X*X*X=X=X=X=X*X*X*X*X*X&X&X*X=X=X=X=X=X=X&X*X*X*X=X=X=X=X=X=X=X=X=X=X*X$XoXJ.D.^.G.F.Q.G.G.H.H.Z.Z.L. .$.$.X.O.O...O...O.X.O...................O.O.+.+.....+.O.+.O.....O.............................X.X.X.....o.o. .L.H.G.G.G.G.G.G.G.H.G.F.H.Z.Z.F.A.S.,.# . .                                                                           X X   X X X X X o X   X   + X X X X X X X X X X X X o X X X X X X X X             .   . %  .X.X.................O.O.O.O.......O.O...........O.....O.O.O...............................................O.............................................................",
"o o o o o X X o o X o o o o o o o o o o o X o X X o X X X X X X o o o o o o o o o o o o o o o o o o o o o o X X o o o o o o o o o o o o X o o o o o o o o o o o o o o o o X X X X X o X X o o X o o o o X X X X o o X o X X o o X X X X X X X X X X X X X X X X X X X X X X X X X X X X X o X X X X X X X X X X X X X X X X X X X . , b M N m m m C C N N m m m m m m N Z Z N m m m N C m C m N N m m N m C Z C m m N N C m m m n n M c c v b 4 2 , # @ @ . . . X X X X X X X . @ , L S A Z m Z S C C m m N N N m m m N m m m C N m N m m C N m N m N Z m m m m N m m m C m m C m m m m m m N m m m m N C N m m N m N N m n n n c v b b 2 < , @ @ @ . . . X X X X X X X X X X X X                       o O o o o o O o O O O O O O O O = & o : & O O O o O : & O O O O O & O o o o O O O o O O & O : o o o o O O o O O O O O O O o O O O O O O & O O O O O = = a ].#X#X$X&X&X&X&X$X$X&X&X$X$X$X$X#X#X#X#X#X&X&X&X&X&X&X&X&X&X&X$X$X&X&X&X&X&X&X&X&X#X&X&X&X&X&X&X&X&X*X=X*X&X&X&X&X&X#X].J.N.^.G.G.G.Q.Q.Q.Q.Q.F.F.F.Q.G.F.Q.Q.G.G.G.G.Q.G.G.G.G.G.Q.G.F.G.Q.G.Q.Q.F.G.Q.G.Q.G.Q.^.Q.Q.G.G.G.Q.S.!.G.F.F.Q.Q.G.Q.Q.G.S.F.A.G.F.G.Q.F.A.F.F.A.A.F.F.A.A.S.G.Q.G.F.Q.G.,.- = : = O O O O O O O : : : : : = O O O & O O O : : : & o O o O & & & & & O O O o o O : & & & : = = & O & & : : = = : = O & & & O O & & : : : : : : > > = s oX#X&X&X&X*X*X*X=X*X=X=X*X=X&X&X*X&X&X*X&X&X*X*X=X=X*X=X=X*X*X*X*X*X&X*X*X=X=X=X=X=X=X=X*X$X*X*X=X=X=X=X=X=X=X=X=X=X$XoXJ.D././.!.G.F.H.H.H.3.2.!  .$.X.X.+.X.X.O.O.O.........................O.........+...O.+.+.........O.......O.............O.O...........o.$.L.K.H.G.G.G.G.G.G.G.G.G.H.H.H.A.A.S.E @ .                                                                                 X     X X X X X X     X o o o o X + X X X X X X X X o X X X X   X               . . 5 #.X.X.................O.O.O.....O...........O.........O...O.O.O.O.........................................O.......O.O...........................................O.....O.O.",
"X X X X X X o o o X o o o o o o o o X o o X o o o o o o o X o o o o o o o o o o o o o o o o o X o o o o o o X X o o o o o o o o o o o o X o o o o o o o o o o o o o o o o o X X X X X o o o o X o o o o o o X o o o o X o o X X X X X X X o X X X X X X o o X o X X X X X X X X X X X X X X X X X X o X X X X X X X X X X X X X X @ < M B N m N m m C A Z N m m m m m m m m C m m m C C m C m m m m m m N Z Z m N N N m m m m m m m m m n z c c v b b 4 2 , @ @ @ . . . . X . . @ 2 B S S S S Z Z C N m N m N N N m m N N m N Z Z N m m m m N N m m Z Z N m m Z N m C C m Z Z m C N m m m N Z Z C C C m C C C N m Z m N Z m m N m n n v c b b 4 2 , # @ @ . . . . . X X X X X X X X                   o O & O O O O o o = O O O o O o o O & O o O O & & O O & & = O o o O O : O o o o O O O o O O : : O o o o o o O O O : O : O O o o O O O O O O = & = = = = O g #X#X$X&X&X&X&X&X$X&X&X&X&X&X&X&X&X#X#X#X#X&X&X&X#X#X#X$X#X#X#X#X#X#X&X&X&X&X*X*X*X#X#X#X&X&X&X&X*X#X#X&X&X&X*X&X$X#X#X'.J.N.^.Q.^.G.G.G.Q.Q.G.Q.S.G.F.G.G.G.G.G.G.G.F.Q.Q.F.G.S.G.Q.G.G.F.F.G.G.F.Q.G.G.G.G.Q.G.Q.Q.Q.Q.^.G.G.Q.F.G.G.G.G.G.G.G.Q.Q.Q.G.Q.F.G.F.G.Q.G.G.Q.G.A.A.A.F.G.F.G.Q.G.F.A.G.,.- - : = = O O O O O O = : : = = = o O & & O O O = = & : : & & O & & O O O O O = & O o = : O O = : : : O & : & O = : : : = & & : & O = & > : : > > > : : : g #X&X=X*X=X=X=X=X=X=X=X*X*X=X=X&X=X=X=X*X*X*X&X*X*X&X&X*X=X=X&X#X&X&X&X&X&X*X=X=X=X=X=X=X*X*X&X$X*X=X=X=X=X=X=X=X=X=X$X{.J.D.^.G.F.G.F.H.H.3.1.! !  .X.X.X.........O.....................O.......O.O.O.....O...+.+.X.O.............O.O.O...O.....O...O...........$.L.L.K.H.H.F.G.G.G.G.G.H.G.F.A.Z.Z.S.T . o X                                                                               X         X X X X X X X o o o o X o o X o o X X X X X                         . . . q $.X.........O.O...................O.......................................................................O.....O.O.O.....O...............................................",
"X o X X X X X X X X o o o o o o o X o o o o o o o o o o o o o o o o o o o o o o o o o o o o o o X o o o o o X o o o o o o o o o o o o o o o o o o o o o o o o o o X o o o X o o o X X o o o X o X o o X o o X o o o X o o o X X X X X X X X X X X X o o o o o X X X X X o X X X X X X X X X X X X X X X X X X X X X X X X X X X . @ l B N N m m N Z Z C m N m m m m m m m m m m m N m m m m m N m N m m C C N N Z m m m N N m N N m m m m m N M n c c v v b b 4 2 , @ @ @ . @ @ , v B C Z A C C N m m N m m m m N N m m N C m N C N m m m m m N m m N C N N C N N m m m N C C C C m m m m C C Z A C C C C C m m m m N N m C C N m N m N m n c c b b b 4 < , @ @ . . . . . X X     X                 X O & & : : O & O o O O o O o O O o o o o o o O = & O O O O & = o O O O O = & O o O O & O O O & O O & O o o O O o O O O O O & & O = O O O & O O O : : : = O f $X#X$X$X&X&X#X#X&X&X&X#X#X&X&X&X&X#X#X&X&X&X&X#X#X#X&X&X&X&X&X#X#X#X&X&X&X&X&X&X*X*X&X#X#X&X&X&X&X&X#X&X&X$X$X$X&X$X#X'.J.N.^.Q.Q.Q.G.S.G.Q.G.G.Q.G.G.S.G.G.G.Q.Q.Q.G.F.G.G.G.Q.F.G.G.Q.Q.G.G.Q.G.G.S.S.G.A.A.G.Q.Q.Q.Q.G.Q.Q.Q.G.Q.Q.Q.G.F.G.F.F.G.G.G.G.Q.G.G.S.S.G.G.G.Q.G.Q.G.F.F.G.G.G.G.G.Z.S.>.- - : = : = : = : : = & & & & O O O O O O o O O O = = & : O O & : O O & O O O : : : O = : : : O : = : : = & & O O & : : : : O & = & = = = : : : : : : > = f *X#X*X&X*X*X=X=X=X=X=X=X=X=X=X=X&X*X*X*X=X*X*X*X*X*X&X&X*X=X&X$X$X$X*X*X&X*X$X*X=X=X=X*X*X&X&X&X&X*X*X=X=X=X=X*X=X=X$X{.J.D./.Q.G.G.F.A.Z.3.2.!  .$.X.X.X.O.O.O.....O...........O.O.O...O.....O.O.O.O.....+.O.O.....O.................O.........................X.$.L.K.G.F.G.F.G.G.F.F.G.H.F.F.F.Z.S.T . o X X                                                                               X X X X X X X X o o o X o X X X X X X X o X X X X X X             X           . @ G $.X.O.O...........................O.......................................O...............................................................................................",
"o X X X o o X X X o o o o o o o o o o o o o o o o o o X X o o o o o o o o o o o o o o o o o o o X o o o o o o X o o o o o o o o o o o o o o o o o o o o o o o o o o X o o o o o X X X X o o X o X o X X o X X o o o X X X X X X X X X X X X X X X X o o o X X X X X X o o X X X X X X X X X o X X X X X X X X X X X X X X X X . . , v m m N m m m m N N m m m m m N N m m m m m m m m N m m m N N m m m N N C m C N m m m N N N A N m N m m m m N N m n n M M v v b b 4 , , # @ < M N C C C C C N N N N m m m m N N C m m S Z m C N Z m N m m m N C m C C C C m N N m m m m C C Z Z C C m Z C m N Z m m C C N m C C C N m C C m m m m N m m m n n c c v v b 4 2 , # @ @ . . . . o o o o . X X . X   o O = & & O O O O O O o O O & O O o o o o o O o o O & O O O O O O O O & & O & O o O & O O O & O & O O = O o O O O O O O O O & & O = : & O = O O & : : O = o f #X].#X$X&X&X&X&X&X&X&X&X#X&X&X&X#X#X&X#X#X#X&X&X&X#X#X#X#X&X&X&X&X&X&X&X&X&X#X#X&X&X&X&X#X&X&X&X&X*X*X&X&X*X$X&X$X#X#X'.J.D.^.G.G.Q.Q.Q.G.G.Q.G.Q.Q.Q.Q.A.G.F.S.Q.Q.G.G.G.G.F.G.G.G.G.G.Q.Q.Q.Q.Q.Q.G.A.G.Q.S.Z.A.G.Q.G.G.G.G.Q.Q.G.Q.Q.Q.Q.F.F.A.G.G.F.F.F.Q.^.Q.Q.Q.G.Q.G.G.A.Q.Q.F.F.F.F.G.G.G.S.E - = = O O = = : : : : = & & : O O O O O O & O O O O & O O O : O O O O & = & O O O O O = = = : = O O & = = = : : O : : : & & O O : : : : : : : : : : : : : n.*X#X&X#X#X&X*X*X*X=X=X=X=X=X=X*X&X*X*X&X&X&X&X*X=X=X&X$X&X*X=X=X*X*X=X=X*X*X*X*X*X*X*X&X*X*X*X=X=X=X*X*X*X*X*X*X&X&X#X{.D.D.^.G.G.F.H.H.H.1.2.Q  .$.X.X.X...O.O.................O...O.O...O...........O.......O...O.O.O.........................................X.$.L.K.K.G.G.G.G.G.G.G.G.G.G.Z.F.A.S.s . O X X     X                                                 X                       X X X X X X X X o o o o o X X X X X X X o X X X X X X                         . # | %.X.O.O...........................O.O.....................................................................................................................................",
"X X X X X o o o o o o o o o o o o o o o o o o o o o o o o o o o o o o o o o o o o o o o o o o o o o o o o o X X o o o o o o X X o o o o X o o o o o o o o o o o o o X X o o X o X X X X X X o o o o o o o o X X o o o X o X X X X X X X X X X X X X X o o o X X X o X . . . . . o X o o X X X X X X X X X X X X X X X X X X X . @ , M m m N N m m m m m m m m m N Z A Z C N m m m m C N C m m m m m C m m m m m m m m m N m m C C N m m N N N C m N m m m N N M M M M M v b b 2 v B N C C C C m C C N N N m m m m C N C m C Z N m N N N N Z C m m m m N C C N m m m m m m m m Z C C C N N m C C C Z C m m C C Z S S Z m C N m N N N N N Z N m m m n n n n M v v b b 4 2 , # @ @ @ @ . . . . . . . . O = = & O O O O O O O O O O O O O o o O o o O O O o O O O & O o o O O O O O O & O O O O O O & O O & O O O o o O O O O O & O O O O O O & O & O O & : O O = O f $XoX#X#X&X&X&X&X=X&X*X&X&X&X&X&X&X&X#X#X#X#X#X&X&X&X#X#X#X#X#X#X#X#X#X&X&X=X*X&X&X*X&X*X&X&X&X&X&X&X&X&X&X&X*X&X$X#XoX'.J.D.^.G.G.G.Q.Q.G.Q.Q.Q.G.G.Q.^.S.G.Q.Q.S.F.G.Q.Q.Q.G.G.Q.Q.F.G.G.Q.Q.Q.Q.^.^.G.G.G.^.Q.S.F.F.G.G.F.G.G.Q.Q.G.G.Q.Q.G.G.G.Q.Q.G.G.G.G.Q.Q.Q.Q.Q.G.Q.G.S.A.S.Q.Q.G.G.F.F.G.D.T - - & & = & O O O O & O O O O O & o o O O : : & O O O & O : & O & & : : O O O O O O & O = = : & & & & : : : > > : O : : O & & : & = : : : : : = : > > > : V.*X&X&X&X*X&X&X&X&X*X=X*X&X&X*X=X&X*X=X=X=X=X*X*X*X*X*X$X&X$X*X=X*X=X=X=X=X*X=X=X=X*X*X*X*X*X&X&X*X*X*X*X*X=X=X*X&X#X#X'.D.D.G.G.G.Z.Z.Z.Z.1.! Q  .X.X.+.O.O.O.O...O.O.....O.O.............O.....O.....O.O.O.O...............O.......O.......O...O...............X.$.#.L.H.G.K.K.^.^./.^.^.G.G.Q.G.A.S.e . o X X X X   X                                               X           X X X X X X X X X X X X X + o X X o X o o o X X X X X X X X X X X X X                   . . 5 #.X.........................................................................................................................................................................",
"X o o X X o o o o o X o o o o o o o o o o o X o o o o o o o o o o o o o o o o o o o o o o o o o o o o o o o X X o o X o o o o o o o o o o o o o o o o o o o X X X o o X o o X o o o o X X X o o o o o o o o o o X o o X o X o o o X X X o X X X X X X X o o X X X . # , # # @ @ @ . . o X X X X X X X X o X X X X X X     X   . @ 4 M m m m m m m m m m m m m m N N N N N Z C m Z m m m m N C N N m m C N m Z A Z N m m m m m N m N N m m m m N N m m N m m m m N m m m M M M B B N C Z m m C Z N C C m m m N N N N m C m m C m m N N N C C C m m N C C C C C C C N m m m m m m C C m m m m C C C A Z Z m C C Z S Z Z Z m C N C Z A A Z N Z m m N N N m m m m n M n M v v b 4 K W W R T I e e 3 1 - # = = O O O O o O o O & & O X o o o O o o o o o O = O o o o O O O & O O O O & = & O o o O & O O O O O O O o o O O O O O : : : O O O O O & & O O O O O = = o f $X#X#X$X&X&X&X&X&X&X&X&X&X&X&X&X&X&X&X&X#X#X#X#X&X&X&X&X&X&X&X*X&X&X#X#X#X&X*X=X#X&X&X&X*X=X&X&X&X&X&X&X&X&X&X&X&X#XoX'.D.D.Q.Q.G.F.G.Q.G.G.G.G.G.Q.G.G.G.G.G.G.Q.Q.Q.G.Q.Q.Q.G.Q.Q.Q.G.S.G.Q.Q.G.Q.Q.Q.G.G.G.Q.Q.G.G.Q.G.F.S.G.G.G.G.G.F.G.Q.Q.Q.Q.G.Q.G.G.F.Q.F.Q.G.G.Q.Q.Q.Q.Q.A.Q.G.G.Q.Q.Q.Q./.T - - O O O O O O O o o o & & O o O O o O o o O O O O O & : : O O O : : & & O & & O O O O = & : : : = & & = : : : : : : = & O & : : = = : : & : : : = > : : V.&X&X*X&X*X*X&X&X&X*X&X&X&X&X&X&X*X*X*X*X=X=X=X=X=X=X=X=X*X&X$X&X&X&X&X&X*X*X*X=X=X=X=X=X*X*X*X&X&X$X*X$X*X=X*X=X=X=X#X'.D.S.G.F.F.A.Z.4.Z.2.!  .$.X.+.O.O.O...O...O.......O.....O...........................................O...............O.....................X.$.L.K.G.G.G.G.G.G.G.G.G.G.G.G.A.S.e . o X X X X X X   X                                         X       X X     X X X X X X X X X X X X X o o X o X o o X X X X X X X X X X X X X X                   . . q $.X.................................O...........................................................................O.......................O...................................",
"o X o o o o o o o o o o o o o o o o o X X o o o o o o o o o o o o o o o o o X X o o o o o o o o o X o o o o X X o X o o o o X o o o o o o o o o o o o o o X X X X o o o o X X X o o X X o o o o o o o o o o o o o X X o X X o X o o X o o X X X X X X X X X X X o @ 1 K I K 4 2 , # @ @ . . . o X X X X X X X X X X X X   X . @ , b B N m m m m m N C Z m N m m m m m m N N C Z m m m m N m N N m m m m N C Z C Z C m m m m m m N N m N m m m m m Z Z C Z N m m m m m N N m m m m N C C C C m N m m N C Z N N C C N C m m C C m m m m m Z C m m m N N C Z Z C C C C C C N N N m m C N N C C C Z Z Z C Z C C Z C C Z Z Z C N C N N N N Z C C m m m m N N N N m N m N m n N M M v U ! ! 5.5.1.2.,.W R r - = O O o o O o O O O O O o o o o X X X o o o O O O O O O O O O O O O & O O O O O = O O & O O & O O O o o O O & & O o O = : & O O o O & & O & : : : : = O n.$X#X#X$X&X&X&X&X&X#X&X&X#X&X&X&X&X&X&X&X*X&X&X*X&X&X&X#X&X&X#X&X&X#X#X#X#X#X&X&X#X#X&X&X&X&X&X&X&X*X&X&X*X*X&X*X$X$XoX'.J.D.G.F.G.F.G.G.G.F.S.S.F.G.G.G.S.Q.G.G.S.Q.Q.Q.Q.Q.^.Q.Q.Q.Q.Q.G.G.G.G.G.Q.Q.G.Q.Q.G.Q.G.G.F.F.F.F.S.A.F.Q.G.G.A.F.G.G.G.Q.G.G.F.G.G.G.Q.G.Q.G.G.G.Q.Q.Q.Q.F.Q.G.G.Q.^.^.(.E - : O O O O O O O O o O O O O O O O O O O o o o O O O O : : O O O O O O O O O & O o O & & O O & = & O O O O O = : : & : : = & & & : : = & : : : : : : : : V.&X#X*X&X*X*X&X*X*X=X=X=X=X*X*X&X&X&X&X=X=X=X=X=X=X=X*X*X=X&X*X&X$X&X$X$X$X*X=X*X*X*X*X=X*X*X*X*X*X*X*X*X*X=X=X$X$X$XoX'.D.S.G.H.Z.Z.Z.3.2.2.!  .%.X.X...O.O.O.O...O...O.O.................................................................O...O...O...O.........X.X.$.L.K.G.G.G.G.G.G.G.G.G.G.G.G.G.S.r . . X X           X                                 X           X   X X X X X X X X X X X X X X X X o o o X X X X X X X X X X X X X X X X X X X                   . . 0 $.X.....................................................................................................................O...................................................",
"o o o o o o o o o o o o o o o o o o X X o o o o o o o o o o o o o o o o o X o o o o o o o o o o o o o o X X o X X o o o o o o o o o o o o o o o o o o o o X X X X X X o o o o X X o X X o o o o X o o o X X X X X X o X X X X X o o X X X X X X o o X X X X X o . @ 4 v M M M v v b 4 1 , @ @ @ . . . X X X X X X X X X X   . @ < v N N m m m m m m N N N N m m m m m m N N Z m m m m m m m m m C m m N m N C m N S A N m m N N m N N m m m m m C m C C m C m N m m m m Z N Z Z N N m N N m C A Z m m N N N C m m m C Z A C C C m m N m m m m m m N N m m C N C C C m m C C N m N N m N m C m C Z C N N Z Z Z C C m Z A C N C m m m m C C Z S Z C N m m N Z C N C C C m N m m n z n n L U ! ! 2.2.R 4 # - # O = O o O O o O O O O O o o X o o o o O O o o O O O O & O o O O O & O O O O O = & O O O & O O O o o O O O O & & O O O O O o o o O & O O = & = : = O n.oXoX#X#X#X#X#X#X#X#X#X#X&X#X#X&X&X&X&X&X*X&X&X*X&X&X&X&X#X#X#X#X&X&X&X&X&X#X&X&X&X&X#X&X&X&X&X&X#X*X*X&X&X&X*X*X&X$XoX'.D.D.Q.G.G.G.G.G.S.S.G.G.G.G.G.G.G.F.Q.G.G.G.G.G.G.G.Q.G.G.Q.G.Q.Q.F.G.G.G.G.Q.G.G.Q.Q.G.G.F.A.A.F.F.G.F.F.F.Q.G.F.F.F.G.G.G.G.G.G.F.G.G.G.Q.G.!.G.F.G.G.F.^.Q.G.Q.G.Q.Q.G.^.s - : = O O O = & O O O O O O O & & & & O O O o O O O & & : = = = & O O O O O O O O O O = & O O O O & O O O O & = O O = & = = & O O & : : : : : : : > : : > V.$X#X*X=X&X*X=X=X=X=X=X=X=X&X&X*X*X*X*X*X*X=X*X*X=X*X*X*X*X=X*X*X*X*X*X*X&X$X*X*X*X*X&X*X=X=X=X*X*X*X*X*X*X*X*X$X$X$XoX'.N.S.F.H.Z.3.Z.3.2.W Q  .%.+.+.......O.............................................O.............................O.....O.........O.........X.$.L.K.K.G.G.G.G.G.G.G.F.F.G.A.A.D.1 . . X X X X X   X X                                 X X           X X X X X X X X X X X X   X X X X o o o X X o o o X X X X X X + o o X X X o X                   . @ G $...........................................................................................................................................................................",
"o o o o o X o o o o o o o o o X o o o o o o o o o o o o o o o o o o o o o X o o o o X o o o o o o o o o o o o o o o o o o o o o o o o o o o o o o o o o o o X X o X X X X o o X X o o o o o o o X o o o o o o X X X X X X o o X X o X X X X X X X X X X X o X . @ , v B m m m M M v v v b 4 2 , # @ @ . . . . . X X X   X   . @ 2 B N N m m m m m m m C N N m m m m m m N C A m m m m m m N N m m m m N N m m N m N Z N Z N N Z N Z N m Z m m m N m N N N N N N m m m N C C C C Z N Z N N C Z Z Z S Z m C N m m m m N N A A Z C C m m m m N m m m m m m m m m C Z C C C N m N N N N m m m C C A C N C N C A A Z N C Z C C N m N N m N m m Z Z A C C C C Z N N Z Z N Z Z m C Z Z C m m m n M B L L U b , , # - # # O O o o O O O O O o O o O o o o O O O o O O & O O & O : : & O O O O o O O = O O O O O O o o o o o O o o O O O O O O O O o o O O O O O O O : = n.#X].#X#X#X#X#X#X#X#X#X#X#X#X#X#X#X#X#X&X&X&X&X&X&X&X&X#X#X#X&X*X&X&X&X&X&X&X&X&X#X&X&X&X&X&X&X&X&X&X&X&X&X&X&X&X&X$X{.'.N.S.Q.Q.G.G.G.G.S.G.G.G.G.G.G.F.Q.G.G.Q.Q.Q.G.G.G.G.G.G.G.G.G.A.G.F.G.G.S.G.G.F.G.G.G.G.G.Q.^.Q.Q.Q.G.G.G.F.F.Q.Q.Q.G.G.G.Q.!.Q.Q.F.S.G.G.Q.G.G.Q.G.F.G.F.G.Q.G.G.Q.G.Q.^.^.s # : = = : & : : O = & O & & & & = O & = & O & O O & = : : & = : & : & O & : & O O & & = : : O O O & & & & & & & O O O O & O O O O O & & & & & = & = : : > J.#X#X&X*X&X*X=X=X*X=X=X&X=X=X$X*X=X*X&X*X=X*X*X=X=X=X=X=X=X*X*X*X*X&X*X=X*X*X*X=X=X*X&X&X&X*X*X*X*X*X$X&X*X*X$X$X$X$X{.~.N.S.Z.Z.Z.Z.1.1.2.W Q  .%.+.+.O...O.O...........O.O.O.O.....................................................O.O...O.....O...O.....X.X.X...X.$. .K.K.^.G.G.G.G.G.G.G.F.F.S.S.D.1 . X X X X X X   X X X X X X                         X X             X X X X X X X X X X X X X X X X X + X X o o o o o o X X X X X X X X X o X                   . . @ [ $...........................................................................................................................................................................",
"X X X X o o o o o o o o o o o o o o o o o o o o o o o o o o o o o o o o o o o o o o o o o o o o o o o o X o o o o o o o o o o o o o o o o o o o o o o o o X X X X X X X X o o o o o o o o o o o o X X X o X o X X X X X o X X X X X X X X X X X X X X X X X . . @ < M N m Z S A N m M M n v v v b 4 2 , # @ @ @ . . . . . . @ , b B m C N m m m m m N C N m N m m m m m N N m m m m m m m m m m m m m m m N N N m m C N C N Z Z N N m m N Z m m N m N N m N N Z S C m m N N Z C C m N C C C N m m Z A C m A Z N N m N m m N C C Z Z N m N m m m m m m m m m m m Z C N N N m m m m N C C N m Z S Z m m C Z Z Z Z m N N m N N C Z A N N C C C Z Z Z Z N N A Z Z Z Z Z Z Z S A S S Z A Z N Z m m n n M M v b 2 , # # @ @ . = & O O O O o o o o o o o o O O O O O & & O & & O : & O o O & O o O O O O O O O O O o O X o O O o o o O O O O O & O & = O : : = = : : = C.#XoX#X#X#X#X#X&X$X#X#X#X#X#X&X#X#X#X#X#X#X#X&X&X&X*X&X&X&X&X*X*X&X&X&X&X&X&X&X&X&X&X&X&X#X&X&X&X&X&X&X&X&X&X&X&X$X#XoX'.N.S.G.Q.Q.Q.Q.Q.G.A.G.Q.Q.G.G.F.G.Q.Q.Q.G.G.G.G.G.G.S.A.S.G.F.F.F.G.F.G.Q.A.F.A.F.A.F.F.Q.G.Q.G.Q.Q.A.A.G.G.F.F.G.Q.Q.G.G.Q.Q.Q.Q.^.G.S.A.G.Q.G.G.Q.G.F.Q.F.F.G.G.Q.Q.Q.Q.S.r - > : = : : : & : : : : : : : : : : : : : & = O O O : : : & = : : : : : : : & O O O O O O : O O O O O O = O O = = O O O O & : O O O O & & = : = & & : = > ~.#X#X&X&X&X*X=X=X*X*X=X=X=X=X*X*X$X&X*X&X&X&X=X=X*X*X=X=X=X=X=X*X*X$X#X*X*X=X=X=X=X*X*X$X&X&X$X*X*X*X*X&X&X*X$X$X$X#X{.~.m.Z.Z.Z.3.1.2.2.W R Q  .%.+.+.+.O.O...O.........O.O.........................................................O...O.O.........O.O.......+.X.X.$.#.K.K.G.K.!.Q.G.G.G.G.G.G.F.S.D.- . X       X     X X X X X X X               X X X X X X X X X X     X X X X o o X X X X X X X X X o X X o o o o o o o o o o X X X X X X X                       . . 5  .X...........................................................................................................................................................................",
"X o o X X X o o o o o o o o o o o X o o o o o o o o o o o o o o o o o o o o o o o o o o o o o o o o o o o o o o o o o o X X o o o o o o o o o o o o o X X X X o X X X X X o o o o o o o o o o o X X X X X X X X X o o o X X X X X X X X X X X X X o X X X X . . @ 2 M N m N N N m N N m m n n n c v v b b 4 < , # @ @ . . . @ < M N m m m N N m C N N N m N m m m m m m m m N m m m m m m m m m N m m C N m N m m m C m m m m m m N N m m Z m m N Z N N m Z Z C Z Z m m m m C m m N m m m C C C C N m C m C Z Z m m m m N m m m m Z Z m N C N m N m m m m m m m m C C m m m m m m m m m m C C C C Z Z m m N m m N m N m C C m N S A m m C C C Z Z Z Z Z C Z Z Z C C Z Z Z A S Z Z C S Z A A N N m m n M M v b b 4 , , @ @ # = # o O O o O o O O O O O = O o O O O O O O o o o O O O O O o O O O & = = & O O O O O O o o X o O O O O O O O O O = : : & = = = = > V.#X#X#X#X#X#X#X#X#X#X#X&X#X&X#X&X&X&X#X#X&X&X&X#X&X&X&X&X&X&X&X#X&X&X#X#X&X&X&X&X&X&X&X&X#X#X&X&X&X&X*X=X=X=X=X&X#X#X].~.N.S.Q.Q.Q.Q.F.F.^.G.F.F.Q.G.F.A.A.G.G.Q.Q.Q.G.G.G.Q.G.S.G.G.F.G.F.G.A.G.Q.Q.F.A.G.Q.Q.Q.Q.G.Q.G.G.G.G.G.G.G.Q.G.F.F.F.F.Q.G.A.S.G.G.^.Q.F.G.G.G.Q.F.G.G.A.G.Q.Q.G.G.Q.G.G.D.r - > > : : : & O : : : : : > : : : : = = : & O O O O : : : : : : & & : O & O & & & & O O O O & & O O & O O & : O O O O O & O O & O & O O : : : : = : : = a oX#X#X#X&X&X*X=X=X*X&X*X=X=X=X=X*X&X$X&X=X=X*X*X*X&X*X&X*X*X=X=X=X=X=X&X#X&X$X=X=X=X=X=X=X*X$X$X$X*X*X=X$X$X$X$X#X#X{.'.J.,.Z.Z.3.3.1.2.2.R U Q #.%.+.+.+.O...............O.O.......O...................O.O.................O.O.......O.....O...O.............O.X.O.X.$.L.K.K.G.G.G.!.G.G.!.G.G.F.F.F.D.- . X X   X X X X X X X X   X       X X       X X X   X X X X X   X X X X X   X X X X X o X X o o o X X o X o o X X X X X X X X X X X X X X                       . . q #.X.....O.O.O...................................................................O...............................O.O...............................O.......O.O.O...............",
"X o o o o X o o o o o o o o o o X o o o o o o o o o o o o o o o o o o o o o o o o o o o o o o o o o o o o o X o o o o o o X o o o o o o o o o o o o X X X X X X X X o X X o o o o o X X o o X X X X X o X X o o X o o X X X X X o o o X X X X X X o X X X X . @ , b M N m m m N N N m m m m n m M n n n n v v b b 2 , , @ @ , b B m N m m m m m m C m N m N m m m m m m m m m m m m Z N m m m m C C m m C C m m m m m m C Z N m m N Z m m m m m m m N N m m Z C C m N N N N Z m m m m C N m m C m C m m C m N m m m m m m m m m C m C N m N N m N Z Z m m N N C N m N m m m m Z m N N N N C m m m C Z Z C C Z A Z C m m m m N m N S S C N m m S S C C C C C A Z Z S A C C C C C A Z C C C Z N Z m Z N m m n n M v v b 4 2 , # @ @ # # O O O : O O O O O O O O o O O o o o o X O & O O O = O o O O : : O o O o o O o o o O O O O O O O O O O O O : : = = = = = > `.#X$X&X*X&X&X&X#X$X$X#X#X#X#X&X&X&X#X#X&X#X&X&X&X#X#X&X#X#X&X*X&X#X#X&X*X&X*X*X&X&X&X*X&X&X#X&X&X&X*X&X*X*X&X*X*X&X#X{.~.N.S.^.G.G.Q.F.G.G.Q.F.G.F.G.Q.Q.F.S.F.F.A.Q.G.G.G.S.G.G.G.G.G.Q.Q.G.G.A.F.G.Q.Q.G.Q.Q.G.F.^.Q.Q.Q.Q.Q.G.G.G.G.Q.Q.G.G.F.A.G.Q.G.Q.G.S.^.G.S.G.Q.G.G.G.G.G.G.Q.Q.Q.Q.Q.Q.Q.D.3 - > = O & & & & & : : = = : : : > : = O & O O O O & & O O : O O O O O : = O O O O O & O & = : = = O & : O O : : : : : O O = & O : = : = & & O : : = : = > ].#X#X&X#X&X&X&X*X=X=X=X*X*X=X=X*X*X*X*X*X&X&X&X*X=X*X*X&X&X*X*X*X=X=X=X$X&X*X*X=X*X=X*X*X*X*X$X$X$X&X*X*X&X#X$X$X#XoX'.J.,.1.Z.3.1.2.2.W W R Q  .%.+.+.+.O.O...............O.O.......O.................O.O.O.....O...........O.......O.....O.................O.O...X.$.#.L.K.G.F.G.G.F.G.!.G.G.F.F.F.,.- . X X   X X     X X X X X X X   X X X       X       X X       X X X X X X X X X X o X X o o o o o X X o o X o X X X X X X X X X X X X X   X                     . . 0 $.X.O.O.O.O.O...................................................................................................................................................O.O.O.O.O.....",
"o X X o o o o o o o o o o o o o X o o X o o X o o o o o o o o o o o o o o o o o o o o X X X o o o o o o o X o o o o o o o o o o o o o o o o o o o o o o o X X X o o o X o o o o o o X o X X X X X X X o o X X o X X o X o o X X o o X X X X X X X X X X X X . @ < M B N m m N Z N m m m m m m m m m m m N n n c c v b b b 2 < v B N m m m m m m m m m m m N m m m m m m m m m N m m m Z C m m m N C C m m m N m m m m m m N m m m m N N m m m m N m m m C C Z m m N N N N N N m m N N A C m m C C m N N N N Z N m m m m m m m m m N m m N m m m N m m m N C N N N N N m m m m N N N m m N m m m m m N C Z C C Z Z Z Z m m m m m C Z Z C C m m C Z Z N N m C C m C Z S Z C Z Z C C Z C Z C C m C Z N A Z m m N m n n n M v b b 4 , , # # . . # = = = O O & O O O O o O O O O o o O O O & = O o O o O O O o o O O O o O O O O O O O & O O : = O O & = = = & : : > `.#X#X$X&X&X&X&X&X&X$X#X#X#X.X#X#X#X#X#X&X#X&X&X&X=X&X&X*X*X*X$X=X&X&X#X*X&X$X&X$X$X&X&X&X&X#X&X&X&X$X&X&X&X&X#X&X&X#X{.~.D.^.^.Q.Q.G.A.F.G.Q.Q.G.F.A.S.G.S.S.G.F.F.A.Q.A.G.G.G.G.G.G.S.G.Q.F.Q.G.F.Q.G.Q.Q.Q.G.G.Q.G.G.Q.Q.Q.G.F.S.F.F.G.G.G.Q.G.F.A.F.Q.Q.Q.G.Q.Q.G.Q.Q.Q.Q.G.G.G.F.S.G.Q.Q.Q.Q.Q.D.- # = = O O & O O & : : : O O & & : & O O O O O O O & O : O & & O : & & O : O O O O O O O O & & : & = = : : = & & : : : O O = : : & & & : : : O = : : : = g #X#X#X*X&X&X&X&X*X=X=X=X=X=X=X=X=X=X*X*X&X&X&X&X&X*X*X$X*X$X*X$X$X*X*X=X=X*X=X=X=X=X*X$X*X*X=X*X&X&X&X&X*X*X&X&X$X#X#X'.J.,.Z.1.1.2.2.2.W R U Q  .%.%.+.+...O.O.............O.O.O.........O.O.............O.O.....O.O.O.....O.O.....O...O.O.O.O.......O.........O.O.X.$.#.L.K.G.G.K.F.G.F.G.G.F.F.H.S.,.# . X               X X X X X X X X X X       X X   X X X X X   X X X X X X X X X X X X X o o X X X X o o X X o o o X X X X X X X X X X X X   X                   . . G $.X...O.................................................................................................................................o.........................O.O.O.O.O.O.",
"o X X o o o o o o X o o o o o o o o o o o o o o o o o o o o o o o o o o o o o o o o o o o o o X o o o X X X o o o X X o o o o X o o X o o o o o o X o o X o o o o o X X o o o o o X X o X X X X X X o o o X X X X X o X X o X X o o X X X X X X X X X X X o @ @ 4 B N N N m m m m m m m m N N N m m m m m N N m m n n c c M M M m N N N N m m Z Z m m C N m m m m m m m m m N m m C Z m Z m N m m C m m m m m m m m m m m m m m m m N C C N m m m m m m C m m m N m m m m m m m m N N N C Z C m C m m N m m N N m m m m m m m N m m m m m m m m m m m m N N m C m m m m N m C m N m m m m m m N C N m m C C C m m N m N Z N m N N N N C C C C C C C N N m m C m C m m C Z C C m Z Z C Z C m A C C N C A Z N S Z N m N N M M v v L b 4 2 , # @ # # # = O O O O : = O O O O O O & O O o o o O O O O O O : O O O O O O O O O O O O O O O O O O O O O O & = = : : r '.#X#X#X#X&X&X&X&X&X&X&X&X&X#X#X#X#X#X#X&X#X&X#X#X&X*X&X&X=X*X*X*X*X&X&X&X*X*X&X&X$X&X&X&X#X#X#X#X#X#X#X&X&X&X*X$X&X#X{.J.N.G.Q.Q.Q.Q.G.G.G.F.G.G.G.Q.G.Q.Q.^.F.G.Q.F.G.G.A.Q.Q.Q.Q.Q.Q.S.F.G.F.G.A.Q.G.G.Q.G.G.Q.G.G.G.G.F.A.F.G.S.A.A.G.G.G.A.F.F.G.A.A.G.G.Q.Q.Q.Q.G.G.^.G.Q.Q.G.G.G.S.G.G.F.G.G.m.- - = = = O = & O O & O O O O O : O O O O O O & & O O O O O O O : : & O O O O & & & & & & = & O : : & O & : = = & : : : : & & : : : : = = & & : = = & : O >.*X#X#X$X&X&X&X*X=X=X*X*X=X=X=X=X=X=X&X&X&X&X*X&X&X&X&X&X$X*X*X&X*X*X*X*X*X*X*X=X=X=X=X*X*X*X*X$X&X&X$X#X#X#X#X&X$X#X{.'.J.m.Z.3.2.2.2.2.R R R Q  .%.+.+.+.O.....O...........O.O...............O.......O.O.O.O.......O.O...O.O...........O.O...O.O.O.....O.O.....O.O.X.$.#.K.K.G.G.G.G.G.G.F.F.G.F.F.G.,.# . X X       X X X X X X X X X X X X X X X X X X X X X X X X X X X X X X X X X X X X o X X X X o o X o o X o o o o o o o X X X X X X X X X X X                   . # [ $.X...O.O.O...O...........................................................................................................................................O...............O.O.",
"o X X o X o o o o o o o o o o o o X o o o o o o o o o o o o o o o o o o o o o o o o o o o o o o o o o o o o o o o o o o o o o o o o X o o o o o o X X o o o o o o o X X o X o o X X o X X X X X X X X X X X X X X X o X X o X X o X X X X X X X X X X o o . @ , b B N N N m m m m m m m m m m A N N N m m m m m m m m n n z m m m m N N N m N N Z Z m N C m m m m N m m m m m m Z Z Z N m N N N m N m m m m m m m m m m m m m m m m m m N Z N m m m m m m C C m N m m m m m m m m A A N C m N N m m N m m m m m m m m m m m m m N m m m m N m N m m N m m m C C Z N N N N N C Z m m m N m m N m N m N m m Z A Z Z N m m N Z Z C C Z Z C Z C C Z Z C Z C N m m C C C C C C C C C C C C C C Z Z C Z C N N N m S S C C Z Z m N N n n n M v v b 2 1 , , # # # = O O = O o O O o O O o O O o O O O o O O O o O O O O O O & O & O O O O O O O O = & & O O = = = : : > [.#X#X#X#X&X&X&X*X*X&X*X&X&X#X#X&X#X#X#X#X&X#X#X#X#X#X#X&X&X$X&X*X&X*X*X&X&X*X=X=X*X&X&X&X#X#X&X&X$X#X$X*X$X#X&X$X#X#X'.J.D.Q.^.G.Q.Q.Q.Q.G.S.G.G.S.S.G.S.G.G.Q.G.Q.Q.S.G.S.F.Q.Q.Q.Q.G.Q.Q.Q.Q.G.Q.G.Q.G.Q.Q.Q.Q.Q.G.Q.G.G.G.G.Q.Q.G.G.A.Q.Q.G.F.F.G.G.F.F.G.G.G.Q.Q.Q.G.Q.^.G.G.G.Q.G.G.F.Q.Q.G.G.,.- : : : : = & = O O O O O & : = O O O : O O & O O O o & O O = & = : & O O & & O O O & = = = : = o & = = & = = : : : : : : & & & : : > : = : O & & = & : O n.*X#X&X$X&X*X=X=X=X=X=X=X=X*X=X=X=X=X=X&X&X&X&X&X&X$X&X&X$X&X*X&X#X&X*X*X*X*X=X*X=X=X*X*X*X$X$X&X&X&X&X#X#X#X#X#X#X#X{.'.J.m.Z.Z.3.2.2.,.W R U Q  .%.X.O.O.O.O.O.O...........O.............O.................O.........O...O.O...O.........O.O.O.....................X.$. .L.K.!.G.!.G.G.G.G.G.F.G.F.G.E @ X X X X X X X X X X X X X X X X X   X X X X X X X X X X X X X X X X X X X X X X X X X X X X X o X o o X o o o o o o X X X X o X X X X X X X X                 . . %  .o.X.....O.O.O.........................................O.......................................................................................................................",
"X X X o o o X X X X X X o o o o o o o o o o o o o X o o o o o o o o o o X o o o o o o o o o o o o o o o o o o X X o o o o o o o X o X o o o o o X X o o o X X o o o o o o o o X X X o o X X o o X X X X X X X X X X X X X o X X X X X X X X X X X X X X o . @ < v B m m m m m N C m N N m m m m m N m N m m m m m m m m m m m m m m m N m m m m m C N m m m m N N N m m m m m m A C m m C m m N C N m m m N m N m m m m m m N m m m m m m m m m m m m m m m m C m m N m m N N m m A Z N N m C m m m m Z C N N m m m m N m m m m m m m m m m m m m m m m m N N m Z N N C N Z N m N m m m m m m m m N C C C C Z Z Z N N N m m C Z N m m C Z Z Z Z C C Z C Z Z C C C C C Z m C Z C m m C N C Z A C m m Z C N N m N Z Z m Z Z N N A N m m n n v v v b b 4 1 , # @ # # O O O = O O o = & O O o o o o o O = O O O O O o O O & O O = = = & & O O O & & & & & & O & O a ].#X#X$X&X#X#X#X#X&X&X#X&X&X&X&X&X&X&X#X#X#X#X#X&X&X&X&X#X&X$X&X#X&X&X#X&X&X&X=X&X&X&X&X&X&X&X&X&X&X&X*X&X&X&X#X$X$XoX'.D.D.^.Q.Q.Q.Q.Q.Q.Q.Q.Q.Q.^.G.G.Q.G.G.G.G.G.Q.G.Q.G.G.G.Q.G.G.G.Q.Q.Q.Q.Q.G.Q.Q.^.Q.Q.Q.Q.G.G.Q.G.Q.Q.G.G.Q.G.Q.Q.F.Q.Q.Q.G.Q.Q.Q.G.F.Q.Q.Q.G.G.Q.G.Q.Q.^.Q.G.G.G.G.F.Q.G.G.>.# = O = = : & O & & O O O O & O O & : : & O O & O & O O & = & : : : & O O O & = O O O & & : : = O o O : & & : & O O : : : & & = : & & : : : : : : & = : O C.*X&X&X&X&X&X*X=X=X=X=X=X=X=X=X=X=X=X=X=X=X*X*X*X*X*X&X&X$X$X*X*X*X$X*X$X*X*X=X*X*X=X=X*X*X&X&X&X$X&X&X$X&X$X$X#X{.{.{.'.J.N.Z.3.1.2.2.,.W R U K  .%.X.+.+...O.O.O...........O.O...............................O...O.O.......O.O.O...O.......O.O.O.....O.............X.$.L.L.H.G.!.G.G.G.G.G.G.G.G.F.G.T . o X X X X X X X X X X X X X X X X X o o o X X X X X X X X X X X X X o X X X o o X X X X X X X X X o o X X o o o X X X X X X X X X X X X X X                   . . 5 &.X.....O.O.O.O.O...............................................................................................................................................................",
"o X X o o o o o o o o o o o o o o o o o o o o o o o o o o o o o o o o o o o o o o o o o o o o o o o o o o o X X X o o o X o o o X X X X X X X o X X o X o o X o X X o X o o o X X X X X o X o o o X X X X o X X X X X X X X X X X X X X X X X X X X X X X @ @ 4 M m m m m m m N Z m m N N m m m m m m m m m N m m m m m m m m m Z Z N m m m m m m N N m m m N N m m m m m m m m N Z m C m N m m N N m N N N N m m m Z Z m m m N m m m m m m m m N C N m C m m m m N N N N C m N N m N C N m N m N C N m N N N N N m m N N N m m N N N m m m m m N m m m m m m m m m m m m m m m m m m N m m m m m m N Z C N N N Z Z C C m m N N m m C C Z C S A C C m N Z Z C Z N C C Z C Z Z Z Z Z C N N C m C m m N N N N m m N m C C Z Z C Z C Z N m m m n M M M B L b 4 < , # # # # # O O O = = O O O O o o o O O & O O O o O O O & & O O & = O O : O O O O O O & O O O o a ]..X#X#X#X#X#X#X#X#X#X#X#X#X&X#X&X#X#X#X#X&X&X#X#X#X#X&X&X#X#X$X&X&X&X#X#X&X&X&X*X&X#X&X&X#X#X&X&X&X$X$X$X&X&X&X#X#X{.'.D.D.Q.^.^./././././././.^.^.^.G.Q.G.G.Q.G.G.S.Q.F.G.G.G.G.G.G.G.G.G.G.Q.Q.G.G.G.G.G.G.G.G.G.S.G.G.Q.Q.Q.Q.Q.Q.G.Q.G.G.G.Q.G.G.G.G.Q.G.S.G.S.G.F.G.Q.Q.G.G.Q.G.G.G.G.F.Q.S.G.>.# = O O O O & & & & = = = & O O & : & O O O O O O O : = O = = : : : = O O O O & : O O O O & = & : O O O : : : O O O O = : O O & O O O = : : : = & & = = O C.*X#X&X&X&X&X&X=X=X=X=X*X*X&X&X*X=X=X=X*X*X*X*X&X*X&X&X&X&X&X&X&X*X*X*X*X*X*X=X*X*X*X=X=X*X=X*X$X$X&X$X#X#X$X$X$X#X].{.'.D.D.Z.1.2.2.,.,.R R U K [ %.X.O.O.O.O.+.O...........O.................O...........................................O.O...O.....O.O...........$.$.L.K.K.G.G.G.G.!.G.G.G.F.G.G.Q.T . o o o X X X X X X X o o X X X X X X X X X X X X X X X X X X X X X o X X X X X X X X X X X X X X X o X o X o o o X X o o X X X X X X X X X X                   . . q $.X.....O...............................................................................................O.......................................................................",
"o X o o o o o o o o o o o o o o o o o o o o o o o o o o o o o o o o o o o o o o o o o o o o o o o o o o o o X X o o o o o o o o o X X o X o o o X X o o o o X X o o o o o X X o o o X X o X o o X X X X X X X X X X X o X X X X X X X X X X X X X X X X X . , b M m m m m m m m N m m m Z Z N m N m m m m N m m N m m m m m m m C A N m m m m m m m m m N m m m N N m m m m m m m N m C m m N m m N m m Z C m m N S A C m m m N m m m m m m m m m Z N m C C Z C C N m C C C N m m m C C N m m m N C N C C m m m N N m N Z N m C C m m N N N m m m m m m N m m m m m m m m m m m m m m N Z C N m C C N N N Z C m C Z A Z Z m m C C C Z m Z Z C Z Z Z N N m m Z C N C C Z Z Z Z C Z Z Z Z C C C m C C m m C m m Z Z m m C C Z A A C N m m N Z N Z N N m N M M v b b 2 , , # @ # # # O O O O O & O o o o o O o o O O = O O & : : = & & O = O O O O O O O O O O o g oX].#X#X&X&X#X#X#X#X#X#X#X#X#X#X#X#X#X#X#X#X&X&X#X#X#X#X#X#X&X&X&X&X&X&X#X#X&X&X&X&X&X&X&X&X&X#X&X&X*X*X&X&X*X&X#X#X{.'.D.D.Z.Z.A.A.A.G.Q.^.^.^./.^././.^./././././.^.^.Q.Q.Q.Q.Q.Q.Q.Q.^.^.Q.Q.Q.^.^.^.Q.Q.G.G.G.Q.G.Q.Q.G.G.Q.Q.Q.^.Q.G.^.Q.Q.Q.Q.S.G.G.Q.Q.G.Q.G.G.G.G.Q.Q.G.Q.Q.Q.G.G.Q.G.G.Q.Q.E # : = = & O O O O O O & O O = : O : : O O O O O o O O O O & : & & = O O O = = = & & O & & & = = : : : O & : = : : O & O O & : & & & O = & O : O : & & = O V.*X#X&X&X&X&X&X=X=X*X*X&X$X$X$X*X&X&X*X=X*X*X*X*X*X*X*X*X=X*X=X*X&X=X=X*X*X&X=X=X*X*X&X$X*X*X*X*X&X$X&X$X#X#X#X#X#XoX{.'.D.D.Z.3.1.2.,.<.R U U K F $.X.+.O.O.O.O.+.O.O.....O.....O.O.....O.......O.......O.....................O.........O.O.O...O...O.O.O.O.......X.$.$.L.K./.^.G.G.G.G.G.G.G.F.G.F.G.s . o o X X X X X X X X X X X X X X X X X X X X X o X X X X X X X X X X X X X o o X X X X X X X X X X X X X o o o o X X X X X X X X X X X X X X                   . . H $.X.....O.................O.....................................................................................................................................................",
"o o o o o o o o o o o o o o o o X o o o o o o o o o X o o o o o o o o o o o o o o o o X o o o o o o o o o o X X o o o o o o o o o X o o o o o X X o o o o X X o o X o o o X X X o o o o o X o X X X X X o X X X X o X X X X X X X X X X X X X X X X X X . @ < M N m m N m m m m m m m m m N N m N m N N N m m m m m m N m m m m m m N m m m m m m m m m m N m N C N m N m m m m m N m m N C Z C N m m m m m N m C Z N m m m C N m m m m m m m m Z C Z C N C C A Z Z C m m C C Z C m m N m m m m C C m N N m N m m m N m m m C C N m m m N m m N m m m N N N N N m m Z Z m m m m m m m m Z Z C C m C C N N Z N Z N m N N Z A C m C C C Z Z A S m Z C m N m N N N C m C m C C C m C C C N C C C C A A C N m m C C m m C N C A S A Z A Z N C C Z Z Z A Z N m m m M M M v b 2 , , # # # # = O O O o o o O o o o o O O O O O o O O & & & O O O O : : O & & O O & O f oX].#X#X&X#X#X#X#X#X#X#X#X#X#X#X#X#X#X#X#X#X#X&X#X#X#X#X&X&X&X#X&X&X&X&X#X#X#X#X#X&X=X&X&X&X&X#X#X$X&X*X*X*X&X*X&X#XoX'.N.S.G.F.A.A.Z.Z.Z.Z.Z.Z.Z.Z.4.4.Z.A.A.A.A.A.A.F.G.Q.Q.Q.^././.^./././././.(.(./.(./././.^.Q.Q.Q.Q.Q.Q.Q.Q.Q.Q.Q.Q.Q.Q.Q.Q.Q.^.Q.G.G.G.G.G.Q.Q.Q.G.Q.Q.Q.Q.Q.Q.Q.G.Q.Q.G.Q.^.T # = O O O O o O O o O O O & O & & O & O = O O o O O & & O & & O & & O O O O O O = : = = : = & : & : : : : : : : : = : = : : = & : & O = = : : = : : = : = V.*X&X&X&X&X&X*X=X*X&X&X&X&X$X&X&X$X$X*X=X=X*X*X=X*X=X=X=X=X=X=X=X*X&X=X*X*X&X&X*X*X*X*X&X*X*X*X$X$X&X&X&X&X$X#X#X#X{.{.'.D.D.Z.4.2.2.,.R R U I I J  .%.X.X...O.O.........O.O.O...O.O.....O.........................O.......O.....O.O.....O.O.O...+.+.O...O.O.......X.$.#.L.K.G.G.G.G.G.G.G.G.Q.Q.Q.G.^.s . o X X X X X X X X o o X X X X X X o o X X X X o X o o X X o X X X o o o o o o X X X o X X X X X X X X o o o o o o X X X X X X X   X X X                     . . @ [ $.X.............................................................................................O...............................................................................",
"X X X o o o o o o o o o o o o o o o o o o o o o o o o o o o o o o o o o o o o o o o o o o o o o o o o o o o o o X X o o o o o o o X X o o o o o o o o X X X X X X X o o o X X X o o o o o X o X X X X X X o X X X X X X X X X X X X X X X X X X X X X X . @ 4 B N m N N m m m m m m m m m m m m m m N A Z m m m m m m m N m m m m m m m m m m m m m m m m m m Z Z m m m m m m m m m m m m C m N N m C N m m m C N m N m N m m C C N m m m m m m N N m m C Z N Z C C m C m m C C C C m m N N m m m N N C C C m m m m N N m m C Z Z C m m m N m m m m m m m N N N N m Z A C m m m m m m m m C m m m C m m N m m m m m N Z C C Z C m m Z A A Z Z A C Z C N m m N N N m m C C C C Z Z C C m m m C C Z C C C C N m N N Z Z Z S A A Z C Z C N C C C C C Z C Z Z Z Z Z N N M M M v b 4 2 , # @ @ # # # # O O O O O O O & = O O O O O O O O O O & & O = O & & O O = O >.#X]..X#X&X#X#X#X#X#X&X#X#X&X&X#X#X#X#X&X&X#X#X#X#X#X#X#X#X&X#X#X&X$X&X$X&X&X#X#X#X#X$X*X&X&X#X#X&X$X&X&X&X*X*X&X&X$X{.~.N.S.G.F.F.G.G.G.G.F.G.F.A.F.A.A.A.A.A.A.A.A.A.3.Z.3.4.4.4.Z.Z.Z.Z.Z.A.Z.Z.Z.Z.A.S.F.G.Q.Q.Q././././.(././././././././././.^./.Q.G.G.G.S.S.A.G.Q.G.G.Q.Q.G.Q.G.S.Q.Q.Q.Q.G.^.T # : = = = = O O & O O O O = O & & O : O = : O O O O : & & O = O O O = O O O O O O = = = & : & O O O & & & : : : : : : > : : & : : : : = = : : : : : : = > `.&X#X#X#X#X&X&X*X*X*X*X*X*X*X*X*X*X$X&X&X*X*X&X$X&X&X$X*X=X*X*X*X*X&X*X=X=X*X&X*X*X*X=X*X*X*X*X&X&X&X&X&X#X#X#X#X#X{.{.'.N.D.Z.3.2.2.<.R R U I I b [ %.X.X...O.O.O.................O.O...O.O.......................................................O.O.....O.......X.$.L.K.G.G.^.!.^.Q.!.!.Q.Q.Q.G.G.G.e . o X X o X X X X X X o o o o o o X o X X X X X X X o X X X X X X o o o X X X X X X o X X X X X X X X X X o o o o o o X X X X X X X X                         . . # [ $.X...O.........................................................................................O.O.............................................................................",
"o o o o o X o o o o o o o o o o o o o o o o o o o o o o o o X o o o o o o o o o o o o o o o o o o o o o o o o o X X o o o o o o o X X o X o o X X X X o X X X X o o o o o X X X X o o o o X o o X X X X X o X X X X X X X X X X X X X X X X     X X X X . # b B m m N N m m m m m m m m m m N N m m m N N m m m m m m m m m N m m N N m m m m m m m n m N m m m N m m m N N m m m m N m N m m m m N C N m m m m N C m m m m N m m C Z N m m m m m m m m m N m C m C C C C C C Z Z C m m m C C m N N m m C Z Z C m N N C C C N m Z C N C m m N m m m N m m m m m m m N Z C m m m m m m N m N C m m Z Z Z N m m m m m m C C C C Z Z C C S S S C Z C C Z N N N m m N C Z C m C C C A C m N N N m C C C C C Z Z C C C C C Z S Z Z Z Z Z C C m m C C Z C C Z Z Z C Z C Z m m m n M M v v 4 2 , # # # @ # # = O O O O O O O o o O : : O O & : : : = = = & = : : : O >.#XoX.X#X#X#X#X&X&X&X&X&X&X#X&X&X&X&X#X#X#X#X#X&X#X#X&X#X#X#X#X#X&X$X$X#X$X=X*X#X#X$X&X*X*X*X$X#X#X$X&X&X$X&X&X&X&X$X{.~.N.S.G.F.F.F.F.F.F.F.G.G.G.G.G.G.Q.Q.Q.G.G.G.G.G.F.G.G.G.G.F.A.F.F.F.F.A.A.Z.Z.4.4.4.4.4.4.4.4.Z.Z.Z.A.A.A.S.S.G.Q.Q.Q.^././././.(.(././././.^././.^.Q.Q.Q.Q.Q.G.Q.!.Q.Q.S.^.s - > = : : : = O & = : : & : & O : & : O O = & : : O & & O & & O O O O O O O O O O = : : = & : & O & O O & : & & = O : > > O O & = = : > : : : : : : > : > '.=X#X#X#X#X#X$X*X*X*X*X&X&X*X*X*X*X*X&X#X$X*X$X$X&X&X*X*X*X=X$X$X*X*X&X*X=X=X=X=X=X=X*X*X&X&X$X*X*X$X&X$X$X#X#X#X{.{.{.'.N.N.Z.1.2.2.<.R T U I I 4 J $.+.X...O.O.+.+.......................O.........O.................O.......................O.O.O.+.O...O.....X.$.$.L.K.K.!.G.G.!.Q.G.G.G.G.Q.G.A.S.e . o X X X X X X o o X o X o o o o X o X X X X X o X o o X X X X X X X o o X X X X X o X X X X o o o o X o o X X o X X X o X X X X X X X X                     . . 5  .X...O.O.........................................................................................................................................................................",
"o o o o o o o o o o o o o o o o o o o o o o o o o o o o o X o o o o o o o o o o o o o o o o o o o o o o o o o o o o o o o o o o X X X X X X X X o o o o o X X o o o X X X X X X X o o o X X X o X X X X o X X X X X X X X X X X X X X X X X X X X X X . @ , v B N m m m m m m m m m m m m N m N m N Z C m m m m m m m m m m m m m m N A N m m m m m m n m m m m m m m m m m m N N m m m N m N C N m m m m m m m m m m m m N N N m m m m m N m m m m m m m m m m m m N C C C m m C N m m m m Z N N N N N m m N m m m m m N N N m m N A Z C m m N m m N N N m m m m N N N N N m m N N m N N C C Z Z C m A Z m m m N m m N N Z A C S Z A Z Z A A C C C m C C m N N m m N m Z A C m C S C Z N C C C C m Z m m Z Z C Z C m C m Z C C C C C C m C C C Z Z C C Z C Z A C Z A C N N N N N M M b b b 2 2 , # - - # # = = O o O O o O = : : : : = : : : : : : & : : : O >.#X.X#X#X#X#X&X&X&X&X&X*X*X#X#X*X&X&X&X&X#X#X#X#X#X#X#X&X&X#X#X#X#X#X&X#X#X&X*X#X#X#X&X&X&X&X*X&X&X$X#X&X&X&X&X&X#X#X].~.D.G.G.Q.G.G.F.G.F.G.G.G.G.F.G.F.G.G.G.Q.Q.G.G.F.F.F.F.G.G.G.G.G.G.G.Q.G.Q.G.F.G.Q.G.G.F.F.G.A.Z.3.Z.A.A.A.A.Z.Z.Z.Z.Z.Z.Z.Z.Z.4.4.4.A.A.G.S.G.Q.Q.^./.^./././././././././.(.s # : = O O O O O o O O O O O O o & : O O : : : O : : : O O O O & & : & = O O O o O O = O O O O O O O O & & O O : O O & & : & & O & & : > : : > > > > r > = J.=X&X#X#X#X&X&X&X&X&X#X#X#X*X*X=X=X*X&X&X*X$X$X$X$X*X&X*X*X&X&X*X&X=X&X&X&X&X*X&X&X*X*X=X*X&X$X&X&X*X&X$X&X$X#X#X#X#X{.'.D.D.Z.1.2.2.<.R R I I I 4 q  .%.X.O.....O.O.........O.....O...............................O.....O.....O...............O.O.....O.O.X.X.X.X.%.#.L.K.G.!.^.G.G.G.G.G.G.F.F.G.G.D.3 . o X X X X X X o o X X o o X o o o X X X X X o o o X o X X X X o o o o X X X o X X X X o X X o o o o o X X X X X X X X o X X X     X X X                     . . q $.X...O.O.........................................................................................................................................................................",
"o o o o o o o o o o o o o o o o o o o o o o o o o o o o o o o o o o o o o o o o o o o o o o o o o o o o o o o o o o o o o o o o X X o o X X X o o o X X o o o X X X X X X X X X X o X X o o o o o X X X X X X X X X X X X X X X X X X X X X X X X X X . @ 2 v n m m m m m m m m m m m m m m m m N C N S S m m m m m m m m m m m m m m N Z m m m m m m m m m m m N m m m m m m N N m N m m m m N Z Z m m m m m m m m m m m N Z A m m m m m N N m N m m m N N m m m m N N m N C N N N N m m m m Z N m m m m m m m m m m m m m m m m m C C S Z m N N C C C C m m m N m m m m m m m m N m m m m m A A Z C m C Z C N N C N N C Z Z Z Z Z S A A S C C C m C C m C C m Z N m N C C A Z C A S C C C C C C C C S Z C C Z C C Z m m C Z C C C C N N N C m C C C N Z Z Z Z Z Z Z A m A Z N N N N n n v v v b b 4 2 , # # # # O O O & O > : O : : O O O > : : : : : : : O C.$XoX#X#X#X#X&X&X&X#X#X#X&X*X&X&X*X=X*X&X&X&X&X&X&X#X&X&X#X$X$X*X$X&X#X&X#X&X&X&X&X#X#X&X&X&X&X&X*X=X*X&X&X&X$X&X#X#X{.J.D.^.^.^.Q.Q.Q.G.G.F.Q.F.G.G.G.Q.F.G.G.Q.G.G.G.Q.F.F.F.Q.G.Q.Q.Q.G.G.F.G.Q.Q.F.G.G.Q.Q.Q.F.G.G.G.G.G.A.G.Q.Q.Q.Q.G.G.Q.Q.G.F.G.F.A.Z.A.A.A.A.Z.Z.4.4.4.Z.Z.Z.Z.Z.Z.A.Z.A.S.^.r - > : = = : & & O o o O O O O o O : & O O O & O O & : : : : : : & : = O & O O O = O O O o o O O O o O O O O O O O O o & : : : O O = : : : : : : : > : : 3 '.*X#X&X&X#X&X*X*X*X&X&X#X#X&X*X$X&X*X*X*X*X&X$X$X$X&X$X$X$X$X$X&X$X&X*X*X*X*X*X&X$X&X*X*X$X=X*X$X&X$X#X#X&X#X#X$X#X{.{.~.m.m.Z.1.2.2.,.W R T I b b 2 F %.+.O.O...O...........O.................................O.O.O.O...O.O...................O...........X.X.X.X.$.L.L.G.G.Q.Q.Q.!.^.Q.Q.Q.G.F.F.G.D.3 . o X o o o X X X X X X o o o o X o o X X o o o o o o o o o o o o o o X X o o o o o X o O o X o o o o X X X X o X X X X X X X X X X   X X                     . . 8 $.X.....O.O.......................................................................................................................................................................",
"o o o o o o o o o o o o o o o o o o o o o o o o o o o o o o o o X o o X o o o o o o o o o o o o o o o o o o o o o o o o o o o o X o o o X X X X o X X o X X o X X X X X X X X X X X X o @ . . @ . . . . X o o o X X X   X X X X X X X X X X   X X X . . , b M N m m m m m m m m m m m m m m m m N N N m S Z m m m m m N m m m m m m m m m m m m m m m m m m m m m m m m m m m m N m m m m m m m m N N m m m m m m m m m m m N C N m N m m m m N N N m m m m m m m m m N m m m m m m m m m m m m N m m N m m m m N m m m m m m m Z C m C Z Z Z m m m m m m m N N N N m m N m m N m m m m N C N m C m C C m A A m N A C m N C m C C Z C C C C C C C Z Z C C m Z N Z Z N Z m C m C C Z C C Z Z m C m m m C Z C C C C N Z C C C Z C C N C N N m m C C C C N C C C Z Z C m N Z A Z N N N m N m N N M M M M M v b < , # @ # # = = = = O O = O O O O & : = : : : > & C.*X#X$X#X#X#X&X&X#X&X&X#X#X&X&X$X#X&X=X*X&X*X&X*X&X&X&X#X#X#X#X$X&X&X&X&X&X&X&X&X&X&X&X&X#X#X&X&X&X*X&X&X&X&X&X#X#X#X{.~.N.G.Q.Q.Q.G.G.G.F.F.G.G.F.F.G.G.G.G.G.A.F.G.G.Q.Q.G.Q.G.A.A.G.G.F.G.F.A.G.G.G.Q.G.G.F.Q.G.F.F.F.F.F.A.A.Q.G.Q.Q.Q.G.Q.Q.G.Q.G.F.G.Q.G.Q.G.Q.Q.Q.Q.Q.Q.G.Q.Q.G.G.A.S.A.A.Z.S.r - > > : : : & & = & O O O = & O = = = O O O O & & O O O & : & & & & : : O O O O O O O O O O = O O O O O O O O O : : O O O : O O O O O : : & O O O = : O s $X=X=X&X$X&X$X&X*X&X&X*X&X$X$X&X*X&X$X$X$X$X$X=X*X$X=X=X=X%X$X$X$X$X$X&X*X&X&X&X*X&X&X&X$X&X&X&X*X*X&X#X$X&X&X#X$X$X|.{.~.N.D.1.1.2.2.W R R R I K 4 4 q  .%.X.O.X.+...............................................O.O.O.........................O.....O.........X.$. .L.H.G.!.Q.Q.Q.Q.G.G.Q.!.Q.Q.A.G.D.3 o o X o o X X X X X X o o o o o o o o X X o o o X X X o o X X o o o X X X X X o o o o o o o X o o o X X X X X o X X X o X X X X X X   X X                     . @ G $.................................................................................................................................................................................",
"o o o o o o o o X o o X o o o o X o X o o o o o o o o o o o o o o o o o o o o o o o o o o o o o o o o o o o o o o o o o o o o o o X X X X o o X o o o o X X o o X X X X X X o o o X o . # 4 2 , @ @ @ . . . . o X X X X X X X X X X X X X X       X . @ , M N N m N m m m m m m m m m m m m m m m N N m m m N m m m m m m m m N m m m m m N m m m m m m m m m m m m m m m m m m m N m m m N m N N m m m m m m m m m m N N m m N N m C N m m m m m m m m m m m m m N N m m m m m m m m m N N N m m C N N N m N m m N m m m m m m m Z Z C m C C m N Z A N m m N m N N N m m Z S Z C N N m m m Z C m C C m N Z m N N m Z C C m C m Z C m m m m C S S Z Z m Z C m Z A C Z A C m C C C m C C C N m N m C m N m C C Z C m m N m C C C m m m N m m C N C C C C m m C C C C C m m C A S m m C m C A S Z Z m N M M M M v b 2 , , # # # # # O : = O = & = = = = : : > = V.&X#X&X#X#X#X#X#X#X&X&X#X#X#X#X&X&X&X&X&X*X&X&X&X&X&X&X#X$X#X#X#X#X#X&X&X&X#X&X&X#X&X&X*X&X#X#X&X&X&X&X&X$X#X#X#X#XoX].J.D.^.G.A.G.G.G.F.A.A.F.G.F.F.F.G.Q.Q.G.F.F.F.F.F.F.A.F.F.Q.G.A.A.Q.Q.F.Q.F.Q.Q.G.F.Q.F.G.Q.F.F.G.G.F.G.F.F.G.F.F.A.G.G.G.Q.Q.Q.G.A.F.!.Q.G.Q.Q.G.Q.Q.Q.Q.Q.Q.Q.Q.Q.G.Q.Q.S.D.3 # = : & : : = = O O = & O O O o O o O O O O O O & : & O O O O O O : = = = O O o o O O O O & & O O O & O & : = = & : : O : & : O & : = = = = : & & = : = g *X&X&X&X&X$X&X*X*X*X$X#X$X$X$X$X$X&X&X&X$X#X$X$X$X$X$X%X%X*X$X*X*X*X*X&X*X&X*X&X*X=X*X$X*X*X&X&X&X*X$X&X&X#X#X#X#X#X#X{.~.N.D.1.2.2.<.W R R T I K b 4 5 J $.X...+.X...........O.O.O...................................O.....................O.......O.X.X...X.X.X.$. .H.K.!.Q.Q.Q.G.G.G.G.G.Q.Q.!.^.G.D.1 o O o o o X X o o o o o o o X X X X X X X o X X o X X X X X X o o o o o X X X X o o o o X o o X X o X X X X X X X X X X X X X X X X X X X                     . % | %.X.......O.......................................................................................................................................................................",
"o o o o o o o o o o o o o o o o X o o o o o o o o o o o o o o o o o o o o o o o o o o o o o o o o o o o o o o o o o o o o o o o o X o o X o o X o o X X o X X o o X X o o X X o o o o @ 2 K K v b 4 2 , # @ @ . . . . X X X X X X X X X X       X . . @ 2 M N m m m m m m m N m m m m m m m m m m m m m m A S m m m m m m N m m m m m m m m N N m m m m N m m m m m m m m m m m m m m m m m N N C N m N m m m m m m m m m m N N C C C m m N m m N m m N m N N m m m N Z N m m m m m m N m C N m m m C C m m N Z N N m m m m m m m m m C N N m N C C Z N m m N m C m m N N C A Z C C N m m N N N N m C N Z Z C N m m m Z Z C m C m m C N N m m Z A Z C Z Z C N m Z A Z C C C C m C C C Z Z N Z C m C C C m m Z Z N N m m C C Z Z Z C m C C C C C C C m C m C m C C Z m m m m N Z Z Z Z m C Z Z Z N N N N m m N M M v v b 4 2 , # # # # O O = : = : = = : : : : V.*X#X#X#X#X#X#X#X#X#X&X$X#X#X#X#X&X&X&X&X&X&X&X&X#X&X&X$X$X#X#X&X&X#X&X#X&X&X#X#X#X#X&X&X&X&X#X#X#X#X#X&X=X&X#X#X#XoX'.J.D.^.G.Q.G.G.G.G.G.F.F.G.G.F.G.A.F.Q.Q.G.A.G.G.A.G.G.F.F.F.F.Q.G.F.G.G.F.F.G.Q.G.G.Q.G.G.Q.Q.Q.Q.G.Q.Q.G.Q.Q.G.G.G.A.G.G.Q.G.Q.Q.G.A.A.G.Q.G.F.F.Q.G.Q.Q.Q.Q.Q.Q.Q.Q.F.G.Q.N.- = : O = : : : : = & = : = O O O O O o O o O O & : : = O o O & & O & O & O & O = & O O O O O o O O o o o o O : : : = : : = : = & O & : : : : : : : : : = f =X=X=X=X*X*X&X&X&X&X&X&X$X$X$X$X$X$X$X%X%X%X%X$X$X$X|.|.$X$X$X$X&X*X&X&X$X$X$X&X&X*X=X=X*X*X=X*X&X&X$X&X#X#X#X#X#X#X{.{.~.D.D.Z.1.2.2.W R R T I K K 4 4 5 [ %.X.O.O.O...................O.O.......O...O...........O.+...O.....O.................O.O.O.+.X.X.X.X.$. .L.H.G.!.!.!.G.Q.^.^./.^.Q.^.Q.Q./.D.- # O o o o o o o o X o o X o O O X o X X o X o o o o o o o X X o o X X o o X X X o o o X X o o X X o o X o o o o o o o X X X X X X X X X X                     . 5  .%.X.O.............................................................................................................................................................................",
"o o o o o o X o o o o o o o o o o o o o o o o o o o o o o o o o o o o o o o o o o o o o o o o o o o o o o o o o o o o o o o o o o o o o X X X X X X X X X X X o o X X X X X X o o X . # b M n M M M v v b 4 1 , # @ @ . . . X X X X X X X X X X X X . , v B m m N m Z N m m m m m m m m m m m m m m m m N m N m m m m m m N N m m m n m m m m N m m m m N C m m m m m m m m m m A m m m N N C N m m m m m m m m m N N m m N N m C m N Z m m m m m m m m m m m N Z Z N m m m m m N m N N N C N m N m m m N m m m N m m m m C C C m N m N N N N Z N C C N N N m m Z C m N C m C Z C m m m m C C N N N m N m C C Z Z m C C m Z C m m N N C N m C C m C C N m Z Z C Z Z Z Z N C N C N Z Z Z Z A A C Z Z m C m C Z N C C m m N m Z S Z C C C C C m m m m m m C C C Z C C m m m m m N Z Z m N N m N N N N A A Z Z m m m M M M M v v b 4 1 # # O = = = = = = = = : > `.*X$X&X&X$X&X&X&X#X#X#X#X&X#X#X#X&X&X&X&X&X&X#X#X&X#X#X#X&X&X&X#X&X&X#X#X&X#X#X#X#X#X#X&X&X&X&X#X&X&X#X#X&X*X&X#X#XoX'.J.D.^.G.A.G.F.G.F.G.G.F.G.G.F.G.F.A.F.G.Q.G.A.F.F.G.F.A.F.G.F.A.G.F.A.G.F.F.A.Q.G.G.F.G.A.G.Q.Q.F.G.F.A.F.F.G.G.Q.Q.F.G.F.A.A.A.F.G.Q.F.G.Q.F.G.G.F.G.G.F.Q.G.Q.G.Q.G.Q.A.A.E - - = = & = = : & & & O O = = & & O O O = O & = = = : & O O O O & O & O O & O = : = & O O O O O O O O O & O O : : O O O & = & & : & = O O = = = : = = : O f =X*X*X=X=X*X&X&X&X$X$X&X&X$X$X$X$X%X X X X X X X X X X X X X X%X$X$X$X$X$X$X$X$X&X*X*X*X=X=X*X*X*X&X&X&X&X$X#X#X#X#X{.{.~.N.D.Z.1.2.,.<.W R R I K e 4 2 5 q  .%.X...O.........O...............................O.....O.+.......................O.O.X.X.X.....X.$. .L.H.G.G.G.!.^.^.^.G.^.G.G.G.Q.^.^.^.D.- O O o o o o o o o o o o X o O O X X X X X X X o X X o o o o X X X X X X X X X X X o o o o X X o o X X X o o o X X X X X X X X X X     X X                   . . q $.X.X...............................................................................................................................................................................",
"o o o o o o o o o o o o o o o o o o o o o o o o o o o o o o o o o o o o o o o o o o X o o o o o o o o o o o o o o o o o o o o o o X o o X X X o o o X o o o X X X X X X X X X X X o @ , v M N N N m M M M v v b 4 2 , # @ @ . . . . X X X X X X X . @ < v N m m m m N m m m m m m m m m m m m m m m m m m m m m m m m m m m m m m m m m m m m m m m m m m N m m m m m m m m m m m m m m m m m N N Z m m m m m m m m m m N m C C m N m C C m m m m m m m m m m m Z Z C m m m m m m C m m m N m m m m N N m m m m m m m m m m A A Z Z m N m C C C C N C N N N N N m C C N Z Z Z Z C C m m m N N m m N m m m Z S Z Z C N N m C C C N N N N C C C C C m m N m m C C N C Z Z Z N N C m C C C C C C Z Z A Z m m C m Z C m C m m m C C Z C m m C C m C m m m m Z A C Z Z Z C m C m N m N A N N N N N Z Z Z Z Z Z A Z N N N N m m M M M v K K , # O O = : : = = : : > [.$X#X$X$X#X&X#X&X&X&X&X&X#X&X#X#X#X#X#X#X&X&X&X#X&X&X#X#X&X#X&X&X#X&X&X&X&X&X&X$X#X#X#X#X&X*X&X&X&X&X&X&X#X*X*X&X#XoX'.D.D.Q.F.G.A.G.G.F.A.G.G.A.F.G.G.F.A.A.F.F.F.G.F.F.F.G.F.A.F.G.G.F.F.F.F.F.G.Q.F.G.Q.G.G.A.Q.G.G.Q.F.G.F.A.F.F.G.G.G.G.G.G.F.G.F.A.A.F.Q.A.G.Q.G.G.G.F.F.G.G.G.Q.G.Q.G.G.F.S.T # = O O O O O & O O O O O = & = O o O O O O O O O O = : : & & O O O & : & : & O & : : : O O & & & O & & O & O O : & & O O & & O O : O O O : = = = = = : = >.=X$X=X=X*X=X=X-X=X&X$X$X$X%X X X XU.U.U.U.U.I.Y.Y.I.I.U.U.U.U. X X X X%X$X$X*X$X*X*X*X&X$X$X$X*X&X&X#X#X#X#X#X#X#X{.{.'.J.D.D.Z.3.2.<.W W R T I P e 4 4 2 5 J $.%.X.................................................O.+.O.....................O.....X.......X.$. .L.H.F.Q.G.G.G.Q.G.G.Q.G.G.G.S.Q.Q.^.N.- O O o O O o o o o o O o o X X X X X X X X o X X X X X o o o X o o X o X X o X o X X o o o o o o o o X X X o X X X X X X X X X X X X X X X                   . . H $.X.................................................................................................................................................................................",
"o o o o o o o o o o o o o o o o o o o o o o o X X o o o o o o o o o o o o o o o o o o o o o o o o o o o o o o o o o o o o o o X X o o o o X X o o o X X o o o X X X X o X X X X o . @ 2 M N N N m m m m n n n n M v v b 4 2 , # @ . . . . . . . . . @ 4 M N C m m m m m m m m m m m m m m m m m m m m m m m m m m m m m m m m m m m m m m m m m m m m m m m m m m m m m m m m m m m m m m m m m N m m m m m m m m m m m N N m C Z m N m m C N m m m m m m m m m m m m N N m m m m C S Z N m C m N N m m m m m N N N N C C m N C C Z Z m m m C m N N N C N N N N m m m N C C N C C C C C m m N m m m N N C C Z S Z C C m m m m N m N N N m m m N C m m m m N C Z C Z N m C N m m m m N N m m m m m C C m C C m m C N N N N N C C C C C C Z C C Z C C m N N Z Z C Z Z C m C m m C N C C C m m m C Z Z Z A C N Z C Z Z Z Z A Z Z m M c b 1 # = O O = = & & = = > `.*X#X#X$X&X#X#X#X#X&X&X&X$X#X$X&X&X&X&X#X&X&X#X$X&X&X&X&X$X&X$X&X&X&X&X*X*X*X*X=X*X&X&X&X&X&X*X=X=X*X&X&X&X&X*X*X#X{.'.N.D.Q.F.Q.A.F.G.G.G.F.Q.Q.F.G.G.F.A.A.A.F.F.F.G.G.F.G.G.Q.G.G.F.Q.G.G.F.F.F.F.F.G.G.G.G.G.G.G.G.G.G.G.G.Q.F.F.F.F.F.G.G.Q.G.G.G.G.G.A.G.Q.F.Q.G.G.G.G.G.G.G.G.Q.Q.G.Q.G.A.A.T @ O O o O O o O O O O O O O O O O O O O O O O O & = O : : = O & O O O = = & & & O & = : : & = O O O O = & : : = : : : = = O O & O : = = = = = = : = : : O E =X$X*X=X=X=X=X*X$X$X%X X X XU.U.Y.Y.$.$.$.$.$.o.$.$.$.$.$.$.$.Y.I.U.U. X X%X*X*X*X&X&X&X=X&X&X*X*X$X&X$X$X#X#X#X#X{.{.'.J.D.Z.Z.1.2.2.<.W R R I P e 4 4 2 5 5 F $.%.X.X...O.........................................O.O.O.....................O...........X.$. .L.Z.H.Z.F.G.Q.G.G.G.G.Q.^.Q.!.Q.Q.G.^.,.# O o O O o o o o o o O o o o o X X o X X X X X X X X o o o o o o o o o X X o o o o X X X X o X o o o o X X o X X X X X X X o X X X X X X X                 . . @ G $...................................................................................................................................................................................",
"o o o o o o o o o o o o o o o o o o o o o o o o o o o o o o o o o o o o o o o o o o o X X o o o o o o o o o o o o o o o o o o o X o o o o o o o X X X X X X o o X X X X X X X X o @ # l M m m m m m m m m m m m n n M n c v b b 4 2 , @ @ @ @ @ @ @ , v B Z Z Z N m m m m m m m m m m m m m n n m m m m m m m m N m m m m m m m m m m m m N N N m m m m m m m m m m m m m m m m m m m m m m N N Z m m m m m m m m m m m m N m m N m m m N m N C N m N N m m m N Z N m m m m m m N m N A Z C m N N m m m m N m m N m C N N N m m m m N N C m m m N m Z C C C N N m m m m m N N N C C C Z Z C m C m C C m m m C A S N Z N m m C C m N C m C C N m m m m m m C C N N Z Z Z C C N N m m m N N C C C C Z C Z C m C N C N m N N m m m C C C C C C Z Z C C Z N N C m C Z C C C Z Z Z A S Z C C m m C C C C N Z S A Z A Z Z Z A A A A Z N n b , # O O O O O = & = O > '.$X#X&X&X&X#X#X#X#X#X#X&X$X#X&X$X&X&X&X#X#X#X&X&X&X&X&X&X$X$X*X&X#X#X&X&X&X&X*X&X=X*X&X&X&X&X&X&X*X=X*X&X$X$X$X&X$XoX'.N.D.G.F.G.F.F.G.G.G.F.F.G.Q.Q.G.F.F.F.A.G.G.F.F.F.F.F.G.G.G.G.G.G.G.F.F.F.F.F.G.G.G.F.F.F.G.G.G.F.F.G.G.Q.Q.G.G.A.F.F.G.F.G.G.F.G.G.F.A.G.G.F.G.Q.G.G.F.G.Q.G.G.Q.G.G.Q.F.S.T @ = O O O O o O O O o O O O O & O O O & O O O O & O & O O O O & O O O O & O O O O O O & O = O & O O & O & : : & = & O & & = : & & & = : = : = : : = : : O n.=X$X=X*X&X*X$X$X X X XU.I.Y.$.$.$.@.o.X.o...X.X.X.X.X.X.X.X.o.o.$.$.Y.I.U. X X%X%X%X&X&X=X=X*X$X&X$X&X$X$X#X#X#X#X{.'.'.J.,.Z.3.2.2.2.<.W R R I I e 4 2 2 2 5 5 F $.%.X.X.....O.O...................................O.O.O.............................X.X.$. . .Z.Z.H.F.H.Z.F.Q.G.G.A.G.Q.^.^.^.Q.S.^.>.# O O O O o o o o o o O O X X X o o o o X X X o o o X X X o o o o o o o O o o o o X X o o o X X X X X X X X o X X X X X X X o o X X X X X                   . . @ [ X...................................................................................................................................................................................",
"o o o o o o o o o o o o o o o o o o o o o o o o o o o o o o o o o o o o o o o o o X o X o o o o o o o o o o o o o o o o o o o o X o o o o X X X X X X X X X X X X X X X X X X X o @ , v M m m m m m m m m m m m m m m n n n c v M v v b 4 , , # @ @ < M B A Z N N N m m m m m m m m m m m m m m N N m m m m m m m m m m m m m m m m m m N N m m m m m m m m m m n m m m m m m m m m m m m m m m N N m m m m m m N N m m m m m m m m N m m m N N N m m m m m N N N C N m m N N m m m m m m Z Z m m N N m m N N m N N N m m m m m m m Z N N C m N C C C m m C C m m m Z C m N m m m m m C C C C C C Z N C m m m C Z A C N m m N N m C C C C C C N C C N N m m m m m C Z C C Z Z C Z N m N N m Z A Z C Z Z C N N C Z Z m m m m m m C C Z C C C m m m m C Z m m C C C C C Z Z C Z C S A C Z Z N C Z N m C m A A A Z Z Z Z S S A A S N M l , # = O O = : = O & & a ].#X&X#X$X$X#X#X#X#X&X#X#X#X#X#X#X#X&X&X&X#X#X#X&X&X&X&X$X$X&X$X&X&X&X#X#X&X&X$X&X$X*X*X#X&X$X&X#X$X*X*X*X&X$X&X&X#XoX~.N.D.S.A.F.Q.G.G.F.G.G.A.F.G.Q.Q.G.Q.G.F.F.G.F.F.F.G.F.F.F.F.F.F.F.F.G.A.F.F.A.F.Q.G.F.F.A.F.F.Q.Q.F.G.G.G.Q.G.G.F.A.F.G.A.A.F.F.G.G.G.G.F.G.A.G.G.Q.Q.F.G.G.Q.Q.Q.Q.G.Q.G.S.s @ = O O O O O O O O O O O & & & & O O O O & O O O O O O O = O O O O O & O O O O O O O O O O O & O O O = : & O O O O O : : O = & & = : = = = : O : : : : : C.=X*X=X&X&X%X%X X XU.Y.#.#.o.o.o.X.X.X.X...............X.X.X.X.X.X.X.@.$.$.I.U. X X%X%X=X=X=X=X$X&X$X$X&X$X#X#X#X|.{.].`.D.D.Z.Z.3.2.2.<.<.R R T I e 4 4 2 1 1 2 5 F $.%.X.O.....O.O.........O.........................O.O.....O...O.................X.X.$. .} Z.Z.Z.H.F.F.G.G.G.G.!.!.Q.G.Q.^.Q.^.S.^.>.@ O O O O O o o o o o o o o o X X o o o o o o o o o X X o o o o o o o o o o o o o o o o o o o o X X X X X X X X X X X X X X X X X X X X X X               . . . % | X...O.O.............................................................................................................................................................................",
"o o o o o o o o X o o X o o o o o o o o o o o o o o o o o o o X o o o o o o o o o o o o o o o o o o o o o X o o o o o o X X o o o o o o o X X o o X X X X X X X X X X X X X X X . @ 2 M M m m m m m m m m m m m m m m m m n m m m M M M M M b b 2 < b L L B N N N m m m m m N N N N m m m m N m m N m m m N m n m m m m m m m C N N m m m m m m m N m m m m m m m m m m m N N m m m m m m m m m m N N m m m m m m N m m m N N m m m N m m m m m m m m m m m m m m m C m m m m m m m m m m m m m m N N N m m N N N m m m m m m m N m m N C N m Z Z C C m C C C C Z m m Z Z m m N m N N m m m Z N m C Z N m N m N m Z Z N m N N N N m m m N m C Z C Z A C C m m m C C N C Z N Z N Z Z A C C m m m C Z Z Z Z C N N Z A Z N C m C m C C C C N C N m m m N N N N N N N C C C Z C C C Z Z C m C N C N N Z C Z Z C Z Z C C Z S S S S S N M 2 # # O O & O = : = : O a oX#X#X#X&X#X&X&X&X#X#X$X#X#X#X#X#X#X#X#X#X&X&X&X&X&X$X#X$X*X$X$X&X&X*X*X#X&X&X&X$X&X$X&X&X#X&X&X&X&X&X&X*X=X&X&X&X&XoX~.N.S.G.A.F.F.Q.Q.G.A.G.F.F.G.F.G.G.F.F.G.A.F.G.!.Q.G.G.G.G.G.G.F.G.G.G.G.F.F.A.A.G.G.G.G.F.A.A.G.G.G.G.F.G.G.G.G.Q.G.G.G.G.G.F.F.F.F.G.G.G.G.F.A.F.A.G.F.F.F.G.Q.G.Q.G.Q.S.S.s @ = = : = O O = : & O O O = = O O O O : = = : O O O O O & O O O : O O = : O O O o O O = & O O & & & O O O & O o O O & & O & & & = : = O : : : = : : > > > J.=X&X=X$X$X X XU.Y.$.#.o.o.o...................................O...+.X.X.$.$.$.Y.U. X%X%X%X%X&X$X*X*X$X$X&X&X#X#X#X|.{.'.D.1.Z.3.3.3.1.2.2.<.W R T I e 4 4 1 1 1 2 5 F $.%.+.X...X.O.........O.O...O.................O...+...O.....O...O.X.X.+.+...X.X.$. .! 2.3.Z.H.F.G.G.G.Q.Q.G.G.Q.Q.Q.G.G.Q.!.^.^.E # O O O O O O o o o o o o o X o X X X o o o o X o o X o o o o o o O O o o o o X o X X o O O O o o o X X X o X X X X X X X X X X X X X X X                   . . q #.X.....O.............................................................................................................................................................................",
"o o o o o o o o o o o o o o o o o o o o o o o o o o o o o o o o o o o o o o o o o o o o o o o o o o o o o X X o o o o o X o o o o X o o X X X X o X X X X X X X X X X X X X X o @ , b M m n m m m m m m m m m m m m m m m m m N N N N N m B M M v b I b K v B L B B N N m m m m N N m m m m m m m m m m m m m m m m m m A N m m m N m m m n m m m C N m m m m m m m m m m m N N N N m m m m m m m m m m m m m m m m m m m N Z N m m m m m m m m m m m m m N N N m m m N m N m C Z m m m m m m m m N N N m m m m m m m m m m m m m m m N Z Z C C m C m m C Z Z C C C m m Z N N m m Z m m Z N N C m m C Z N N m m m C Z Z m m N m C Z m m C m C C Z C Z Z C m C Z C Z Z N C N Z N C C C C N C C N m m m m Z C N m C Z Z C C C C C Z C C C C Z Z Z m N m m m m m N m m m m C C m C Z C C C Z C N N Z A A A A N m m N m C Z A Z Z S N v , # = O O O O & = O O X g $XoX#X#X&X#X#X#X$X$X&X&X&X#X#X#X#X#X#X#X#X#X#X#X#X$X#X#X$X$X$X*X*X&X&X&X&X&X*X&X&X$X#X$X&X#X#X#X&X&X&X*X*X*X&X&X&X&X#X'.J.S.Q.G.A.A.F.G.G.G.G.F.A.F.G.G.G.G.F.Q.Q.F.F.G.Q.Q.Q.G.A.G.F.G.G.G.G.G.G.G.F.F.F.F.G.G.F.G.A.A.F.F.F.G.G.G.G.G.Q.Q.Q.Q.Q.Q.G.G.G.A.F.A.F.G.G.F.F.G.G.G.F.F.Q.G.A.G.G.G.Q.S.s # = O : : = = : : : : = & O O O O O O O O O : : O O O O O O O & O = O O : : = O O O O & O O O O & = : & O O O O O O O & & O & & O O O O = = : : O = = : > V.*X#X#X|. X XI.#.#.$.X.X.........X.............................O...O.O.+.X.X.@.$.Y.U. X X%X%X%X&X*X*X$X$X$X&X#X#X{.].[.'.D.1.1.2.2.2.R R R R R T I P e 4 4 1 1 1 1 2 5 [ Y.%.X.......O.......O.+.O.O.................O...O...........O.O...X.+.+.X.%.$. .! Z.3.Z.H.H.G.G.Q.G.Q.Q.G.G.Q.Q.Q.G.G.G.G.G.^.T # # O O O O O O O O o o O o o o o X X X o o o o o o o o o o o o o o O o o o X X X X X o o O o o o o o o o o X X X X o X X X X X X X X                       . . J $.X...................................................................................................................................................................................",
"o o o o o o o o o o o o o o o o o o o o o o o o o o o o o o o o o o o o o o o X o o o o o o o o o o o o o o o o o o o X X o o o o o o o X X X X X X X X X X X X X X X X X X o . @ < v M m m m m m m m m m m m m m m m m m N m m N N m m N N N B v I m.W W T I K K L L B M M B m m m m m m m m m N m m m m m m m N m m m m N m m m m m m m m m m m m N N m m m m m m m m m m m N m m m m m m m m m m m m m m m m m m m m m m N m m m m m m m m m m m m m m m m m N m m N m N N C Z m m m m m m m m N Z Z N m m m m N N m m m m m m m m C Z C C C C C m C m C m N m m C C C Z A A C C C m C Z C Z C m m N C m Z C m N N m m m m N m A C m C C C C C m C m m Z Z C C Z Z C C N C Z N C m Z C m N N N m N m m C N N C N C C C C Z C C C C C m m N N m m m m m m m N N m m Z Z C C m C C C Z Z C m C C Z Z Z A C N N N Z Z C Z Z C A B b , # = = = = O & = = = o f $XoX#X#X#X&X&X#X&X&X&X$X&X&X&X&X&X&X$X&X&X#X#X&X&X#X#X#X#X#X#X&X$X&X&X&X&X&X$X&X&X&X&X&X&X&X#X#X#X#X#X*X*X&X=X$X&X$XoX'.D.^.^.G.G.F.F.A.G.G.G.F.G.F.A.F.F.F.G.F.G.G.F.F.F.G.G.Q.G.F.F.A.F.F.F.G.G.G.Q.G.G.F.G.G.G.F.Q.F.F.F.G.G.F.G.G.G.G.Q.G.G.Q.Q.Q.G.Q.G.G.Q.G.F.Q.Q.F.G.Q.G.G.G.F.Q.Q.F.Q.Q.A.S.e @ = = = > : : : = = : : = & = : = : : = : & & = & & O O O O & O & = : = O : : O O O O O O O O = O O & & : O O O & O = O & = O O O O & O : = = : O O & & > P.$X#X|. XU.Y.#.o.o.o.............................................O.O.O.O.+.X.X.X.$.$.Y.U. X X$X$X&X*X$X$X#X#X#X#X{.].[.J.D.D.Z.3.1.2.2.2.<.R R T I I e 4 4 1 1 1 , 1 5 5 F *.$.X.X.X...O.O.....+.O.O...O...O.O.......O...........X...O.......X.%.$. .Q ! 2.2.3.Z.H.H.H.G.F.G.G.Q.Q.Q.G.Q.G.Q.!.Q.Q.F.Q.T # # O O O O O O O O O o o O O O O o O O o o O O o O O o o O o o o o o X o o X X o X o o X o X o X X X X X X X o o X X X X X X X X X X                       . @ G $.X...................................................................................................................................................................................",
"o o o o o o o o o X o o o o o o o o o X o o o o o o o o o X X o o o o o o o o o o o o o o o o o o o o o X o o o o o o X X o o o o X X X X o o o X X X o o X X X X X X X X o X . @ 4 M m m m m m m m m m n m m m m m m m m m m m N N m N N m m B v W (.J.J.N.m.W T I I K b v M B B N m m m m Z C m N m m m m m m m N m m m m N N m m m m m m m N N N m m m m m N m m m m m m m m m m m C Z m m m m m n m m m m m m m m m m m m m m m m m m m m m m m m m m m m m N m A C C m m m m m m N N m m m m m m N N m N m m m m m N N N m m m m N m m C m m C C C C C C N m Z Z Z N m C Z Z N Z m C A N C Z C Z A N C C Z C N N m C C m m m N N N N C Z C C C m m C C C N m m C C N N Z C m m N Z S Z C Z C C N m C C N m Z C C Z C Z A A C C m N m Z m Z N m N m N m m N Z Z Z C m C Z C C C C C Z S Z C N N C C m N N m m N Z Z S Z Z N B 4 # - & = : = = : : = = O f #XoX#X#X#X#X#X&X&X$X&X$X$X#X&X&X&X#X#X#X#X#X#X#X$X#X#X#X#X$X#X#X#X&X&X&X&X&X$X*X$X&X&X&X$X&X=X&X#X#X#X&X*X=X*X$X&X$XoX'.D.^.^.Q.G.G.G.F.F.G.F.G.G.G.F.G.F.G.F.A.A.F.Z.A.Z.Z.F.F.Q.Q.Q.G.A.F.G.G.F.F.F.A.F.G.F.A.F.F.G.Q.F.G.F.F.G.G.G.F.F.G.!.Q.G.Q.Q.G.Q.Q.A.G.Q.G.F.Q.Q.F.Q.G.F.Q.G.Q.Q.!.Q.Q.S.D.e # = = : : = = O O & = O : = = : O & : > O = = O = : : & O O & : : = : : : = : O O o O : = O & : : O : & & = O O : : = O = O O O O O O O : = O & : & O O > [.$X|. XU.#.&.o.X...............................................O...O.+.X.O.O.O.O.X.X.@.$.U. X%X$X$X$X$X#X$X$X#X#X{.{.'.J.N.D.3.3.1.1.2.2.2.2.R R T I P e 4 3 1 1 1 1 2 5 5 q [ %.%.X.X.O...O...O.+.............O.O.O.........O...O.O.O.X.X.X.$.$. .Q W 2.1.3.Z.H.H.G.G.F.F.G.G.G.G.G.G.G.Q.G.G.G.Q.Q.^.R 1 r 3 3 - - - - - # O o o O . . X X o O O O O O O O O O O O o O o o o o o o o o X X o o o X o o o X X X X X X X X X X o X X X X X       X                   . % [ X.....................O...............................................................................................................................................................",
"o o o o o o o o o o o o o o o o o o o o o o o o o o o o o o o o o o o o o o o o o o o o o o o o o o o o o o o X o o o X X o X X X X X X X X X X o X X X X X X X X X X X X X X @ , b M m m m m m m m m m m m n m m m m m m m m m m m N Z N N N M v S.}.'.'.'.'.~.J.N.m.E T I b b L U B B M N N N m m m m m m m m m m m m m m m m Z m m m m N m N N N m m m m N m m N N m m m m m m m m N N m m m m m m m m m m m m N N m N m N N m N m m N m m m m m m m m m m m m m m N C N m m m m m m m m m m m m m m m m m m m m m m m m N N m m C C N m m C C m C m m m m N m m N Z C m N m C C C C m m C N N Z m Z A C m m C C m C Z A C C m m N m N m C Z C A Z m N C Z C C N Z Z m Z N Z Z Z m C Z Z C A C N N m m N N C m m C m C C m C C Z A Z m m m Z Z N C N N m m m m m m Z C m C C C Z C C C Z Z C Z A C m N m N m m N m m N Z N B L , # # = : = : : : : : : O >.*X.X#X#X#X#X#X#X#X#X#X&X&X&X#X&X&X&X$X&X&X&X&X$X&X&X$X$X$X&X#X&X#X#X#X#X$X&X&X&X*X$X#X&X&X&X&X=X=X&X&X&X&X*X*X$X#X#XoX~.D.^.G.G.A.F.F.G.G.F.G.F.F.G.G.G.G.G.G.G.F.F.G.G.G.A.F.Q.F.Q.G.F.G.G.G.F.G.F.Q.Q.G.F.A.F.F.G.A.A.G.F.F.G.A.F.A.A.G.G.G.F.F.F.G.G.G.Q.Q.F.Q.Q.F.G.Q.G.G.Q.Q.G.Q.Q.Q.Q.Q.Q.Q.D.3 # = = = O & O & & O O O O O O & & & : = O O O & O O : : = O O = : : & = : : = O O O O O O O & : = & O & O = = O & : : : = O = = : : & = O O O : = = : : > {. X XI.#.&.o.......O...........O.O...O.O.......O.............O.O.O.X.+.+.+.O.O.O...X.X.o.$.U. X%X$X$X#X&X#X#X#X#X{.{.'.J.m.Z.Z.Z.3.3.2.2.2.<.W R R T I P e 4 3 1 1 1 1 2 2 2 q J [ %.%.%.X.......O.O.O...O.....O.O.O.....X...O.O...X.X.%.$.$. .Q W W 2.3.3.3.3.H.F.F.G.Q.G.!.Q.Q.Q.Q.Q.G.Q.Q.G.F.G.Q.A.4.S.S.S.S.S.S.D.D.m.>.>.E >.>.s s e e r 3 - - # - - O o o = o . . . . X . . . X X o o X X X X X X X X o o X o X X X X X o X X X X X X     X                   . 5  .X.X...................................................................................................................................................................................",
"o o o o o o o o o o o o o o X X o o o o o o o o o o o o o o o X o o o o o o o o o o o o o o X o o o o o o o X X X X X X X X X X X X X X X X X X X X X X X X X X X X X X X X . @ , v M n m m m N N m m m m m m m m m m m m m m m m m m m m m B v U (.{.oXoXoXoX].'.`.~.J.N.m.E T I I K v v M B M N N N m m m m m m N m m m m m m m m m m m m N N m N m m Z Z Z N m m N N m m m m m m N N m m m N N N m m m m m m m m m m N N m m m N N m m N m m m m m m m m m N N m m m m m m m m m Z Z N m m N Z m m m m m m m m m N m m m m m m m m N m C C m C C N C N Z C m m N Z N m m m m N C Z C A C m N m m C Z Z Z C m C C C A Z m C C N N m m m N A C Z N Z N m C Z C C C A Z Z Z Z N N A S C N C C Z C C C m C m C C Z Z C m m C A S Z Z Z C C C m m N Z N m Z C m m N N m C C C m C C C C m C C Z C C Z S Z m Z C N N m m m N A A M b , @ O = = = = : O = : : = n.*X#XoXoXoX#X#X#X#X#X#X$X#X&X&X&X&X$X$X&X*X&X$X*X&X&X&X&X$X&X&X$X&X$X&X&X#X$X&X#X$X&X$X&X$X$X&X&X*X&X#X$X$X&X&X$X#X#XoX~.D.^.G.G.G.F.G.A.F.F.G.F.F.F.G.F.A.F.G.G.G.G.G.F.F.G.G.G.G.G.Q.F.A.A.A.G.F.F.G.F.Q.F.F.F.F.A.G.F.F.G.F.G.A.A.A.F.A.G.F.G.Q.F.F.Q.G.G.F.A.A.G.F.A.A.G.G.Q.G.G.F.G.Q.G.G.G.A.,.1 - : : = = & : = O O O O : = O O = & O O O O : : O O O & & & O O : : : = : : O O O = & O = : & O O = & O & = : : & O : : : : & = O O : : : : = : : O : O > {. XY.#.$.o.......X.X...................O.O...................O.......X.+.+.+...........X.o.$.I. X X#X#X#X#X#X#X#X{.{.`.J.m.Z.Z.Z.3.3.1.1.2.2.<.R R T T P e e 4 1 1 1 1 1 1 5 5 5 5 J  .$.%.%.+.X.+.X.X.X.O.O.....+.+.O.......X.+.X.%.$.$. .Q Q W W 2.2.1.3.Z.Z.Z.F.F.F.G.!.Q.Q.!.Q.Q.Q.G.G.G.G.Q.Q.F.1.Z.S.D.D.D.D.D.D.D.D.D.S.S.S.S.S.S.S.S.D.N.,.,.,.m.,.,.>.,.,.>.s s e e r r r s s 3 o o X X X X X X o o o o X X o o X X X X X X X X X X                       . . 5 &.X.....O...............................................................................................................................................................................",
"o o X o o X o o o o o o o o o o o o o o o o o X o o o o o X X o o o o o o o o o o o o o o o o o o o o o o o X X X X X o X o o X X X X X o X X X X X X o X X X X X X X X X X . @ 2 v M n n m m N m m m m m m m m m m m m m m m m m m m m m m M v D.}.oXoXoXoXoXoX.X].].'.[.~.J.V.N.m.E T I K b b L M M N N m m m m m m N m m m N m m m m N N m Z Z m C Z m N m m N m m m N N m N m m N Z N m m m m N N m m m m m m m m m N N m m m m m m m m N m m N m m m m m Z Z N C C N N m m m C Z Z m m m m N m N m m m m m m m m N N m m m N m m N N N C Z Z Z m N Z A Z N m Z N m m m N m N m C C C C m m m Z S A A C m C m m N N C N N m m N m m m N Z Z N N C Z C m m N C C Z C Z C C Z C m Z Z N m C m C C m C Z Z C C C m m m C m Z Z C N m m C m m m m m Z C C C N m m N N N C C m C Z Z Z Z N m C Z C m N A Z C m C Z Z Z N N A N M 2 @ @ O O O : : = : = = > : C.$X#X#X#X#X#X#X#X#X#X#X$X#X#X#X#X#X#X&X#X$X&X#X#X*X&X&X$X$X$X$X&X$X#X&X&X#X#X&X&X&X$X*X*X&X&X#X#X&X&X#X#X#X&X&X$X#XoX{.~.D.^.G.G.F.A.F.F.F.F.F.G.F.F.G.G.F.F.A.F.F.G.F.F.F.G.F.F.G.Q.F.G.F.A.A.F.F.F.F.G.G.Q.G.A.G.G.G.F.F.G.G.Q.Q.Q.G.F.G.F.G.G.F.G.G.F.G.G.G.G.G.G.G.G.F.A.A.G.G.G.F.F.F.G.G.A.A.<.- = : = = = & O O O O O O O = : O O O O O O : = & = O O = : & O O O : = = = O & O O o O O O O O & & O & O & = : : : : & : O & = = = O O O O & : > : & : O 9  XI.#.$.X...........X.X...................O.X.............................X.........X.....X.o.#.I.U. X$X$X$X#X#X#X#X{.'.J.m.Z.Z.3.Z.3.1.1.2.2.<.W R R R I P e 4 3 3 1 1 1 1 1 1 2 2 5 5 J [  .%.%.%.%.%.+.+.X.+.X.X.X.+.+.+.%.%.%.$. .[ Q Q W W 2.2.2.1.3.3.3.Z.Z.F.F.F.G.Q.G.Q.Q.G.Q.Q.Q.G.G.Q.G.G.!.1.A.!.Q.Q.Q.Q.Q.G.G.Q.S.S.A.S.S.S.A.A.A.Z.Z.D.D.S.S.S.S.S.S.D.D.S.D.D.D.D.D.D.D.D.,.# o o o X X o X o X X X X X X X X X X X X X X X X X X                     . . q o.X...O.O.......................................................O.....O...................................................O...................................................O.........",
"o o o o o o o o o o o o o o o o o o o o o o o X o o o o o o o o o o o o o o o o o o o X o o o o X o o o o o o X X X X o o X o X X X X X X X X X X X X X X X X X X X X X X X . # b v M n n n n m m m m m m m m m m m m m m m m m m m m m m m M K K.}.oXoXoX#X#X+X#X.X.X.X.X].].'.`.~.J.N.m.>.T I K b b v L L B N N N Z Z m m m m m m m N m m m m Z Z N N C N N m N N m m m m m m m N N Z N m m m m N N N m m m m N m m m m m m m m m m m m m m m N m Z m m m Z N m C C C m m m m m m m C N m m m m m N m m m m m m m m m m m m m m m m m m m C N N m m m N m m m m N m N m N N m N N m C C C m m m m m m N A Z Z m N N m N m m m m N N N N m m C m N m m N m m m N C Z m N C C A C C m Z Z C C C C C m C C C Z C C Z C C C C C m m m N N m m N N N C N m C C N N N m m N N C Z C Z Z Z Z N N C C C C C C C N C N N N Z Z N N M v , # = O O O O = : = : : : : V.$X#X#X#X#XoX#X#X#X#X#X#X$X&X#X#X#X&X&X&X#X&X&X#X&X*X&X&X*X*X=X*X$X$X#X&X$X$X$X$X&X&X$X*X=X*X$X&X$X&X#X&X&X$X&X$X$XoX'.J.D.^.S.G.F.G.G.F.F.G.G.F.G.F.F.G.Q.Q.Q.G.G.F.G.G.F.F.G.F.A.F.G.A.F.G.G.A.G.G.G.Q.Q.G.Q.G.A.G.A.G.F.G.G.F.Q.Q.G.F.Q.F.F.F.G.G.F.G.G.G.G.F.Q.F.G.G.Q.G.F.F.G.Q.Q.G.Q.F.G.S.Z.,.- = = = : : : & O O O O O O O = O o O O O O : = O = : & = & O O & & & : : : = & : & O O O O O O & & & & O & : : & & : = : : & & = = : : : : : : : : = = # q I.#.o.X.X...........................O.O.....O.O.O...................O.O.....O.O.....X.X.....X.o.$.U. X X|.#X#X#X#X{.{.'.J.m.Z.H.3.Z.3.3.1.1.2.2.<.R R R T I P e 4 4 3 1 1 1 1 1 1 2 2 5 5 5 q J `  .#.$.%.%.%.%.%.%.%.%.$.$.#. .[ Q U U U W W W 2.2.1.3.3.Z.H.H.Z.A.F.F.F.G.G.G.G.G.G.G.G.Q.G.G.Q.G.Z.2.3.!.Q.Q.Q.Q.Q.Q.Q.Q.^./.^.^.Q.Q.!.Q.Q.Q.G.G.S.G.G.G.S.G.G.S.G.A.A.A.A.Z.A.A.Z.D.,.- . X X X X X X X X X o o X X X X X X X X X X o o X X                     . @ G $.X.X...O.O...............................................................................................................O.............................................................",
"o o o o o o o o o o o o o o o X X o o o o o o o o o o o X o o o o o o o o o o o o o o X o o o o o o o o o o o X X X X X X X X X X o o X X X X X X X X X X X X X X X X X X . @ , v M n n n m n n m m m m m m m m m m m m m N m N m m N m m N v R }.oXoX#X#X#X#X.X#X#X#X.X+X.X.X.X].'.'.'.`.J.V.m.>.E I I K K L L L B B A m N N N N m N m N N m m m N N m Z Z C N m N N m m m m N N N m m N m m m m N m m m m m m Z Z C m N m m m m m m m m m m m m N N N m N C m m m m m m N N m m m N m m Z Z N N m m m m m m m m m m N N N m m m m m m m m m m m m m m m m m m m m m m m m m m m N N N N N C N m C C Z N N Z Z C m N m m m m m m Z C m C N C m m m m N Z N m m m m N N N C N N C m m Z C C C m C C m C C C Z S Z C C C C m C m m N N m m m C Z m N N C Z C C C N m N N C Z A Z N C N N Z N N N N m C m C C C C C C C m N m B b # # O & O = = = = = = : = > `.$X#X#X#X&X#X#X#X#XoX#X#X&X&X#X#X#X&X&X$X$X#X$X#X#X*X*X&X&X$X$X&X$X$X#X&X#X#X&X&X&X$X$X*X&X*X*X&X$X&X#X#X#X$X&X$X#X#X'.J.D.S.Z.Q.F.A.G.F.G.F.G.G.F.F.G.G.G.F.G.Q.G.G.G.F.G.G.G.G.F.G.G.Q.F.F.G.F.F.F.F.F.F.G.G.G.A.Z.G.G.F.F.G.G.F.F.G.G.G.Q.G.G.A.F.G.A.G.G.A.F.G.Q.Q.G.G.G.G.G.G.G.Q.Q.Q.Q.Q.G.Z.E # O O O = : : : O O O O O O O O o o o O o O O O & : : & = O O O O : & : & O & & O & O & & O & & O = : O & O & O & : : > : = = = = O = : : : : : : & & = @ 5 #.o.o...............................O.O.+.+.O.+.+...+.O...........O.O.O.........O.O...........X.o.$.U. X X#X#X#X#X{.{.'.J.m.Z.Z.Z.3.3.1.3.1.2.2.<.<.R R R T I e e 4 4 4 3 1 1 1 1 1 1 1 1 2 5 5 5 5 q J J F ` [  .[ F F F J J K K U R R R W <.2.2.1.1.3.3.Z.H.F.F.F.F.G.F.F.G.F.G.G.G.G.Q.G.!.G.Q.G.F.3.A.G.Q.Q.Q.Q.Q.Q.Q.^.Q.^.^.Q.Q.Q.Q.Q.Q.^.^.^.Q.Q.G.G.Q.Q.Q.G.G.F.A.G.Q.Q.Q.F.A.S.,.- X X o X o X X X X X X X o o X X X X X X X X X X X                     . . # [ %.X.................................................O.O.................................................................................................................................",
"o o o o o o o o o o o X o o o o o o o o o o o o o o o o o o X o o o o o o o o o o o o o o o X o o o o o o o X X X X X X o X o X o X X X X X X X X X X X X X X X X X X X X . @ 2 M M m m m m m m m m n m m m m m m m m m m N N m m m m m m M v 2.OXoXoX#X#X+X#X#X#X#X#X#X#X#X#X+X].oX].].].].'.`.~.V.N.m.E T I I K v L L B N A N N N N N N m m m N m m m m N N N m m m m m m m m m m m m m N m m m Z m m m m m m m N N m N C C m m m m m m m m m m C C N m C N m m m m m m m m m m m N C m m Z Z N m m m m m m N m m m m m m m m m m m m m m m m m m m m m m m m m m m m m N m m m m m m m N m N m m Z m C N N m Z C C N m m m m m C A C C Z N m m m m m N N N N m m m N N N C Z m Z Z C C m N m C C Z C C m C C Z A Z N Z Z Z C m m N m m m N C C N C C Z Z C N m m m m C C C Z C N N m N N Z N m m m C Z C m m m C C Z A N B 4 @ # o o O O = = = = = : = > [.$X#X#X#X&X#X&X#X#X#X#X#X$X&X#X#X#X&X&X#X&X&X#X#X$X&X*X*X*X&X#X#X#X$X&X$X#X#X#X#X$X*X*X*X&X&X*X=X*X&X&X&X&X$X*X$X$X#X{.J.D.^.A.A.Q.G.F.G.F.G.G.G.G.F.G.A.G.F.F.F.G.G.G.F.F.G.G.Q.G.Q.G.G.G.F.A.G.A.F.F.G.F.F.G.F.G.F.Z.G.G.F.G.G.Q.Q.G.G.F.A.F.G.G.Z.F.G.F.G.F.F.G.G.G.Q.G.G.G.F.F.F.G.Q.G.Q.Q.G.Z.E # = & O = : : O O & O O O O O o O O O O O O o o O O & & & O O O O O & & = O & & O & : & : : : : & O O O : & & & O O & : : : : = = & O = & O & = : : = % @ 8 #.X...............................O.O.+.+.O.+.+.+...O.+.O...X.O.O.O.+.O.....................X.X.X.o.Y.U. X|.$X#X#X#X{.'.J.N.Z.Z.Z.Z.3.3.1.1.2.2.2.,.<.R R T T I I e e 4 4 4 3 1 1 1 1 1 1 1 1 1 2 2 2 5 5 5 5 5 2 5 2 4 4 b I I U U R W <.<.2.2.1.3.3.3.3.Z.H.A.F.G.Q.Q.!.Q.Q.Q.Q.Q.G.G.Q.G.F.Q.Q.G.G.F.F.F.G.Q.Q.G.G.G.Q.G.G.G.Q.^.Q./.Q.G.S.S.S.G.Q.Q.G.G.Q.S.Q.Q.G.Q.F.G.G.Q.Q.G.G.G.D.- X o X X X X X o X X X X X X X X X X X X X X X X X                     . . %  .X.X...............................................................................O...............................................................................................O.O...",
"o o o o o o o X o o o o o o o o o o o o o o o o o o o o X o o o o o o o o o o o o o o o X X o X o o X o o o o X X X X X X X X X o X X o X X X X X X X X X X X X X   X X X . # b M n m m m m m m m m n n m m n n m m m m m m m C m m m m m M K K.OXoXoX#X#X#X#X#X#X#X#X#X#X#X#X#X#X#X#X#X.X.X.X].].[.`.~.J.V.N.m.E T I K K M L L B N N N Z m m m m m m m m m Z C m m m N m m m m N m N N N m N N m m m N m m m m m m m m m m N N m m m m m m m m m m m m m N N Z m m m m N m m m m m m C N m N C m N m m m m m N m m m m m m m N m m m m m m m m m m m m m m m m m N m N N m N m m m C m N N m m m m N Z C N C m C Z N m m m m m m m N Z Z N N m m m N m m m m m N N N N m C C C Z C A C C C Z Z C C C A A m m m C C Z Z C C Z A C C C C N N m C C C C C C C Z N m m m m m m m m m m N N N m N N Z N m N Z C Z C Z Z Z C A N v , @ # o X O O O O : = : : = r ].#X#X#X#X#X$X&X&X&X&X#X&X#X#X#X#X#X#X#X#X#X$X$X#X#X#X#X$X&X=X*X&X$X#X$X$X$X#X#X#X#X#X#X$X$X#X&X&X&X&X&X&X*X&X&X&X#X#X'.J.S.^.F.F.A.G.G.F.G.G.G.G.G.F.F.A.F.G.G.G.G.G.G.Q.G.G.F.F.Q.Q.Q.F.F.F.G.F.F.A.F.A.F.F.F.F.G.G.G.A.F.G.G.Q.F.G.G.G.Q.G.A.F.Q.G.Z.G.F.G.G.G.G.G.G.Q.Q.Q.Q.Q.Q.F.F.Q.Q.G.G.G.S.E @ = = = = & O O O O & O O O O O O O O O O O O O O = & : & O o O O O & : : : O O O O : : = : & & & O O O & = = & & = : : : = : : O : = O & = O = : = = @ 5  .@.X.....................................O.+.O.+...+.+.O.O.....O.O.O.O.O.......O.....O.........X.X.X.$.Y. X X$X$X#X#X{.'.D.N.A.Z.Z.Z.Z.Z.1.1.1.1.2.,.<.<.R R R T I I e e e 4 4 4 3 1 1 1 1 1 1 1 1 1 1 4 4 4 4 4 4 4 4 K K I I T R R R <.2.2.2.1.3.3.3.H.H.Z.F.A.H.F.G.G.G.Q.Q.!.!.Q.Q.Q.G.G.G.Q.G.G.Q.Q.G.F.G.G.Q.Q.Q.F.Q.G.Q.Q.G.G.Q.^.^./.^.^.Q.G.S.G.Q.Q.Q.G.G.Q.Q.G.G.G.G.F.Q.G.G.A.D.3 . o o X X o o o o o X X X X X X X X X X X X X X X                     . . q &.X.....................O.........................................................................................................................................................O.O.O.O.",
"X o o o o o o X X o o X X X X X o o o o o o o o o o o o X o o o o o o o o o o o o o o X X X o o o o o o o o X X X X X X X X X o o o o o X X X X X X X X X X X X X       . @ , v B m m m m m m m m m m n n n n m m m m m m m m m m m m m N v R OXOX$X#X#X#X#X]..X#X#X#X#X#X#X#X#X#X#X#X.X#X#X#X#X].].].].'.'.`.J.J.N.m.,.W I I K L L L B B N N m N m m m m N C C Z N m m m m m m m m m m m m m N N m m m m m m m m m m m m m m m m m m N m m m m m m m m m m N N m m m C N N N m m m m m Z N m m C C m m m m m m N C N m m m m m N m m N N N m m m m m N N m m m m N Z N N N m m m m C m N N C m m m m Z Z N N N m Z Z m m m m m m m m m Z A N m m m N N N m m m m N C C C C C m C C Z C N C A Z C C C Z Z C C C C C C A S m Z Z m C C m m N C C C C Z A Z C m N N N m m m m m m m N N m Z N m m C N m m C C S Z S S Z Z N B b , # O O O O O O O O O = : = a #X#X#XoX#X#X&X$X$X&X$X$X&X&X#X&X&X#X#X#X#X#X#X$X&X#X#X#X$X$X$X*X*X*X$X#X$X$X#X$X#X#X#X#X#X#X$X$X$X#X&X*X#X#X$X$X&X$X#X'.J.S.^.A.F.G.F.F.G.G.G.F.F.F.F.G.G.F.G.F.F.F.F.F.G.G.G.F.A.F.G.Q.G.F.F.G.F.F.F.F.F.F.G.G.F.F.F.F.G.G.F.F.G.G.G.F.G.G.G.Q.F.A.G.G.F.G.F.G.G.F.G.G.G.G.Q.!.Q.Q.Q.G.G.G.G.G.F.A.E @ = = & O O O O O O O O O = & O O O O O O O O & O O O O O o O O O O O : : & O O O O O O O & = O O O & : & & & O O : : : = & : O & = = O O O O = = = % # [ $.X.X.......................................+.+.+.+.+.+.........................................O.O...o.$.U. X|.$X$X#X{.[.D.D.A.Z.Z.Z.Z.Z.3.1.1.1.1.2.2.,.<.R R R T T I e e e e 4 4 4 3 3 3 3 1 3 1 3 3 3 4 4 4 4 e e e P I I R R R R <.<.2.2.3.3.Z.Z.Z.A.G.F.F.F.G.F.F.F.F.G.G.G.G.Q.G.G.Q.G.Q.Q.Q.Q.G.Q.G.F.F.A.F.G.Q.Q.Q.^.Q.Q.Q.G.G.Q.Q.Q.^./././.^.Q.^.Q.Q.Q.Q.G.Q.G.G.Q.F.G.G.F.G.A.D.3 . o o X o o o o o o X X X X X X X X X X X o X X X X X X             . . . 0 $.X.........................O.............O.........................O.O.O.O.O...........................................O.................................................................",
"o o o o o o o o o o X X X X X X o o o o o o o o o o o o o o o o o o o o o o o o o o o X X o o o o o o o o o X X X X X X X X X o o o X o X X X X X X X X X X X X X X     . @ 2 v m m m m m m m m m m n n n n m m m m m n m m m m m m m m N v 1.OX$X$X$X#X#X#X#X#X.X#XoX#X#X#X#X#X#X&X#X.X#X#X#X#X#X#X#X#X].].].[.'.`.`.J.J.D.m.W T I I K L L L B B N m m N m m N N S Z m m m m m m m m m m m m m N Z N m N m m m m m m m m m m N m m m m m m m m m m m m m m m m m m m m m Z C N N N m m C Z Z m m m m N m m m m m m N m N m m m N m m N m N m m m C Z N m m m m m N N Z m N N m m m m m N m m N m m m m C C C m m C Z m N m m m N m N m m Z C m C m C Z Z N m m m m m C C Z Z Z m N m m m C Z C Z Z Z Z Z C C C m m N C S Z C Z C m m N m m m C m C Z C C C m N m N m N Z A m m N m m m N Z Z m m N m C C C A Z C Z A S m B 2 # # = = O = = = = O = = = O a #X#X&X#X#X$X&X$X$X&X&X$X#X#X&X&X&X$X#X#X#X#X#X#X#X#X#X#X$X$X$X&X&X$X$X$X#X$X$X*X$X*X*X*X#X#X*X*X*X*X$X*X*X$X$X$X#X#X#X'.D.S.^.G.G.F.G.Q.G.G.G.G.G.G.G.G.A.G.F.F.F.G.G.F.F.F.G.F.F.F.G.G.G.F.G.G.F.F.F.F.G.G.G.G.G.G.Q.G.G.G.Q.F.F.F.Q.G.G.F.G.F.Q.G.F.F.G.G.G.F.G.G.Q.G.G.G.G.G.G.Q.Q.F.F.S.F.G.A.D.T @ = : = & O O O O O O O O O O & O O O = & : = : : O O & : O O o o O O O O & O O O O O O O & O & & O o & : : : O O O O O & = O = = O O = O O & & = % % q #.$.......................................O...O.O.+.+.O.O.O.O.........................O.................X.$.Y. X X|.$XoX].'.N.D.A.A.Z.A.Z.Z.Z.3.3.3.1.1.2.2.,.<.R R R T T I P e e e e 4 4 4 4 4 4 3 3 4 4 4 4 e e e P P I I T R R R R <.,.,.2.2.4.4.Z.F.F.Z.F.G.G.F.G.G.G.G.A.A.F.A.A.Q.G.G.Q.Q.Q.Q.!.Q.G.F.G.Q.G.G.F.A.F.Q.Q.Q.Q.Q.^.^.Q.^.^.Q.Q.Q.Q.Q.^.Q.G.A.F.F.G.G.G.G.G.G.G.A.F.A.A.D.,.- . X X X X X X X X X X X X X X X X X X X X X X X X                     . @ Y $.X.....O.O...............................................................................................................................................................................",
"o o o o o o o o o o X o o o o X o o o o o o o o o o o o o o o o o o o o o o o o o o o o o o o o o X o o X X X X X X X o o o o o X X X X X X X X X X X X X X X X X X   . . # b M N m m m m m m m m m n n n n n n m m m m n n m m n m m N B v S.OX#X&X#X#X#X#X#X#X#X#X#X#X#X#X#X#X+X#X#X#X#X#X#X#X#X#X#X#XoX#X#X].].].].[.'.`.`.J.J.m.,.T I I K L L L L B N N N m m N A N N m N m m m m N m m m m m m N N m N N N m m m m m m N N N m m m m m N Z N m m m m m m m m m N N m N C m m N N N m Z Z N m m m m m m m m m m N m N m N m m m m N m N m m m N N N m m m m C Z N m N m C m m m m N Z Z m m C Z C C N C C C m C C N N N m C C m N m N m m Z m m N N m m m m N N N N m m C C m m C N m N C N N N C Z Z C C N m m C C C Z C Z C C m N N N N m m m C Z C C C N m m m N N C N C C m m m m N Z Z C Z C m m C C Z Z Z Z N B M < @ # & : : = : : = = = = = O a #X$X$X$X#X#X$X&X$X&X#X&X#X&X#X#X$X$X#X#X#X#X#X#X$X#XoX#X$X$X$X&X*X*X$X$X#X$X$X#X$X*X*X$X$X$X$X$X$X*X$X#X*X*X*X*X$X#XoX'.N.S.^.G.G.G.F.G.G.G.G.G.G.G.G.G.F.A.G.G.G.F.F.G.G.G.F.G.G.G.G.G.A.F.F.G.G.G.G.G.G.F.G.G.G.F.A.F.G.F.F.G.G.A.A.G.G.A.F.G.G.G.G.G.G.F.G.G.F.G.G.G.G.G.G.G.F.F.Q.Q.Q.Q.G.F.A.S.T @ = O & & & : = & O O = : = O = & & = O O O O O & O O & & O O O O O O O O O O O O O O O O O & & : : O O & & O O = : & O = O O O O O O O O O = & = % % [ $.X...............................................+.+.+.O.+.+.............................O.............X.o.$.U. X|.#X#X{.'.N.D.A.Z.Z.A.Z.Z.Z.Z.Z.1.1.1.1.2.2.,.<.<.R R T T I I I P e e e e e e e e e e e e e e I I T T T R R R R <.<.2.1.2.1.1.1.4.Z.Z.F.F.A.S.G.G.G.Q.G.G.Q.Q.G.G.G.Q.Q.G.Q.Q.G.G.G.G.G.F.F.G.G.G.Q.G.G.G.G.Q.G.Q.^.Q.Q.Q.Q.Q.Q.G.G.Q.^.Q.Q.G.S.A.F.F.G.F.A.F.G.F.F.A.A.S.,.@ o o o X X X o o o o X X X X X X X X X X X X X X X                 . . . # [ %.X.....O...O.O.....................O...........................O.O.O.O...........O.................O.....................................................................................",
"X o o o o o o o o o X X o o X o o o o o o o o o o o o o o o o o o o o o o o o o o o o o o o o o o o X o X X X X X X X o o o o o X X X X X X X X X X X X X X X X X X X . @ , v M N m m m m m m m m m n m n z n m n m m m n n m m m m m N M U (.$X$X#X#X#X#X#X#X#X.X#X#X#X#X#X#X#X#X#X#X&X#X#X#X#X#X#X#X#X#X#X#X#X#X].].#X].].].].'.`.J.J.N.,.E I I I I L M L B N N m m m C N N N m m m m N m m N m m N N m N m m m m N N m m N C C N m m m m C N C Z N m m m m m m m m m N m N m N m m m m N Z N N N m m m m m m m m m m m m m m m m m N m m m N N m N N m m m C C N m m m m m m m m m m m C m m C Z C Z C Z C C C C m N N N m Z Z N Z Z C m N A Z N m m m N m N N m m Z Z Z Z m m N N Z C m m N N m m C Z A N N C m C C Z Z Z C C C m N C C C m Z C C C C C C C N N m m N N N N C N Z C C m m A A C C C C C C Z A N N N M v 2 1 > > > : - - = = = = = = o g $X#X$X#X$X#X#X#X$X$X$X$X&X&X&X&X#X#X#X#X#X$X&X$X$X$X$X$X#X#X#X#X&X*X$X$X$X$X$X$XoX$X$X$X$X$X$X$X$X$X$X$X*X*X*X*X$X#XoX'.D.S.^.G.G.!.F.A.F.G.G.G.F.F.G.A.G.G.Q.G.F.F.F.G.G.F.A.F.G.G.Q.G.G.A.A.A.A.F.G.G.F.A.F.G.G.G.G.G.F.F.F.G.G.G.F.A.G.F.F.G.G.G.A.G.Q.G.G.G.G.G.F.F.G.Q.G.Q.G.A.A.G.Q.Q.Q.F.S.S.e # = O & & O O : : O : O = : : : : = : = = = O O O O O O O O O o O O O O O O & & : O O O O & : : : & O O O O & O O : : = : : : O O O O O o O + O # # 5  .X...........................O.....................+.+.O.O.+.+...O.X.............O.O.......O.O.............o.o.Y. X X|.#X{.~.N.D.A.Z.Z.A.A.A.Z.Z.Z.3.3.1.3.1.1.2.2.<.<.R R R R T T T I P P e e e e e e e e P I P T T T R R R R <.<.,.2.2.2.1.4.Z.F.Z.Z.Z.A.A.F.F.A.S.A.G.Q.Q.Q.Q.Q.Q.F.F.Q.G.G.^.Q.G.F.Q.G.G.G.G.G.G.G.F.G.G.G.Q.Q.F.G.Q.Q.G.G.S.^.Q.^.^.^.Q.Q.Q.G.F.Q.F.A.A.F.G.Q.Q.G.Q.G.S.>.# o o o o X X o o X X X X X X X X X X X X   X   X X   X             . . . 5  .X...........................O.......................................................O.O...........O.......................................................................................",
"o X o o o o X o X o o X X X o o o o o o o o o o o o o o o o o o o o o o X o o o o o X o o o o o X o o o o X X X X X X X X o o o X X X X X X X X X X X X X X X X X X   . @ 2 M m m m m m m m N m m m n n n n m m m n m m n n n m m m N M v 2.OXOX$X&X&X#X#X#X#X#X.X#X#X#X#X#X#X#X#X#X#X#X#X#X#X#X&X#X#X#X#X#X#X#X#X#X].+X#X+X#X#X#X].].'.`.~.J.N.m.W E I I K L U B B ~ N N m N N m m m m m N m m m m m m Z N m m m m N m m m m Z Z C Z A m m Z C m m N N N N m m m m m m m N m m m m N m N m N m m m m m m m m m m m m N m m m N m m N N m m m N N m m m m m N N m m m m m m C C C Z C m m m N m C Z C m m Z C C C C N C m C m N C N m N C C m C Z m C m m N m m N m m C Z A A C N N C Z C C C m m C m m N N m N Z C C C C C Z C C C N m N C C N C C Z S C C N Z N N N N N C N C Z m C C S A Z C Z A Z m C Z N A A m N N v U W >.>.>.E f f f f f g g a a a V.#X#X#X#X#X#XoX#X#X&X#X#X&X&X&X&X$X$X$X&X$X$X*X$X*X*X*X$X$X*X$X$X*X*X*X*X$X*X*X*X$X#XoX$X$X$X$X#X$X$X*X$X$X*X*X$X&X#XoX~.D.G.G.G.Q.F.F.G.A.A.G.G.G.G.G.G.G.G.F.G.G.F.F.F.A.A.A.G.G.F.G.Q.G.F.G.A.F.F.F.F.G.G.A.A.F.A.A.F.Q.F.G.G.G.Q.Q.G.F.G.A.G.F.G.Q.A.F.G.G.F.G.A.G.G.A.G.Q.G.G.A.G.G.G.Q.Q.Q.S.S.e # > : : O = O O : = = O O O : : : = O : = & O & : : : : & O O O : O O O O O O O & : O O O O O : & O & O = O O O O O O O : : O O O O O O O O O O # @ G $.o...............................O.................+.X...+.......O.O.......O...O.O.O.............O...O.......o.$.U. X|.#X{.J.m.D.F.A.A.Z.Z.Z.A.Z.Z.3.Z.4.1.2.1.1.2.2.,.,.<.R R R R T T T T T I I T I I I I T T T T R R R R <.<.,.2.2.1.1.1.1.3.3.Z.F.F.A.A.G.F.A.S.F.F.G.Q.Q.Q.Q.Q.Q.Q.Q.G.Q.F.G.!.Q.Q.Q.Q.Q.G.G.Q.Q.F.G.G.Q.Q.G.Q.G.Q.^.Q.G.G.G.F.G.^.Q.^.Q.Q.G.G.S.F.F.F.Q.G.F.G.Q.G.F.S.S.>.@ O o o o X X o o o X o o X X X X X X X X   X X                     . . . q &.X...............O.........................O.........................................O.O.O.............O...................................................................................",
"o o o X o o o o X o o o o X X X o o o o o o o o o o o o o o o o X o o X X o o o o o X X o o o o o o X X X o X X X X X o X o o o X X X X X X X X X X X X X X X X X X . . , b B m m N m m m m N m m m n n n m m N N m m m m m n n n m N B K Z.}.{.$X$X&X&X#XoX#X+X#X#X#X#X#X#X#X#X#X#X.X#X#X#X#X#X#X#X#X#X#X#X#X+X#X#X#X+X#X#X#X#X#X#X#XoX].'.[.`.~.J.J.N.m.W I I b b L L L B N N m m m m m m m m m m m m m N N m m m m m m m N m m m Z S m Z A Z Z N m N N m N m m m m m m m m m m m m m m m m m m m m m m m m m m m N N N m m N m m N N N Z N m m m m m m m m m m m m m m m m N Z Z N m N m m Z m m Z Z N C m N C m m N N N m C m m m m m N C Z N m m m m m N m m m m N m m C C A N C Z C C C m N Z m m m m m m N C Z C Z Z C C Z m N C Z N m C Z C N A Z Z C C N m N C C N C C C Z C C C S A Z C N m m m N m N A m N n L L.J.J.J.J.J.V.V.V.J.V.V.V.V.V.V.].#X#X#X#X#X#X#X#X&X#X#X#X#X#X&X&X$X$X$X$X&X$X$X*X*X*X*X*X*X*X*X*X*X*X*X*X*X*X$X*X*X*X$X#X$X*X$X$X$X$X$X$X$X$X*X*X$X$XoX~.D.S.G.F.G.G.F.G.F.F.F.G.G.Q.F.F.F.G.G.Q.G.G.A.G.G.G.A.F.G.G.Q.G.F.G.G.G.F.G.G.G.F.F.F.G.G.F.F.F.F.A.A.A.F.G.F.Q.!.G.G.F.G.F.G.Q.G.F.F.F.G.F.F.G.G.F.Q.Q.G.A.A.G.G.Q.G.F.S.S.s # = : : = : : : : : O O O O : : O O O O : O = & & O = & O O O O O = = : & O O = : : : O = = O O O O : : : : O & O O o O : : : O O O O O O O + + + % | $.o.......................O...................O...........O.O.O.O...................O.................O.......o.$.I. X|.|.{.~.N.D.G.G.G.A.Z.Z.A.Z.Z.Z.Z.3.1.1.1.1.1.1.2.,.,.<.<.R R R T T T T T T T T T T T T T R R R R R <.<.<.<.2.2.1.4.3.3.Z.Z.Z.F.F.G.F.F.G.G.Q.F.A.F.G.Q.G.G.G.G.Q.Q.Q.F.G.F.G.Q.Q.G.Q.G.G.G.F.Q.Q.Q.F.G.Q.Q.Q.F.A.S.Q.Q.Q.G.A.G.Q.Q.Q.Q.S.S.Q.G.A.A.F.G.F.G.G.G.F.G.G.G.E . O o o o o o o X o o o X X X X X X X X X       X X X X             . . . 8 o.X.....................................................................................................O...................................................................................",
"o X X X o o o X X o o o o X X X o o o o o o o o o o o o o o o o X o o X X o o o o o o o X o o o o o X X X X X X X X X X o o o X X o X X X X X X X X X X X X X X X X . @ < v N m m m m m m m m m m m m n m m m m m N m n n m n n n n M M U K.}.oX#X#X#X#X&XoX].+X#X#X#X#X#X#X#X#X#X#X#X#X#X#X#X#X#X#X#X#X#X#X#X#X#X#X#X#X#X#X#X#X#X|.#X#XoX#X].].'.{.'.'.~.J.N.m.E T I K K K M L B B B N N m m m m N m m N m N m m m m N m m N m m N m m m m Z Z N Z N m m m m N m m m m m m m m m m m m m Z Z m N N m m m m m m m m N m m m m m m m m m Z A Z m m N m m m m m N C N m m m m N N N N C m N m m N m m C C N C N N N N N m N m m m m m N N m m N Z C N C Z C N m m m m m m m m N m Z Z Z A A Z C m m m Z N N N m m N C C Z Z C C C C C N N Z S C m C Z C Z C C C C C C m N C Z Z Z Z A Z m C m C C m N Z C m N N Z N m N v U K.~.'.'.[.'.'.'.'.'.'.'.'.[.[.'.].oX#X#X#X&X&X&X#X&X$X$X$X#X#X#X$X$X$X$X$X$X$X$X$X}.(.}.OXOXOXOXOXOXOXOXOX*X*X*X*X*X*X*X*X*X*X*X*X*X*X$X*X*X*X*X$X$X$X{.~.D.Q.G.F.G.G.G.G.F.G.G.G.F.A.A.F.A.F.G.A.F.G.Q.G.F.G.G.F.Q.F.A.F.F.A.A.G.G.F.F.F.F.G.F.F.A.G.G.G.A.A.A.A.A.F.F.S.G.F.G.G.F.G.!.Q.Q.G.F.G.G.G.G.F.F.G.G.Q.G.G.A.G.Q.Q.Q.G.S.D.r # = O : > : : & : : : : O O O O & O O O O O = & = = : O O O O = O & & O : = = O & : : : O O : : : : : : : : O O O O O O & O O : O O O O O O o O @ 5 #.o.X.......................O.O.O.........O...................O.O.O.O.........X.........O.....O.................X.o.Y.U.|.|.{.J.m.S.G.G.G.G.G.G.Z.Z.Z.Z.Z.Z.Z.4.4.1.1.1.2.2.,.,.<.,.<.<.R R R R T R T R R T R R R R <.<.,.<.<.,.2.2.3.1.4.4.4.Z.Z.Z.Z.Z.A.A.F.A.A.A.Q.Q.Q.Q.Q.Q.^.^.Q.Q.Q.Q.Q.G.G.Q.G.G.Q.Q.G.Q.Q.Q.Q.Q.Q.G.G.Q.G.Q.Q.G.G.G.G.Q.G.G.G.Q.G.F.A.A.G.F.G.F.A.F.F.F.G.S.G.Q.Q.Q.G.S.E @ O o X X o o X X X X X X X X X X X X X   X X         X             . . . F o.o.....................................................................O...........O.......................................................................................................",
"o X o o o o X o o o o X o X X o o o o o o o o o o o o o o o o X X o X X o o o o o o o X X X o o o o o o o X X X X X X X X X X o o o X X X X X X X X X X X   X X X X . @ 4 B m N m m m m m m m m m m m m m m m m m m N m n m m n n n M b Z.}.oXoX#X#X#X#X#X#X.X].].#X#X#X#X#X#X#X#X#X#X#X#X#X#X#X#X#X#X#X#X#X#X#X#X#X#X#X#XoX#X#X#X#X#X#X#X#X#X.X#XoXoX.X].'.`.~.J.V.N.m.E T I K K L L ~ B N m m m N m N N m C N m m m m m N m m m N m m m m N m N m C N m N m N m m m N N N m m m m m m m C Z m m m m m m m m m m m m m m m m m m m m m m m Z Z m N m m N m N Z C m N m m m N N C C N N N N N N Z N m m N C N N N m N N m m m Z N m m m m m m N C C m C Z A Z N N m m N m m m m N m C A Z A A Z Z C N N A N m m m m C m Z Z Z Z C N C C m N C N m m C C m N C C C C m m N C C Z C C A C C C m C m N N C m m Z Z m N m v 2.}.}.{.{.{.oXoXoX].].].].].].].].oX#X#X#X&X#X#X#X#X#X$X$X*X&X#X#X$X$X$X$X&X$X#X$XOX~.D.S.A.A.A.S.A.A.S.S.Q.^.(.(.}.OXOXOXOXOX*X*X*X*X*X*X*X*X*X*X*X*X$XOXJ.D.^.G.G.G.G.G.G.F.F.G.G.G.A.G.F.G.A.F.F.G.F.F.G.G.G.F.F.G.F.F.F.Q.G.F.F.G.G.G.F.G.G.G.F.F.F.G.G.G.F.G.A.A.A.F.S.G.G.G.G.F.G.G.G.G.G.Q.F.F.G.F.F.F.F.F.G.G.G.G.G.Q.G.G.Q.A.D.3 - = = O : = & O O O : O : : O O O O O O O O o O O : O O O & O O & & : = : : = = O = : : O : : : : = : : = & & & O O : : O O : O O O O O O O O # @ 0 $.X.............................O.....O...............................O.O...O.O.................O...O.O.....X...X.X.$.U. X|.{.J.m.S.G.G.G.G.G.S.A.A.F.Z.Z.Z.Z.Z.Z.1.1.3.1.1.2.2.2.2.,.<.<.<.<.R R R R R <.<.R R R ,.<.,.2.2.2.1.1.1.3.3.4.3.3.Z.Z.A.F.A.A.A.G.F.F.S.F.F.Q.Q.Q.^.^.^.Q.^.Q.^.Q.Q.G.G.F.A.A.F.Q.Q.!.!.Q.Q.Q.G.G.G.Q.G.G.Q.Q.F.G.Q.G.A.A.F.G.A.G.Q.G.G.F.A.A.F.F.F.G.S.S.G.Q.F.S.S.s o O o o o X X o X X o X X X X X X X X X X X X                       . . @ [ X.............................................................O.........O.....O.................O.O.O.O.....O.O...O.O.......................................................................",
"o o o o o o o o o o o o o X X X o o o o o o o o o o o o o o o o o o X o o o o o o X o X o X X o o o o o o o X X X X X o o o o X X X X X X X X X X X X X X X   X X + . , K L B N m m m m m m m m m m m N m m N N m m m m n m N n n n M K K.OXoXoX#X#X#X#X#X#X#X+X+X#X#X#X#X#X#X#X#X#X#X|.|.#X#X#X#X#X#X#X#X#X#X#X#X#X#X#X#X#X+X+X#X#X#X#X#X#X#X#X+X].#X#XoX.X].].'.'.`.~.J.J.N.,.T I K K L L B m m N N N Z C C m m m m m m m m N m m N m m m m m m N m m m m m m m N m N N m m m m m m m m m C m m m m m m m N m m N m m m m m m m m m m m m m m N m m m m m m m C m m N m m m m C N N N N m m m N N m m m N m m m m N m m N m m m m N m m N m C C N C m N m m m m m N m m m m m m m C Z C Z Z Z Z Z A Z m m m m m m m m C C Z Z m C N N C m m m m m m N C N C m C Z C m m N m m C C C C Z m C N N N Z C Z C m N N m N B H.}.OX{.{.{.oXoXoX{.{.{.{.{.{.oXoXoX#X#X#X#X#X#X#X#X#X#X&X&X$X#X$X$X$X$X$X&X$X#X{.(.S.A.A.A.Z.Z.F.Z.Z.4.1.1.1.Z.D.D.D.D.D.S.S.^.^.^.^.^.^.(.(.(.(.}.}.OX}.^.S.^.G.G.G.G.F.F.A.F.F.G.G.G.A.F.F.F.F.G.F.G.A.A.F.G.F.F.G.G.G.G.G.G.F.F.G.F.G.F.G.F.G.F.F.F.G.G.G.G.G.Q.F.Q.G.G.Q.G.F.G.F.F.G.G.F.G.G.F.A.F.G.Z.F.G.F.Q.Q.Q.G.G.G.F.G.G.A.D.3 - = = & O O O = = : : O O O = & O O O O O O O = & O O o O O & O : : O : : : : : : O O : = O : & & : : & & & & : & O & O O O : : : O O O O + O # # [ $.......................................O...............................O...O...O.........O.....O.O.X...O.O.X.X.X.X.$.U. X{.{.J.m.S.G.G.G.G.G.F.F.S.A.Z.A.A.Z.Z.Z.4.1.4.4.1.2.1.2.2.2.2.,.,.<.<.<.<.<.<.<.,.<.<.<.,.2.2.2.1.1.1.4.1.1.3.3.3.Z.Z.Z.A.F.G.A.F.G.G.Q.G.G.G.G.Q.^.^.Q.Q./.Q.Q.Q.Q.^.Q.Q.Q.Q.Q.Q.Q.G.Q.Q.Q.Q.Q.Q.G.G.G.F.G.Q.Q.Q.G.Q.Q.Q.A.Z.G.G.G.G.G.G.Q.Q.A.F.G.F.Q.G.S.S.G.Q.G.S.s @ O o o o X X o X X X X X X X X X X X X X X X X                     . . % | X.X.........................O.....................................O.....................O...........O.O...........O...O.O...O...............................................................",
"o o o o o o o o o o o o o o o o o o o o o o o o o o o o X o o o o o o o o o o o o X X X o o o o o o o o X X X X X X X X X X X X X X X X X X X X X X X X X     X   + . s I K v M B M N n n M m m n m N N m m m N N m m n m n N m n M v R }.OXoX#X#X#X#X#X#X#X#X#X.X#X#X#X#X#X&X#X#X#X#X#X].#X#X].#X#X#X#X#X#X#X#X.X#X#X#X#X#X#X#XoX#X#X#X#X&X#X#X#X#X.X#X#X.X#X#X#X.X].].'.'.'.~.J.D.m.W I K L N N N Z C Z N N m m m m m m m m m m m N N m m m m m Z m m m m N N m C N m N N N N m m m m m m m m m m m N m m m m m m m m m m m m m m m m m m m m m m m m N N m N m m Z C m m m m m m m m m m m N m N m m m m m m m C N N N N m m m m m m m N m N Z m N C N m m N N C m m m m m m m N m N C C Z C Z Z Z Z Z m m m m m m m N Z Z C m m N m m m N N m N C m m C N m C Z A Z N m m m m C C Z Z m C m m N Z N C m m N Z Z m B ! K.}.OXOXOXOXOXoXoX#X{.{.oX#XoX#XoX#X#X#X#X$X#X#X#X#X&X&X&X*X$X#X$X$X$X$X$X$X#X}.J.D.G.F.F.F.H.F.F.F.G.G.G.F.F.F.F.G.F.A.A.A.A.Z.Z.Z.Z.Z.Z.Z.D.D.D.D.A.Z.Z.S.Q.F.G.F.Q.G.F.F.F.F.G.G.G.A.A.A.F.F.G.G.Q.F.F.F.G.F.Z.F.F.G.F.G.G.G.G.G.G.G.G.G.G.F.F.F.F.F.G.G.A.F.G.G.G.G.G.F.G.G.G.G.G.G.G.G.G.Q.F.F.G.Q.G.F.F.G.Q.Q.Q.G.G.F.Q.G.A.Z.D.3 # = : : = & : : : : : : : : O : : O O O O O : : = = = O O O & & & = O O O O : : : : O O : : & = & & O & O : O O O = : O : : : : : O O O O + & # %  .X...............O.......................................................O.......O.........O.O.......O...O.O.O.....X.$.U. X|.{.J.N.G.G.G.G.G.G.S.A.S.S.Z.Z.Z.Z.Z.Z.Z.Z.4.1.4.1.1.1.1.2.2.2.2.2.<.,.,.2.,.2.2.2.2.2.2.1.1.3.3.3.3.3.3.3.3.3.Z.F.A.A.A.F.F.G.Q.Q.Q.G.Q.Q.Q.Q.Q.Q.Q.!.Q.!.^.Q.Q.Q.Q.^.!.!.!.Q.Q.Q.!.Q.Q.Q.Q.Q.Q.!.Q.Q.Q.G.G.F.G.Q.G.F.G.Q.F.S.Q.Q.Q.G.Q.Q.Q.Q.G.G.S.S.S.G.Q.G.Q.G.^.s o O o o o o o o X X X X X X X X X X X X X X X X                       . 5  .X.X.O.O...........O.O.................O.....................................................................................................................................................",
"o o o o o o o o o o o o o o o o X o o o o o o o o o o o X o o o o o o o o o o X o o o o X o o o o o o o X X X X X X o X X X X X X X X X X X X X X X X X X X X X X   = N.m.T I b b b v v M M M M m m m m m m m m m m m m m n m N m M v 1.OXoX#X$X#X#X#X#X#X#X#X#X#X#X#X#X#X#X#X&X#X#X#X#X]..X+X.X]..X#X#X#X#X#X#X#X].#X#X#X.X.X#XoX#X#X#X#X#X#X#X#X#XoX#X#X#X#X#X#X+X].+X].].].].{.'.'.J.D.W M N N N N N m m m m m m m m m m m m m m m N m m m m m m m m m N N m m N Z C N m m m m m m m m m m m m m m m m m N N m m m m m m m m m m m m m m m m m m m m C Z Z C m C A A Z C m m m N N N m N N m N m m m C Z Z N m C A C Z N m N N Z m m m N N Z Z m C m m N C N N C Z N N m m m m m m N N N N C C C m C A Z N m N m m m Z Z C C N C C N m m m N m Z C N m m N m m m C Z m m N N m m m N Z Z C m m m m m C m N N Z C N N M L W 2.K.(.}.OXOXOX{.{.{.oX{.oX#X#X#X#X#X#X$X$X$X#X#X#X#X#X$X*X#X#X#X$X#X#X#XoX'.D.D.Q.G.F.G.F.H.F.F.F.G.G.G.F.F.G.G.G.G.G.G.G.G.G.G.G.G.G.F.G.G.A.A.A.A.Z.Z.F.F.F.F.G.G.G.F.F.G.G.G.G.G.G.A.G.G.G.G.F.G.A.F.G.F.F.F.F.F.F.F.F.F.F.G.G.G.Q.Q.G.F.F.G.F.F.G.!.G.F.F.G.G.G.G.F.A.F.F.F.G.F.G.G.A.G.G.G.A.A.G.G.G.F.G.F.F.G.G.F.Q.A.Z.Z.,.- = = O O & = = = : : : & : & O O = : O o O : : = : : : : O O O : & O O O O O O O & = : : : : : O O & O & & O O O O & O O = O O O O O O O + O + + 5  .X...............O.O.O.O.............................................O.................O.....O.O.O...O.O.O.O.O.....X.$.I. X|.{.J.D.^.S.S.S.S.A.G.G.A.A.A.A.A.A.Z.Z.Z.Z.Z.Z.3.4.1.1.1.1.1.1.1.2.2.2.2.2.2.1.1.1.1.1.1.1.1.3.3.3.3.3.Z.A.A.Z.Z.A.F.A.F.F.A.G.F.G.Q.Q.G.Q.Q.Q.G.G.Q.G.G.Q.Q.S.G.Q.G.Q.Q.G.Q.G.G.G.Q.Q.F.A.F.A.F.G.Q.Q.Q.Q.Q.Q.Q.G.Q.Q.G.Q.Q.Q.Q.^.^.Q.Q.Q.Q.Q.Q.G.Q.G.G.S.G.G.G.G.S.r o O o o X X X X X X X X o X X X X X X X X X   X                       . q &.X.X.....................................O...................................................................................O.......O.......................................................",
"o o o o o o X o o o o o o o o o o o o o o o o o o o o o X o o o o o o X o o X o o X o o o o o o o o o o X X X X X X o o o o o X X X X X X X X X X X X X X X X X o   a '.~.J.N.m.E T I K b v v M M M M m m m m m m m m m n m m N N M K K.OXoXoX#X#X#X#X#X#X#X#X#X#X#X#X#X#X#X#X#X#X#X#X#X#X#X#X#X.X].#X#X#X#X#X#X#X].#X#X#X#X#XoX#X#X#X#X#X#X#X#X#X#X#X#X#X#X#X#X#X#X#X.X#X#X#X].].{.].'.}.L.L B N m m C m m m N Z Z m m m m m m m m m N C N m m m m m m m m N m m m C m m m m m m m m m N Z m m m m m m N N m m m m m Z N m m m m m m m m m m m m m m m m Z Z N m m C Z Z N N m m m N C C m N C N N N N Z Z Z Z C C A N Z A C Z C A N m m m C Z C N C N m m m m C N N N C Z m m N m m m N m m N m C N m N N N N m m m m m C C C C N Z Z m m m m m C C C m N N m C m m N N N Z Z Z C Z Z Z Z Z C N m N m m m C Z A Z Z N m M M M L U ! L.K.}.OX}.OX{.{.{.oX#X#X&X&X#X#X$X$X$X#X#X$X#X$X*X$X#X#X#X#X#XoX].'.N.D.G.G.F.F.!.G.F.A.F.G.G.G.G.G.G.F.F.F.G.F.F.F.F.F.G.G.G.G.G.G.F.G.G.G.G.G.F.F.F.F.G.G.F.F.G.G.G.G.Q.G.G.G.F.G.F.F.F.G.F.F.F.G.F.F.F.F.F.F.A.F.A.A.F.G.G.G.Q.Q.F.F.G.F.F.G.G.Q.F.G.G.A.F.F.G.F.F.A.F.A.F.G.A.A.F.G.Q.A.S.G.G.G.G.G.G.G.Q.G.G.G.A.A.<.- - & O O = = : : : : = O O O O O O O O O O O & = = & : & & O O O O O O O O O O O O O O : & & O O & O O O O O O O O O : O : O O O O O O O + + + . 5 #.X.................O.O.O...............................................O.................O.....O.+.O...+.......O.+.X.$.Y. X|.{.J.D.^.K.^.Q.G.G.A.S.A.A.A.A.A.A.F.Z.Z.3.3.3.Z.Z.4.1.3.3.4.1.1.4.3.2.1.1.1.3.1.3.1.4.3.3.3.3.3.Z.3.A.Z.Z.F.F.Z.Z.F.F.Z.A.F.G.G.G.Q.Q.Q.Q.Q.G.G.G.G.Q.G.Q.^.Q.G.G.Q.Q.Q.G.F.G.G.G.Q.Q.Q.G.F.F.F.G.G.G.G.G.G.G.Q.G.F.G.G.G.G.Q.Q.G.G.Q.G.F.Q.Q.Q.Q.Q.Q.Q.S.S.Q.Q.G.D.3 o O o o o X X X X X X X X X X o X X X X X                           . . H $.X.....................................................................................................................................O.....................................................",
"o o o o o X X o o X o o o o X o o o o o o o o o o o o X X o o o o o o X o X X o X X o o o o X o o o o o X X X X X X X X o o X X X X X X X X X X X X X X X X X X X X n.oX'.'.'.`.J.V.m.E T I K b b v L M M N N m m m m m m m m m N v U }.OXoX#X#X#X#X#X#X#X#X#X#X#X#X#X#X#X#X.X.X#X#X#X#X#X#X#X#X#X.X.X#X#X#X#X#X#X#X#X#X#X#X#X#X#X#X#X#X#X#X#X#X#X#X#X#X#X#X#X#X#X#X#X#X#X.X+X#X]..X].{.}.W v B m m m m m m N N N N m m m m m m m m m m N N m m m m m m m N N m m m N m m m m m m m m m N Z Z m m m m m N N m m m m m m m m m m m m m N N m m m m m m m m N m m m m N N C N m N m m N C Z Z m N N N m Z N C N C C N C m N Z Z Z N C Z C m m m N C C N C C m m C m N C C N Z Z N N m m m m m m m N N C C m m N N Z m C N m m m N Z C C C m m m N Z Z C C N C m m m m m m N C N m C C C C A Z Z A Z m C C C Z Z Z Z Z A Z N N N m m n n v U W 2.K.}.OXOXOXOX#XoXoX$X#X#X#X#X$X#X$X$X#X#X$X*X$X#X$X#XoXoX{.~.N.D.G.F.F.F.G.G.G.F.A.F.F.G.G.G.Q.G.F.F.G.G.F.G.F.F.G.G.G.G.G.G.G.G.G.G.F.F.F.F.F.F.F.F.G.F.F.F.G.G.G.G.Q.F.F.F.A.A.G.F.G.G.F.F.F.F.G.G.G.G.G.F.G.A.F.G.A.F.G.G.Q.F.A.F.F.G.G.G.G.F.A.A.A.G.F.G.G.F.G.G.G.Q.G.A.G.G.G.Q.G.F.F.G.G.G.G.G.G.G.G.F.A.S.T - - - = - - - : > : : : : : > : : : O O O O O : : = : : = = & O O : : : : O O : O O O O O & O O O : O O O O O o O O O O : & O O O O O O O + + + @ q $.X.....................O.O.................................O.............................O.........O.+.+...O.......X.$.Y. X X{.J.D.^.G.G.G.G.S.A.S.A.A.A.Z.Z.A.F.A.F.Z.Z.Z.Z.Z.Z.3.3.4.4.4.3.1.4.4.1.4.4.3.3.3.3.3.4.3.Z.Z.3.Z.Z.Z.Z.A.Z.A.F.A.F.F.A.A.A.F.F.F.G.F.G.Q.Q.Q.Q.Q.Q.G.G.Q.Q.Q.Q.Q.G.Q.Q.Q.W.Q.Q.G.F.G.Q.Q.G.G.G.Q.Q.G.G.Q.Q.Q.G.F.G.G.F.G.F.G.G.G.G.F.G.F.F.F.G.F.G.G.Q.Q.S.S.G.S.D.1 O O o o o X X X X X X X X X X X X X X X X               X           . @ ` $.X.X.O.......................O...............................................................................................................................................................",
"o o o o X X X o o X o o o o X o o o o o o o o o o o o o o o o o X o o o o o o o X X o o o o o o o o o o X X o o o X o o X X o X X X X X X X X X X X X   X X X X   : `.#X.X].].].'.'.`.J.V.N.m.E T I K b v M B B M B N m m m m N B v 2.OXOX#X#X#X#X].#X#X#X#X].#X#X#X.X#X.X#X#X#X#X#X#X#X#X#X#X#X#X#X#X#X.X#X#X#X#X#X#X#X#X#X#X#X#X#X#X.X#X#X#X#X#X#X.X#X#X#X#X#X#X&X#X#X#X#X#X#X#X#X|.{.K.U M N Z m m m N N m N N m m m m m m m N N N N m N N N m m m m m m m m N N N N N N m m m m m m N m m m m m m m m m m m m m N N m m m m m m m m m m m N N m m m m m N m m m N N C N N C m m m m C C m m m m N m m m m N m C C C C C A Z N N C C Z C m m m m N N C Z Z N m m C N Z C N N N N m Z N m N m m m C C C m m C A A A A C m m m C A C m C m m C C A m m m N m m m m m m m C C m m C C C Z C A Z C Z C C C Z Z C C C C N N N N Z m N m n n n M L U 2.K.(.OXOX$XOXOXOX$X$X$X$X$X$X$X#X#X$X$X#X#X#X#XoX{.{.~.N.D.G.G.G.F.F.G.G.G.G.G.F.F.G.Z.F.G.G.G.G.F.F.F.G.Z.A.G.F.G.G.G.G.G.G.G.G.A.A.F.F.F.G.F.F.A.F.F.F.G.G.F.F.F.A.A.F.F.F.F.F.F.F.A.F.F.F.G.G.G.G.G.F.F.F.G.G.G.F.A.G.G.G.F.G.F.A.A.F.F.G.G.F.F.F.G.Q.G.G.G.G.Q.F.G.F.G.G.G.G.G.G.G.G.G.G.G.G.Q.Q.A.Z.A.,.1 - - - - - - - - - - - # # - - = O O O O O : - : > : : : = = = & O = & : : : = O & O O O : : O : O O : & O O O & O O O O O O O : O O O O O + + @ q $.+...O...............................................................O...............................O.+...........X.@.Y. X|.'.D.D.^.^.^.Q.G.G.F.G.F.F.A.A.Z.A.A.A.A.A.Z.Z.Z.Z.A.Z.3.3.4.3.3.4.4.3.Z.3.3.3.3.3.3.3.3.3.Z.Z.Z.Z.A.A.A.F.A.Z.A.F.F.F.F.A.A.G.F.A.G.G.S.Q.G.Q.Q.Q.Q.Q.Q.S.Q.^.^.Q.W.W.W.~.~.W.W.Q.Q.S.S.G.G.G.F.F.G.A.F.Q.G.Q.G.F.F.G.F.F.Q.F.F.F.Q.G.F.G.G.G.A.A.A.A.S.Q.Q.Q.G.S.N.- o o o o X X X X X X X X X X X X X X X     X                         . %  .X.X.O.O.O.O...................O.O.O...............................................O...........................................................................................................",
"o o o o o o o o o o o o o o o o o o o o o o o o o o o o o X X o X o o o o o o X X o o o o o o o o o o o X o o o o o X X X X X X X X X X X X X X X X X     X   X   g oX].+X#X#XoX].].'.'.'.`.`.J.J.N.>.E I K K K K M L M B N N B B L K.OXoX&X#X#X.X].#X#X#X#X]..X.X].]..X.X]..X+X#X#X#X#X#X#X#X#X#X#X#X#X.X#X+X].#X#X#X#X#X#X.X.X.X.X#X#X#X#X#X#X#X#X#X#X#X#X#X#X#X$X&X#X#X#X#X#X#X#X{.}.L.v B Z Z N m m N N N N N N N m N m N N m m N m C N N Z N N m m m m m m m m N m m N m m m m m m N m C m m m m m m m m m N m m m m m m N m m m m m m m m m N N m N N N m m m m N m N C m m N m m C C m C N m m m m m m m m m C N Z Z C Z N m m m C A C m m m N N N C Z Z N m m m N C Z N m m N C C m N C Z C C Z N m m m N N C Z Z C N N m C C m N N m N m C m m m C N C m m m m C C N m C Z Z C Z Z C Z C Z S Z C m C C C Z C Z m N N Z N N Z N m N m m M M L U ! L.K.}.OXOX$X$X$X$X$X#X$X$X$X$X#X#X#X#X#XoX{.'.~.m.D.G.G.G.F.F.F.G.A.F.G.G.G.Q.G.F.F.F.G.G.F.G.F.G.G.F.G.F.G.G.G.G.G.G.F.G.F.F.F.F.F.F.F.F.F.G.G.F.G.G.F.F.G.G.F.G.G.G.A.G.G.F.F.F.F.A.F.F.G.Z.A.G.A.F.G.G.Q.Q.A.A.F.F.!.F.G.G.F.A.A.G.F.F.F.F.F.F.G.Q.Q.Q.Q.G.F.F.G.G.Q.G.G.G.G.G.G.G.Q.G.G.Q.G.F.F.A.,.,.>.>.>.>.>.T T T s e e e r r 3 3 3 3 3 - - - - - - - - - : > : = : : : > : O = O O O O O : : = O O O O O O O O O O O O O O O O O o O O + + + . q $.+.....O.....................O.......................................................O.....O...........O...........X.@.Y. X|.'.D.S.(.^.^.^.G.S.A.F.F.F.F.A.A.A.F.A.Z.Z.Z.Z.Z.Z.F.Z.3.3.Z.3.3.Z.3.Z.A.Z.Z.A.Z.Z.3.Z.A.Z.Z.Z.Z.H.Z.Z.F.F.G.F.F.F.F.G.Q.G.Q.Q.Q.Q.F.G.G.G.Q.Q.Q.Q.Q.Q.^.!.S.^.^.~.~.~.~.R.R.~.W.W.Q.Q.Q.Q.Q.G.A.F.F.G.G.G.Q.Q.Q.G.F.Q.Q.Q.Q.Q.G.G.Q.G.G.G.Q.Q.Q.Q.Q.G.S.Q.Q.Q.Q.^.,.- O o o o X o o X X X X X X X X X X X X X X X X   X X                   5 &.X...................................O.O...........................O.........O...O.............................................O...............................................................",
"o o o o o o o o o o o o o o o o o o o o o o X X o o o X X X o o X o o o o o o X X o o X o o o o o o o X X X o X X X o X o X X X X X X X X X X X X X X           X n.#X].#X#X|.#X#X{.{.oX].].].[.'.'.~.J.N.m.E T I K K b L U L L L R }.OX#X#X#X#X.X.X.X#X.X.X#X#X#X.X]..X.X#X.X#X#X#X#X#X#X#X#X#X#X#X#X#X#X#X].#X#X#X#X#X#X#X#X#X#X.X#X#X#X#X#X.X#X#X#X#X#X#X#X#X#X#X#X#X#X#X#X#X#X#X#X}.W v B Z Z N N m m m m m m m N m m m Z Z N N m m N m m N m N m m m m m m m m m m m m m m m N m m C Z C C Z m m m m m m m m N m m m m m m m m m m m m m m N N m N N N N N N N m m C A C m m m N m m N N m m N C C N N C N N Z Z C N N C Z N m N N N Z Z C C N N N Z Z C C Z C C N m m N m N C C m m m m C Z C m m m m N m N m m N m m Z C C C m m N C N C C Z C m m C m m m N m m N N N m m Z Z C C m C C Z A C Z C m m C C A N m m C m C C Z N Z N N Z N Z A N N M M U U 2.L.(.}.OXOXOXOXoXoX#X#X#X#X#X#X#X#XoX{.~.N.S.G.A.G.G.F.F.G.G.F.G.F.Z.F.G.G.G.F.F.F.G.F.F.F.G.G.!.G.F.G.F.G.F.F.F.G.G.A.F.G.G.F.G.F.H.F.F.G.G.G.F.F.F.F.G.F.G.G.G.F.G.G.G.F.F.G.F.F.F.F.A.G.G.F.F.F.F.G.G.F.A.F.F.G.G.F.F.F.A.G.Q.G.Q.F.F.A.A.F.F.A.A.G.G.F.F.F.G.G.G.G.F.G.G.G.G.Q.G.Q.G.G.F.S.Z.A.A.A.A.Z.A.A.D.Z.Z.4.4.4.,.4.,.,.,.,.,.,.,.>.>.E E E >.>.s > > : : : = = O O = = & = = & O : : = : : : : = : = O O O O O O O O o o + + o + + . q $.+.O.....O.O.........................................O...............................O.O...O.......O.+.O...O.O.....X.$.Y. X|.'.N.S.^.G.Q.^.G.F.F.F.F.F.A.F.A.A.F.A.Z.Z.Z.Z.A.A.Z.A.3.Z.Z.Z.3.Z.3.Z.Z.Z.A.F.A.A.Z.Z.3.Z.A.Z.A.Z.A.Z.A.A.F.G.Q.F.G.A.F.F.G.Q.G.Q.Q.G.Q.G.Q.Q.Q.Q.^.^.^.^.W.W.~.R.R.R.T.g.h.T.~.W.W.^.^.Q.Q.G.F.Q.G.G.Q.Q.G.Q.G.Q.G.Q.^.Q.G.Q.Q.Q.G.G.Q.G.Q.Q.G.F.Q.Q.Q.Q.Q.G.Q.^.,.- O O o o o o o X X o X X X o X X X X X X X X     X                   . q $.X.........................O.O...............................................O...................................................O.............................................................",
"o o o o o o X X o o o o o o o o o o o o o o o X o o X o o o o o o o o o o o o o X X X o o o o o o X X X X X X X X X X X o X X X X X X X X X X X X X         X   > `.].oX#X{.#X].].].{.oX#X#X.X.X].].].'.`.~.J.J.N.m.E T I K K K b 2.OXoX#X#X#X#X#X#X.X+X#X#X]..X#X#X.X].]..X]..X#X#X#X#X#X#X#X#X#X#X#X#X#X#X#X].].#X#X#X#X#X#X#X#X#X#X#X#X#X#X#X#X#X#X#X#X#X#X#X#X#X#X#X#X#X#X#X#X#XoX(.U M N N A A Z N N N m N m m m m N m N m m m N N m m N m m m m m m m m m m m N Z N m m m m m m m N N m N N Z Z m m N m m m m m m m m m m m m m m m m m N m m N N N N m m m m m m C Z C m C Z m m m N C m m m m m C Z C Z A C Z C Z C N C N m Z C C C C N N N m m m C S Z m N N C Z m m N C C m m m m m C m N N m C C m N C C N m N m m C Z C C C m C m m m Z A C C Z C m m m N m m m m m m C A Z m m m m Z Z m m m C C C C C Z C N C C C C Z Z C C N C A Z Z Z S A N N M M v L R L.K.}.}.OXOX{.{.OXoX$X#X#X#X#X{.~.N.G.^.G.F.G.F.F.F.F.Z.F.G.!.F.F.G.G.F.F.F.F.G.F.F.F.G.F.F.G.F.G.G.G.F.F.F.F.F.F.F.Q.F.F.F.F.F.F.F.G.G.F.F.F.A.F.F.F.F.F.G.F.F.A.F.A.F.Q.G.G.F.G.G.G.G.F.G.G.F.G.Q.F.F.A.F.G.G.G.G.F.G.G.F.F.G.F.F.G.G.G.Q.A.F.F.G.G.G.G.F.G.G.A.G.Q.Q.G.G.G.G.G.G.F.F.G.A.A.F.G.G.G.G.F.F.F.F.A.A.A.Z.A.A.F.A.A.A.A.D.D.4.D.D.D.^.J.>.E f g g g a a a a a 9 > > > : : : : : : : : : : : : : = O = = O O O O o O + + + @ q $.+.O.O.......O.O...........................................................................O.O.X.O.O...........O.+.X.$.Y. X|.'.N.S.^.^.Q.G.G.G.F.F.G.G.F.A.F.F.A.Z.Z.Z.Z.A.F.A.A.F.F.A.Z.F.Z.Z.Z.3.A.A.Z.A.A.F.F.A.A.Z.F.A.A.A.A.F.A.F.G.A.F.G.F.A.F.G.G.A.Q.A.Q.Q.Q.S.!.Q.Q.Q.Q.W.~.~.R.R.R.T.g.g.g.g.g.h.R.~.^.^.Q.Q.Q.!.Q.G.Q.Q.Q.Q.!.Q.G.G.G.Q.Q.Q.Q.Q.Q.Q.Q.Q.G.A.G.F.G.G.G.A.F.F.S.G.S.S.>.# O O o o o o X X X X X X X X X X X X X   X X                     . . . G $.........................................O.O.................................................................O.................................................................................",
"o X X o o X X X o o o o o o o o o o o o o o o X o o X o o o o o o o o o o o o o o X X o o o o o o X X o o o X X X X X X o X X X X X X X X X X X X     X         n.#X]..X#X#X#X#X.X.X].].#X#X#X#X]..X].].].'.'.'.`.~.V.N.m.E T I E J.{.{.#X$X#X#X#X#X#X#X#X#X#X.X.X#X#X#X].]..X.X]..X#X#X#X#X#X#X.X#X+X.X].].#X#X#X|.#X#X#X#X#X#X#X#X#X&X#X#X&X#X#X+X#X#X#X#X#X#X#X#X.X#X#X#X#X&X$XoXOXL.U B m N N C Z Z Z m m m m m m N m m N N m m Z C N C m m m m m m m m m m m m m Z S Z m C N m m m m m m m m m N m m m m N m m m m N N N N Z m m N N m N m m N m Z N N N N m m m C N C C m C C m m m m N m N m m m N N m C A C C Z m C N m m C C m Z C N m m N Z m Z C C Z Z C m C C C m Z C m m C N m m N N N C C N m N m m C N N C C C Z Z A C m m m C Z m C C C C Z C C N m N N m m m m N C Z Z A Z m C Z C C m C C C m m C N m N m C C Z C C Z C C C Z Z Z Z Z C C N Z N m n c c v U W H.K.}.OXOXOX$X$X$X$X#X{.~.N.^.^.!.G.Z.F.F.H.F.H.3.Z.H.F.F.F.F.F.G.F.A.F.F.F.A.F.G.F.G.G.F.G.F.F.F.F.F.H.F.F.F.!.F.F.F.F.G.F.G.G.G.Z.F.F.F.F.F.F.F.F.G.G.G.G.F.G.G.G.F.F.F.F.F.G.G.G.F.G.G.G.G.F.G.G.G.F.G.Q.G.F.Q.G.Q.A.G.A.A.G.G.Q.Q.A.F.Q.G.G.F.G.G.G.G.F.G.G.G.Q.G.G.Q.G.Q.G.Q.Q.F.G.G.G.Q.G.G.G.G.Q.G.G.G.F.A.F.G.G.G.F.F.F.F.A.A.A.A.D.D.~.~.V.V.V.V.V.V.C.C.C.C.n.n.n.n.:.f f f g g a a a 9 > > > : = = = & & & O O o + + @ 5 &.%.O.O.O.....................O.O.............................................................X.........O.O.....O...+.$.U. X{.~.N.^.^.^.G.G.G.G.F.F.F.F.F.F.A.A.Z.A.A.A.Z.Z.A.F.F.Z.H.Z.F.F.A.A.Z.3.A.F.F.A.A.A.Z.Z.A.A.Z.A.A.A.A.A.F.G.G.F.F.G.Q.Q.Q.G.F.Q.G.G.Q.G.G.Q.W.W.W.~.~.~.R.R.T.T.g.g.d.d.l.l.d.i.T.R.~./.!.Q.Q.Q.!.^.!.!.Q.Q.Q.G.Q.G.Q.F.G.Q.^.Q.Q.Q.^.Q.Q.Q.F.Q.Q.G.G.F.A.F.A.Z.Z.S.>.# o o O O o X X X X X X X X X X X X X X X X X                     . . # [ X.....................................O.........................................................................................................................................................",
"o X X X o X X X o o o o o o o o X o o o o o o X X o X X X X o o o o X X o o o X X o o o o o o o o X X o X X X X X X X X X X X X X X X X X X X X   X X   X   X X V.#X.X].]..XoX#X+X+X.X].#X#X{.#X#X+X#X.X].].].].].[.'.`.J.J.N.N.~.'.oX#X#X#X#X#XoX#X#X#X#X#X#X#X#X#X#X#X#X.X.X#X#X.X].#X#X#X#X#X#X#X#X#X#X#X].].#X#X#X#X#X#X#X#X&X#X&X#X#X#X#X#X#X#X#X#X#X#XoX]..X.X].].#X#X#X#X#XoX}.W M N N N N m N N N m m m m m m m m m N N N m C m m m C C m N m m m m m m m m m m N C m C Z m N m m m m m m m m C Z N N N m m m m N m m m N m m m m N m N N m m m m m N Z C m m N m m m C m m m m m m Z N m m m m m m N C m Z C C C N m N m N m C N C C N m m Z C Z Z Z Z N m C N m C N Z C m C N m m m N N N C m N Z N N m N N m C m m Z Z Z Z A m C C S S C C C C C N C C m N m N m m m m m C A A C Z C C Z Z m m N m C C m m C m C C m N N Z C C C C C Z C C C C C C N N m m m n n n M B U ! L.K.(.OX$X$XOXOXOX~.D.^.^.^.G.G.F.F.F.H.G.G.F.F.F.G.F.F.F.F.G.G.G.G.G.F.G.G.F.G.G.F.F.G.F.G.G.F.H.F.F.H.F.Q.G.G.G.G.G.F.F.F.G.F.G.Z.Z.G.F.G.F.A.G.G.G.G.G.F.G.F.G.G.G.G.G.G.F.G.G.F.F.F.F.F.Z.A.A.A.A.G.G.F.G.G.F.F.F.G.F.G.G.F.G.G.G.A.G.G.G.Q.G.G.F.A.A.A.F.G.G.F.G.G.Q.Q.G.G.F.G.G.G.F.G.G.G.G.G.G.Q.F.G.G.G.Q.G.F.S.Q.G.F.G.Q.F.4.S.OX{.oX].[.'.[.[.[.`.`.`.`.`.~.V.V.V.V.V.V.V.C.C.n.n.>.f f g g a a a a 3 > : : > > % 5  .%.X.......O.................O.O.........O...........................................O.O.........O.O.X...O.O.O...X.@.$.U. X{.~.N.S.G.G.G.Q.F.G.G.F.F.F.F.G.F.F.F.A.A.F.Z.Z.3.F.A.A.Z.F.A.F.F.Z.A.A.Z.A.F.A.A.Z.F.F.A.F.G.F.A.F.F.A.G.F.F.F.A.G.G.Q.Q.G.Q.G.G.G.S.Q.Q.W.W.W.~.R.R.R.T.g.g.g.x.l.j.j.l.j.d.g.h.R.~.^.^./.Q.Q.Q.Q.Q.Q.G.A.Q.Q.Q.Q.Q.G.Q.Q.G.Q.^.Q.Q.Q.F.G.G.G.G.G.F.A.A.A.F.A.A.S.T . o o X o o X X X X X X o X X X X X X X   X X     X   X X         . . % [ X...................................................................................................................................O...........................................................",
"o o X X o o X X o o o o o o o o o o o o o o o o o o X o o X X X X o X X o o o o o o o o o o o o X X X o o X X X X X X X X X X X X X X X X X X X   X X X X X X O `.].].#X].]..X.X]..X#X#X.X#X#X#X#X#X#X#X#X#X#X].].].].].'.`.`.`.'.'.oX#X#X#X#X&X#X#X#X#X#X#X#X&X#X#X#X.X#X#X#X#X.X.X#X.X#X#X#X#X#X#X#X#X#X&X#X#X#X#X#X#X#X#X#X#X#X#X#X#X#X#X#X#X#X#X#X.X#X#X#X#X#X#X#X#X#X#X#X#X].{.K.U B N N m A A N m m m m m m m m N m m m m N C N m C N m N C C Z C N m m m m m m m m m N m C N m N N N m m m N m m N A Z m m m m m m m N m m m m m m N m m m m m m m m m N m N m m m m m m N Z m m m m N A Z m m m m m m Z Z N Z C m m m m m m m N m m C m N m m C C Z C Z C m C C C C C C Z Z Z m m N m m m m N m m Z Z Z Z m N m m m Z Z m C Z S Z Z C Z Z C C C C C m N m m m m m m m C N N Z Z A Z A S C C Z C Z C m C N C C A C C C C Z Z Z Z Z C C m C C C C C C C N N m m N Z Z N N N N N B U U W L.K.}.OX}.J.D.^.^.!.Q.G.G.H.G.F.G.G.G.G.Z.Z.F.F.G.F.F.G.G.G.G.Q.G.G.F.F.G.F.G.F.F.F.F.G.G.F.F.G.F.G.Q.F.G.G.G.G.G.G.G.F.F.G.A.Z.G.F.G.F.F.F.F.Z.F.F.F.Q.G.G.G.F.G.Q.G.F.G.G.F.G.G.G.G.G.G.F.A.Z.A.F.F.Q.A.F.G.F.G.F.G.Q.F.G.A.A.Z.F.F.G.G.G.G.G.F.F.F.A.F.G.G.G.F.F.G.Q.Q.F.F.Q.Q.Q.G.G.Q.!.G.G.Q.F.G.G.Q.Q.Q.G.G.Q.G.F.G.F.D.S.OX#X#X#X+X#XoX.X.X].].].].].].].'.[.`.`.`.`.R.V.V.V.V.V.V.C.C.n.n.n.n.E f f g s s s q [ %.+.X.....O.O.............................O...................X.........................O.O.+.+.O.+.X.+.O.O.+.O.+.@.$.U.%X{.~.D.^.G.G.Q.G.G.G.G.G.G.G.F.F.F.G.F.F.F.F.F.A.A.A.A.A.Z.A.A.A.F.F.Z.Z.Z.Z.A.A.A.A.F.F.G.F.G.F.A.F.A.Q.Q.G.G.G.A.A.Q.Q.Q.Q.G.Q.S.W.W.W.W.~.E.R.R.T.g.g.g.l.x.c.x.x.c.j.j.j.l.l.g.T.R.~.Q.^.Q.Q.Q.Q.Q.G.Q.Q.G.G.S.F.F.S.G.G.G.Q.S.G.Q.Q.!.G.G.G.G.G.G.Q.S.G.Q.F.F.S.s . O X X X o X X X X X X X X X X X X X X X X X X                     . 5  .X.................O.............O.O.............................................................................................................................................................",
"o o o o o X X X X X o X X o o o o o o o o o o o X o o o o X X X X o o X o o o o o o o o X X o o o X X o o o X X X X X X X X X X X X X X X X X X X   X X X o   g #X].].#X].].#X#X].].].#X+X].#X#X+X#X#X#X#X].].]..X].]..X].].[.].].]..X.X.X#X#X#X#X#X#X.X#X#X#X#X#X#X#X#X#X#X#X#X#X.X#X#X#X#X#X#X#X#X.X]..X#X#X#X#X#X#X#X#X#X#X#X#X#X#X#X#X#X#X#X#X#X#X#X#X&X#X#X#X&X&X#X#X#X]..X{.}.L.v B m N m m N N Z N m m m m m Z C N m m C m N N N m m N m m m C C C N C m N m m m m C C m m Z C m m N m m m m m m N N m N Z S C N C N N N m N N m N N Z N m N m N N m m m m m N m m m m m m m m m m m m m N m m N m Z C m C N m m m m m m N N m m C C C m m m C N Z C N N m m m C m N m Z S Z Z C N m m m m m m m N Z A A A Z Z C m N Z Z m m N Z Z Z C C C C C C C m C C m N m m m N C S Z C Z Z Z Z A Z Z m Z C m Z C N m Z C Z A A C C m C C Z A Z C C C m Z C N Z N Z A Z N m Z Z Z N N A N N N B M M U W Z.K.H.Z.K.G.G.G.F.F.H.H.F.F.G.G.G.G.G.F.F.G.G.F.G.Q.Q.Q.G.G.G.G.G.F.H.H.F.F.F.F.G.G.F.F.F.G.G.F.G.G.G.G.G.G.F.F.G.F.G.G.F.G.F.F.F.G.F.F.A.A.G.F.G.F.F.G.G.Q.G.G.G.F.F.F.F.A.G.G.Q.G.Q.G.G.F.Q.F.F.Q.F.G.F.G.G.F.G.F.G.G.!.G.F.G.G.G.G.G.G.Q.G.G.F.G.F.F.G.G.G.G.G.G.G.F.A.F.G.G.Q.G.G.G.G.F.G.G.F.G.G.F.G.G.G.G.Q.A.S.D.~.*X*X$X&X#X#X#X#X#X#X#X#X#X.X.X.X.X].].].'.`.`.`.`.~.`.~.V.V.V.V.V.V.V.C.C.n.n.n.E E Y [ $.X.X...O.O.................................O...................O.O.........O.............X.O.+.+.O.X.X...O.+.O.@.$.Y.P.).XX~.N.^.^.Q.^.F.A.F.F.A.F.F.G.F.G.G.G.G.F.F.F.A.F.F.A.F.F.A.A.F.A.F.F.Z.A.Z.Z.A.A.A.A.A.A.Q.G.G.G.G.A.Q.G.G.G.G.Q.G.A.F.F.Q.F.S.W.W.W.E.R.R.T.g.g.g.g.g.x.c.x.x.j.x.j.b.j.l.l.l.g.h.R.~.^.Q.!.Q.G.Q.Q.Q.Q.Q.Q.Q.Q.F.G.Q.Q.Q.Q.Q.G.S.S.G.Q.Q.Q.Q.Q.Q.Q.Q.G.G.G.S.A.D.s . o X o o o X X X X X X X X X X X X   X X X X X                     . q &.X.X.O.O.O.O.O...............O.......O.......O.O.................................................................................................................................................",
"o o o o o o X X X X o X X o o o o o o o o o o o X o o o X X o o X X X X o o o o o o o o X X o o o X o o X X X X X X X X X X X X X X X X X X X X X X X X X o X C.&X].#X].].#X].].#X#X].].+X]..X].].].#X#X#X#X].].].].].+X#X].].].]..X].oX#X#X#X#X.X.X#X#X#X#X#X#X#X#X#X#X#X#X#X#X#X#X].#X#X#X#X#X#X#X].#X#X].#X#X#X#X#X#X#X#X#X#X#X#X#X#X#X#X#X#X#X#X#X#X#X#X&X#X#X#X&X&X&X&X#X#X{.(.R M B m m m m m m N A N m m m C C Z S m m C N m m N m m m N N m N C Z m N N N m m m N C m C C N C C N m m m m m m m N m N m m Z Z N N N m m N m m m m m N N N Z C C N N m m m m C N m m N m m m m C C Z m N m N m m m C Z Z m N N m m m m m m m m m A Z m m m N Z C N m N N m m m m N C m N C C m C Z C Z m m m m m N C C C Z Z Z C Z C N C C N m C C Z C C Z C S C Z A C N m m m m m N C N A A Z A C m N m m m N N m N Z C N C C Z C A A A m C C C C C C C C Z C C C m m C N Z C m m C Z Z N Z N Z Z N N N N M M L U ! 5.H.H.H.H.H.H.H.H.F.G.F.G.G.G.Q.G.F.F.G.F.G.F.G.G.F.G.G.G.G.G.G.G.G.F.F.G.G.G.G.F.F.G.F.F.Q.G.G.F.G.G.F.G.G.G.F.F.G.G.F.F.G.F.F.G.G.G.G.G.G.F.G.F.F.G.G.F.A.F.F.G.F.F.F.G.G.G.G.G.A.G.G.G.G.Q.F.G.G.G.G.G.A.A.G.Q.Q.F.G.G.G.F.G.G.G.G.F.F.G.G.F.G.G.Q.Q.G.G.G.G.G.F.F.F.F.F.G.G.G.Q.G.Q.Q.F.G.F.F.G.F.G.G.F.A.D.(.*X*X*X$X&X&X$X&X#X#X#X#X#X#X#X.X.X].].].].[.[.[.].[.`.`.`.`.`.`.V.V.V.V.V.V.V.C.m.n.{ [ #.@.X...O...O.................................O...............................................X.+.O.+.+.+...X.+.@.#.:Xw.t.).E.N.^.^.^.^.^.G.G.F.A.A.Z.F.F.F.F.G.F.F.F.F.F.F.F.F.G.G.F.F.G.F.F.G.F.A.A.A.F.A.A.A.G.S.S.G.G.S.G.Q.F.G.G.G.G.Q.G.Q.Q.W.W.W.W.E.R.T.T.T.g.g.l.l.l.l.l.j.x.j.j.l.j.l.l.x.j.l.l.l.g.T.R.W.W.Q.Q.S.G.G.G.Q.Q.Q.Q.Q.Q.Q.Q.Q.Q.Q.Q.Q.Q.G.F.A.A.A.S.G.G.Q.Q.Q.Q.G.Q.A.D.r . o X o o o X X X X X X X X X X X X X X X X                       . . G $.X.............................................O.O.O.O...............................................................................O.O.........................................................",
"X X o o o o X X o o o o o o o o o o o o o o o o X o o o o o o o o o o o o o o o o o o o o o o X X X X o X X X X X X X X X X X X X X X X X X X X X X X X X X : `.#X].].].].].].].].#X#X.X#X#X]..X#X].].].#X#X#X.X.X.X#X.X.X#X#X+X.X.X#X#X#X#X#X#X#X#X#X#X#X#X#X.X#X#X.X#X+X#X#X#X#X#X#X].#X#X#X#X#X#X#X#X#X].].].].#X#X#X#X#X#X#X#X#X#X#X#X#X#X#X#X#X#X#X#X#X#X#X#X#X#X#X&X&X&XoX}.S.U M N N N C m m m m m Z N m m N N m Z Z m m m m m m m m m m N m m m C N m m m m m N C m C Z C N m C N m m m m m m m m m m m m m Z Z N N N m m m m m m m m m m m N N m m m N m m m N m m m m m m m Z A C C C m N m m N m N N N N m N N m m N N m m m N C m m m C Z C N N N m m m m m m N N m N m m m N N Z N N N m m N N C N m N C C Z Z m m m m m N C C C C Z A C C Z S C m m m N m N C N N N C Z A C m m C N m m m m m C C N C C Z C C C Z A Z C C C C C m m C m m C m m m Z Z Z Z C A A C N Z C Z Z Z Z C N N m m n M M L ! ! 5.H.H.H.H.H.G.G.G.G.G.F.G.G.G.G.F.G.F.F.F.F.F.H.F.Z.G.G.G.F.G.G.G.G.G.G.F.F.F.F.F.F.G.G.G.F.F.G.G.F.G.F.G.G.G.G.F.G.G.G.G.G.F.Q.G.G.F.G.G.A.F.G.G.Q.G.G.G.F.A.F.A.F.G.G.Q.G.F.G.G.G.G.G.F.F.G.G.Q.G.A.G.F.Q.G.F.G.G.G.G.G.G.Q.G.G.F.F.G.F.G.G.G.G.Q.G.G.G.G.F.G.G.F.G.Q.G.G.G.G.G.G.G.G.F.G.A.A.A.F.A.D.}.*X*X*X$X&X&X#X#X#X&X#X#X#X#X#X#X.X.X].].].].].].].].[.`.`.`.`.R.`.V.V.V.V.V.V.V.C.m.m.|  .%.X.......O.................................O.O.............O.................................O.O.O.+.+.+.+.+.$.Y.B.t.g.T.E.N.(.^.^.Q.Q.Q.Q.G.G.G.F.F.F.F.G.F.F.G.F.F.F.F.F.F.G.F.F.F.A.F.F.G.G.A.A.A.G.F.A.G.S.G.G.G.G.G.G.G.G.G.S.G.G.Q.Q.W.W.W.W.R.T.T.T.g.g.g.d.x.x.c.c.x.x.j.j.j.j.x.x.j.x.x.l.x.l.x.g.h.R.W.W.W.Q.Q.Q.Q.Q.Q.G.Q.Q.Q.Q.Q.Q.Q.Q.Q.Q.Q.Q.G.G.G.G.Q.G.G.Q.G.F.G.Q.Q.Q.S.D.r . o X X X X X X X X X X X X X X X X X X X X                       . # [ $.X.........................................................O.........................................................................O...........................................................",
"X o o X X X o o o o o o o X X o o o o o o o o o o o X X X X X o o X o o o o o o o o o X o X o o o X X X o X X X X X X X X X X X X X X X X X X X X X X X o   f &X].].].].].].].].]..X]..X.X#X]..X.X#X].].].#X#X#X#X.X.X+X.X#X#X.X.X].#X#X#X#X#X].#X#X#X#X.X#X.X].#X|.]..X#X#X#X#X#X#X#X.X.X#X#X#X#X#X#X#X#X#X#X#X].#X#X#X#X#X#X#X#X#X#X#X#X#X#X&X#X#X#X#X#X#X#X#X#X#X#X#X#X&X#XoX}.m.v B N N N m m m m m m m m m m m N N m m m m m m m m m m m m m m m m m N m C m m N N m m m m C N N m N m m m m m m m m m m m m m m N N m N A Z m m N m N m N N m m m N N C N Z Z m m m m N N m N m N N m m m m m m m m m N Z A C m m N m m N N Z Z C C N m N N C m m Z A m m m m m m m m N Z C m m m N N m N N N m m m m N m m m m N C C Z Z C m m N m m m C C Z Z C C Z Z C m N m m m C N N Z Z Z Z Z Z C N N m m m m Z N C N m C C m C m m Z m Z Z m C C Z C m C Z C C C C Z Z Z A S C A C C C N N m N Z Z N N N m m m m m m B L ~ ! 5.5.H.H.G.H.H.G.G.F.F.G.F.G.G.G.F.F.H.F.F.G.F.F.G.G.G.G.G.G.G.Q.Q.G.G.G.F.F.F.F.G.G.G.F.F.A.G.G.F.F.G.G.G.G.G.G.Q.G.G.G.G.G.F.F.G.G.F.F.F.F.G.Q.G.F.F.A.A.F.F.F.F.F.Q.G.G.A.F.G.F.G.G.F.G.G.G.F.F.F.G.G.G.G.G.F.G.G.G.F.G.G.G.G.F.G.G.G.G.G.G.G.Q.G.F.F.F.G.G.G.G.G.G.F.G.A.A.F.G.F.F.G.A.F.F.A.D.}.=X*X*X*X&X&X$X#X#X#X#X#X#X#X+X.X.X#X.X.X].].].].].[.[.[.`.`.`.`.`.R.V.V.V.V.V.V.V.M.m.} | $.+...........O.O...............................O.............O.O...............................O.O.O.O.+.X.+.$.:Xt.g.g.T.B.V.(./.!.Q.G.G.G.G.G.F.F.F.F.G.G.F.F.F.F.F.F.F.G.F.A.F.G.F.A.A.A.F.G.G.A.A.A.Q.Q.G.G.F.Q.Q.Q.Q.Q.G.S.G.S.Q.Q.W.W.~.R.R.T.T.g.g.g.l.x.c.v.x.j.l.c.x.x.c.j.j.j.j.j.j.j.l.l.x.c.x.x.h.T.~.W.^.Q.Q.Q.Q.Q.Q.Q.S.Q.Q.Q.Q.Q.Q.G.Q.Q.Q.Q.Q.Q.Q.Q.G.Q.Q.Q.G.Q.G.G.G.G.A.D.3 . o X X X X o X X X X X X X X X X   X X X X                       . %  .o.............................................................O.O.................................................................................................................................",
"o o o o X o o o o o o o X o o X X o o o o o o o o o X X X X o X X o o o o o o o o o o X o o o X o o X o o X X X o X X X X X X X X X X X X X X X     X X X o V.#X.X].#X].].].].[.].].].].].#X]..X#X#X#X].].+X#X#X#X#X#X#X#X#X#X#X+X].].#X#X#X.X.X.X+X#X#X]..X.X.X].].].].#X.X.XoX].].]..X.X#X#X#X#X#X#X.X#X#X#X].#X#X#X#X#X#X#X#X#X#X#X#X#X#X#X#X#X#X#X#X#X#X#X#X#X.X#X#X#X#X#X{.}.W M N N m m m N N N m N N m m m m N C C C C m m m m m m m m m m m m m m N N m N m m N m m m m m N N N N Z Z N N N m m m m m m m m m m N m m m Z A N m m N N m N m N N m m m m C N N m m m m N N m C C C m m m m m m N m m m N C C N m m m m m N Z Z m m C m N m m m m N S Z m m m m m m N m Z Z N m N m m m m m N N N N N C C N C N m N m Z A A Z N N m m N N m C Z C m m C C N N N C Z C N N C C Z C C Z C m N N m N m C N m C C C m m N C N N C Z Z C C C Z C C C A Z C C C C m Z A C C A Z C C C C C m N Z N N m m m Z Z Z Z A N N B B L ! ! 5.H.H.G.G.G.G.G.G.F.F.G.F.F.F.F.F.G.G.G.F.G.G.G.G.F.F.F.G.Q.G.G.G.A.F.G.Q.!.G.F.F.F.F.F.G.F.F.G.F.F.G.A.F.G.G.G.G.G.F.A.A.Z.F.A.A.A.G.G.Q.G.G.G.G.G.G.G.G.F.F.G.G.A.A.F.Z.F.G.Q.G.G.F.G.G.Q.G.G.G.G.F.F.G.Q.G.G.G.G.Q.Q.G.G.F.G.G.G.G.Q.G.Q.G.F.G.G.Q.F.G.G.G.G.F.G.G.A.F.G.Q.F.G.F.F.A.D.OX*X*X$X$X$X&X$X&X#X#X#X#X#X#X.X.X.X.X].]..X].].].].].].[.[.`.`.`.`.~.V.V.V.V.V.V.V.N.n.m.| #.%.O.O...........O.......................................O.O.....O...............O...............O.O.+.+.+.%.Y.:Xt.l.g.g.T.R.(.^./.!.Q.Q.Q.G.Q.G.G.F.F.G.F.F.F.F.F.F.F.F.F.G.A.F.F.A.F.A.F.G.Q.Q.G.A.A.F.G.G.Q.G.S.Q.Q.Q.Q.Q.W.W.W.~.~.R.R.T.T.T.g.g.g.x.x.c.l.j.l.l.j.l.c.j.c.c.c.l.j.j.j.x.j.j.j.x.l.x.x.i.h.R.~.^.Q.!.!.Q.Q.Q.Q.Q.Q.Q.Q.Q.^.^.Q.Q.^.Q.Q.G.Q.G.Q.F.G.G.G.G.Q.F.Q.Q.F.G.D.1 . X X X X X o o X X X X X X X X X X X X X X X                     . 5 #.X.................................................................O.O.............................................................................................................................",
"o o o X X X X o o o o X o o o X X o o o o o o o o o X o X X o o o o X o o o o o o o o o o o X X X X X o X X X X X X X X X X X X X X X X X X X X     X X   > [.].].]..X].].#X.X].[.].#X+X].#X].].].].].#X].].+X].#X#X#X#X.X.X.X#X#X+X.X#X#X#X#X#X#X.X#X#X#X].].].].#X#X].#X#X].]..X].]..X.X#X#X#X#X#X#X#X].#X#X].#X#X#X#X#X#X#X#X#X#X#X&X&X#X#X#X#X#X#X#X#X#X#X#X#X#X].#X#X#XoX{.K.U M N m m N m N N N m m m N m m m m m N N N Z Z m m m m m m m m m m m m m m C N N N m m m m m m m m N N m C Z Z C N N N m m m m m m m m m N m m C N N m N N m m m m m m N N m m N m m m m m N C N Z C m N N m m N m N N m m m m m m N m m m m N m m N N m C m Z C m m m N N m m m m m m m N m C C N m N C m C N m C N Z Z C C C Z C N C C m C Z Z N m m N N m C Z Z C C C C C C N Z C C S Z m N m C N m C Z N C Z m N m N C m C C N N C N C N m Z Z C Z C C C N N C C m Z A Z C C C C m C Z A Z C C Z C C m C m C Z m m Z Z Z Z Z Z Z A N N N B L ~ ! 5.5.H.H.H.H.H.H.H.H.H.F.H.F.G.F.G.F.G.G.G.F.F.F.F.F.F.F.G.G.G.F.G.G.G.Q.G.G.G.F.F.G.F.A.Z.F.G.G.F.F.A.G.G.G.G.G.G.G.G.G.Q.G.G.G.G.G.Q.G.Q.Q.!.Q.Q.G.F.F.G.G.G.A.A.F.F.F.F.Q.Q.G.F.G.Q.Q.G.G.G.G.Q.G.Q.Q.G.F.G.G.G.G.Q.F.F.F.G.G.G.Q.G.G.G.Q.G.Q.Q.G.G.G.Q.Q.G.G.G.F.F.Q.G.G.G.F.Z.D.OX*X$X$X$X&X&X#X#X&X&X&X#X#X#X#X#X.X.X.X.X].].].].].].].[.[.`.`.`.`.~.R.V.V.V.V.V.m.C.m.n.{ | $.+.......................................................O.O.................................+.O.O.O.+.@.$.:Xw.g.l.l.g.T.R.~.^.Q.Q.G.G.G.G.G.G.F.A.A.F.G.F.A.G.G.F.G.G.F.F.F.F.F.F.A.G.G.G.G.Q.S.Q.Q.A.A.S.Q.Q.A.S.G.Q.Q.W.W.W.~.R.R.T.T.g.g.g.d.d.l.j.j.j.j.j.l.j.x.c.x.j.x.x.x.x.c.x.c.j.j.l.j.l.j.l.d.g.h.R.~.^.^.Q.^.!.Q.Q.Q.Q.S.G.G.Q.Q.Q.G.G.Q.Q.Q.Q.S.F.G.F.G.Q.F.G.Q.Q.Q.Q.S.S.N.- . X X X X X X X X X X X X X X X X X X X X X X                   . . 8 $.X.O...................................................................O.O.......O.................................................................................................................",
"o X o o o o o o o o o o o X X X o o o o o o o o X X X o X X o o o o o o o o o o o o o X X X X X X X X X X X X X X X X X X X X X X X X X X X X X X   X X   f #X].].].].].].].#X.X].].].#X+X.X.X].].|.].].].].#X].].].].#X#X].#X#X#X#X#X#XoX#X#X#X#X.X#X#X#X#X#X].].].].#X].#X#X].oX#X#X#X].#X.X.X#X.X#X#X#X.X].#X].#X#X#X#X#X#X#X#X#X#X#X#X#X#X#X#X&X&X&X#X#X#X+X#X#X#X#X#X#X{.}.L.v M N m m m m m m m N m N m m m m m m m m m m Z m m m m m m m m m m m N N m N N m N m Z N m m m m m m m m m m C Z A A Z N m m m m m m m N m m m m m N m m m N m m N m m N m m m C m N N m N N m C C m m C N N m m N m m N m N m m m m m N m m m m N C C N C m C Z Z m C A Z m N N m N m N C C m C N m m N N C m m C N N Z C C Z N N m C Z Z C Z Z Z A m C m m m C Z C N C C C m N C N m Z Z N N N N C m m C Z Z C N m N C Z C C m m m m C N m N N A C C Z C m m C m m C C C A A C C C m C Z Z Z C C C Z C Z C m C A C C C C Z Z Z C C C Z N Z N m m m N L ~ ! 5.5.H.H.H.H.H.H.H.F.F.F.G.F.F.G.G.G.G.F.F.F.F.F.F.F.G.G.G.F.F.G.G.G.G.G.F.F.G.F.F.F.G.F.F.G.G.A.F.F.G.F.F.F.A.F.F.F.G.G.F.F.F.A.F.G.F.G.Q.G.G.G.F.G.Q.G.A.A.A.F.F.F.Q.Q.Q.F.G.G.Q.G.G.F.F.F.A.A.A.A.A.G.A.F.A.G.G.G.Q.G.Q.G.Q.F.G.F.F.F.G.Q.G.Q.G.G.G.G.Q.G.A.F.G.G.Q.Q.A.S.OX*X$X$X$X$X$X#X#X#X#X#X#X#X#X#XoXoX.X].]..X].].].].[.].[.[.`.`.`.R.`.`.R.V.V.V.V.N.n.n.n.{ ] #.%.+.X...................................................O.O.O.........................O.O...O.O.+.+.@.$.Y.:Xt.l.l.l.g.g.).~.~.^.!.Q.G.F.A.G.G.F.G.F.A.A.A.A.F.A.A.G.Q.Q.F.G.Q.F.F.F.A.G.G.G.Q.Q.Q.Q.G.F.G.S.S.Q.W.W.W.W.W.R.R.R.T.T.g.g.l.x.x.x.j.j.j.x.j.c.c.c.x.l.x.j.j.j.l.x.x.j.x.x.l.x.l.j.l.j.j.j.d.g.T.R.~.^.Q.Q.Q.Q.S.Q.^.Q.Q.Q.G.Q.Q.^.Q.Q.Q.Q.Q.G.F.A.G.A.F.F.Q.A.A.W.W.W.D.,.- X X X X X X X X X X o o X o o X X X X X   X                     . . G $.X.......................................................................O.........O...............................................................................................................",
"X X o o o o o o o o o o o X X X o X X o o o o o o X o o o X o X o o o o o o o o o o o X X X X X X X X X X X X X X X X X X X X X X X X X X X X X X       O V.#X]..X].].].].].].].].].]..X#X.X#X.X].].].].].].].#X#X].].{.].#X].+X#X#X#X#X].oX#X.X.X]..X.X#X#X#X#X#X.X]..X].#X#X#X].].oX.X.X.X#X.X#X#X.X.X+X#X#X[.#X#X#X#X#X.X]..X.X#X#X#X#X#X#X#X#X#X&X&X#X#X#X#X#X#X#X#X#XoX'.(.W v M m m m m m m m m m N m m m m m m m m m m N m m N m m N m m m m m m m m N N m m Z C m Z Z m m m m m N m N N N m N C N m m m m m m m N N Z C m m m m m N m m m m m m m m m N C N m C N N N C C m C C C C m m m m N Z N m N m m N m m N m N Z N C m m m C C C m Z Z N C C m m N Z N Z m m A S C m m C Z C m C C C C N N N C Z C Z C m C C A A C Z Z Z C Z m C N m C C N C C N m N C C C m C N m C N C N N N C Z A C m A Z Z C C C m m N m m m m m C N C m C m m N C C m C C C Z m C A C C Z A C Z C Z A A m m C C Z Z Z S Z C Z Z Z C C C C C Z C N N m m n M M L ! ! 5.H.H.H.G.H.G.G.F.G.F.F.G.G.F.!.F.G.G.F.F.F.F.F.G.G.F.F.G.F.F.G.F.G.F.G.F.A.A.G.F.F.F.F.F.F.F.G.G.G.F.G.A.F.A.G.G.F.F.F.F.F.F.F.G.G.G.G.F.F.G.Q.Q.F.F.G.F.A.A.G.Q.!.G.G.G.G.G.G.F.F.G.Q.Q.F.F.A.F.F.A.A.G.G.!.Q.Q.A.G.Q.F.Q.G.Q.G.Q.Q.G.G.Q.Q.Q.F.G.Q.Q.Q.G.G.F.S.S.OX*X*X$X$X$X$X$X#X#X#X#X#X#X#X#X#X#XoX#X].]..X.X].[.[.`.[.`.`.`.`.V.V.V.V.V.V.V.V.C.C.n.n.{ Y [ $.%.X.O.....................................................O.O.........................O...O.O.O.+.@.Y.:Xt.k.l.l.c.v.g.T.R.~.^.Q.Q.Q.Q.G.Q.G.F.F.F.Q.G.G.Q.Q.F.G.G.F.Q.Q.F.F.G.F.G.F.F.A.G.F.A.G.F.G.G.Q.Q.^.W.~.~.E.R.T.T.T.g.g.l.l.x.j.j.x.x.j.x.c.x.x.x.x.l.j.j.j.l.j.j.j.j.l.j.j.j.l.j.j.j.j.j.l.l.l.g.h.R.~.W.Q.W.Q.Q.Q.^././.^.^.G.G.^.Q.^.^.^.^.^.^.^.Q.S.S.S.S.Q.W.S.S.W.W.D.>.o X X X X X X X o X X X X X X X X X X   X   X                     . @ [ o.X...............................O...................................................O.O.....................................................................O.....................................",
"o o o o X o o o o o o o o X o o o o o o o o o o o X o o X X o X o o o o o o o o o o o X X X X X X X X X X X X X X X X X X X X X X X X X X X X X     X   > [..X].].].].].].].].].].].].]..X+X.X#X].].#X].|.].].].]..X#X].].].].].].#X#X#X#X].#X#X#X].].].].#X#X#X#X#X]..X#X#X#X.X.X#XoX].]..X].].#X#X#X#X#X.X].].].#X#X#X#X#X].#X#X.X.X#X#X#X#X#X#X+X#X#X#X#X#X#X#X#X#X#X#XoX'.K.U M N m m m m m m m m m N N m m N m m m m m m m m m m m m m m m m m m m m N Z Z N m Z A m m Z Z m m A m N m m m Z N m m m m m m m m Z N m N N S Z N m m m Z Z m m m m m m m m m m N m m m N C m m N m m Z Z C N m N m N N N Z N m m N m m m m C Z C m N N m m m m C Z N m m m m C m N m m m m C m m m m Z Z Z S Z m m C C C Z Z C Z C m C C N A C C m Z Z Z Z A Z C m m N m m N m m C N m m C N N m m m m N m m m Z Z A Z Z Z A C C Z Z Z Z N m m N N m m m N N N C Z C C Z Z Z C C C m C C N Z Z C m Z C Z S m C C C C Z S A Z C Z Z Z C C C m N N m C Z C m m m n M M L ~ ! 5.H.H.G.G.H.G.G.G.F.G.F.F.F.F.F.H.F.F.F.F.F.F.F.F.G.G.F.G.G.G.G.G.F.F.F.F.F.F.A.A.F.F.A.F.F.G.G.G.G.Q.G.F.G.G.F.A.Z.F.F.F.A.A.G.F.G.G.A.F.F.Q.G.F.G.G.G.G.F.G.G.F.G.F.!.G.G.Q.Q.Q.Q.^.Q.Q.G.G.Q.G.G.F.F.G.G.F.F.G.F.Q.G.F.G.G.F.F.Q.G.G.G.Q.Q.G.Q.G.G.G.F.A.Q.OX*X$X$X#X$X&X$X#X#X#X#X#X#X#X#X#X#X#X#X.X].].].].].].[.[.`.`.`.`.R.V.V.V.V.V.C.C.C.n.n.n.{ { Y | %.X.O.....O.O.O...............................................O.............O.O.O.O.O.....O.+.O.@.%.Y.w.t.l.j.l.l.x.g.g.R.~.^.Q.Q.Q.Q.Q.Q.Q.Q.F.G.G.G.F.G.G.G.G.G.F.A.F.A.A.Q.G.A.F.G.G.G.Q.F.S.Q.Q.W.W.W.W.E.R.R.T.g.g.g.g.l.x.l.j.j.j.l.b.c.x.x.j.l.c.j.j.j.j.l.j.j.j.j.l.j.j.j.j.j.j.j.j.j.j.l.l.l.j.l.g.T.~.W.W.^././.^.^.^./.^.Q.^.S.S.Q.Q././.!.Q.Q.Q.Q.Q.S.S.S.W.W.W.W.W.E.N.>.o o X X X X X X X X X X X X X X X X X X X X X                     . % [ o.X...................................O.....................O.......................O.....O.........................................................................................................",
"X o o o o o X X X o o o o o o o o o X o o o o o o X o o X o o o o o X o o o o o o o o o o o o X o X X X X X X o X X X X X X X X X X X   X X         X   f #X.X.X].].].].+X].].].#X].].].].].#X#X+X].].].].].].].]..X#X].].].].].].].#X.X#X#X].#X#X#X#X].].#X#X#X].#X#X].].].#X#X+X#X#X#X#X].].].].].#X].+X#X].#X#X].#X#X#X#X].#X#X#X].#X#X].#X#X#X#X#X#X.X#X#X#X#X#X#X#X#X{.}.m.v M N N m m m m m N m m m m m m N m m m m m m N N m m m m m m m m m m m C C m m m N m m m m m Z A m N m m N m Z m N N N m m N m m m m N N N N m m N Z Z m Z Z C m N C N N m m m m m m m m N m m N m C N m m m m m m N N m m m m C N N N m m m N C Z C N C m m m m m C C N Z N m N m N N m N m N m m N m m m m Z S Z A C Z m Z C A C N N m C N Z C m N m m m m N N m m m N m N m N m m N m m N C C m m N m N N N Z C m A S Z C m C C N Z S N m N N N m m N N N C N N C C C C C A Z C C m m Z Z Z N C m N m m C N N C C C C m C C C C C C C m C Z C Z Z C Z Z N N Z N N N m n M L ~ ! 5.H.H.H.H.H.H.H.G.G.G.F.H.H.H.F.F.F.F.F.G.F.F.F.F.F.G.F.F.G.F.A.G.G.F.F.G.F.A.F.F.A.F.F.G.G.F.G.F.A.F.F.G.G.F.F.G.G.G.A.A.A.G.G.A.G.G.G.G.G.F.G.G.G.F.G.G.G.G.G.F.G.G.G.G.F.G.Q.G.F.Q.G.G.G.Q.G.F.A.F.Q.G.F.G.A.F.G.G.G.F.F.G.Q.G.F.G.G.G.Q.Q.G.Q.Q.Z.~.*X*X$X*X#X#X&X$X#X#X#X#X#X#X#X#X#X#X#X#X#X.X].].].].[.[.].[.`.`.`.R.V.V.V.V.V.C.C.n.n.n.>.E E E ] #.%.X.O.....O...X.X.....................................O.....O.O.............O.....O.O.O.O.O.@.@.Y.n.t.k.x.c.l.x.l.l.g.T.~.W.Q.Q.Q.G.G.Q.G.Q.G.Q.Q.G.F.G.Q.G.G.F.F.A.F.G.A.A.!.Q.S.A.A.Q.S.Q.Q.W.W.W.E.E.R.T.T.g.g.g.z.l.j.j.j.j.j.c.j.b.x.j.x.c.j.j.j.j.j.j.j.j.j.j.j.j.j.j.j.x.j.j.j.j.j.j.j.l.j.j.j.l.g.h.R.~.W.!.Q.^.!.Q.Q.^.^.^.Q.Q.G.Q.Q.Q.Q.Q.Q.^.^.Q.^.Q.Q.W.W.W.E.E.E.T.B.w.; * X X X   X X o X X X X X X X X X                         X     . 5  .X.......O.....O.........................O.................................................O.........................................................................................................",
"o o o X o X X X X o o o o o o X o X X o o X o o X X o o o o X o X X o o o o o o o o o o o o o X X X X X X X X X X X X X X X X X X X X   X X X X     X X C.#X].#X.X].#X+X.X].].].].].].].].].].]..X+X].].].].].].].].#X.X.X].#X.X].[.]..X].#X].].].].#X#X].#X#X].].#X#X.X#X#X#X#X+X#X#X#X#X#X].].#X#X#X].].].].].].#X#X#X#X#X].#X#X#X#X#X#X#X.X#X#X#X#X#X].#X#XoXoX#X#X#XoX'.(.W v M N N N N m m N N N m m m m m m m m m m m m m N N m m m m m m m m N N C C C N m m N m m m m m m m m N N m m Z N N m m N m m m m m m m m N m m m C m Z Z m N Z C m N m Z N m m N m m m m m m m N N N m Z C m N N m m m N m N C Z N Z m m m m N N Z N N m m m m m m C N N C C C m m N N N m N C m m m m m C m m Z Z S C m m m N N A Z N C C C C Z Z Z N N m m N N m m m Z m m m N N N m N m m m C Z N m m N N m N m N N C Z N C C N N C m N m N N m m N C m m N m m m C C C C m C C m N N N Z N N m m m m m m N m N N C Z C m C Z Z A C m N N m m C Z N Z C Z Z C N N N N N m m n M B L ! ! 5.H.H.H.H.H.F.G.G.H.G.G.F.F.F.Z.F.G.F.F.G.F.F.F.F.F.G.G.F.G.F.F.G.G.F.F.F.F.Z.F.G.F.F.F.G.G.A.F.F.G.Q.F.F.G.G.G.F.G.F.A.F.G.G.G.G.G.Q.G.G.G.G.F.Q.F.F.F.G.F.F.F.G.G.F.F.Q.F.S.F.F.F.G.G.Q.G.F.A.A.F.A.G.F.G.G.G.Q.F.A.F.G.Q.F.F.F.G.G.G.A.F.A.~.*X=X*X$X$X#X#X#X#X#X#X#X#X#X#X#X#X#X.X].#X.X.X.X].].].].[.`.`.`.R.R.R.V.V.V.C.C.C.n.n.n.n.{ E E Y ' $.%.X.+.......................O.........................O.O.O.......................O.O.O.+.@.Y.M.y.r.k.x.c.l.x.v.c.g.T.R.~.^.Q.!.Q.F.F.Q.Q.Q.G.Q.Q.Q.G.G.!.Q.A.Q.Q.A.G.G.F.G.G.Q.Q.Q.S.S.D.W.E.E.R.T.T.T.T.z.g.g.l.l.j.l.j.j.j.j.x.j.j.x.l.x.x.x.l.j.j.j.j.j.c.c.j.j.j.j.x.j.j.x.j.j.j.j.j.j.j.x.j.x.l.l.g.T.~.~.W.Q.Q.^.^.W.Q.^.Q.^.Q.Q.^.^.Q.Q.Q.S.G.Q.W.W.W.W.E.E.R.T.T.T.h.h.h.i * X   X X X X X X X X X X X X X X                             . . q #.X.......................................O.O.........................................................................................................................................................",
"o X X o o o o o o X X o o o o X o o o o o o o o X o o o o o X X o o o o o o o o o o o o X X X o X X o o X X o X X X X X X X X X X X X   X X X X   X   > [.#X.X].#X].#X#X+X].].].].].[..X]..X#X#X].].].].].].].].].#X#X]..X].#X#X.X].[.].#X.X#X].].].].#X].].+X].].].].#X#X#X#X].].].#X#X#X#X#X].].#X#X#X].].].]..X].].].#X#X].|.#X#X#X#X#X#X#X#X#X#X#X#X#X#X#X#X#X#X#X#XoX{.K.I M N m N m Z m m N Z N m m N m m m m m m m m m m m m N Z m m m m m m m N N m m N m m m m m m m N Z N C N Z Z m m m N N N N N N N m m m m N m N m m A Z Z C m m C m m m m m m N m m m m m m m m m m m m m m m m m m C Z Z Z m m N N m N N N m m m m N N m m N m m m m C N m m m N m m m m C C N N m N N N C C C Z A A Z A C N m m N m C N C C C C C Z N N m N m N N m m m N m m m Z N m m m m m m Z A C m m m N m m m N C C N N N N m C C C C m N N C m m m N C N m C Z m m m N m m m N N C m m m N N C N N C N m C Z Z A Z C C m m m N Z m N m m N N N m N m C Z S Z m C m N m m N m m m m B L ~ ! ! 2.5.H.F.F.F.F.G.G.F.G.F.A.A.F.G.F.F.F.F.F.F.G.F.F.G.F.F.G.Q.G.F.F.G.F.F.G.F.G.G.Q.G.G.A.G.F.F.G.F.G.G.Q.Q.Q.Q.Q.F.A.A.G.G.G.G.G.G.G.G.G.G.Q.F.G.G.F.F.G.G.G.A.F.G.Q.Q.Q.G.F.F.G.G.G.Q.Q.G.Q.F.F.G.G.G.G.G.G.F.G.G.A.F.G.F.G.G.G.Q.A.Z.(.*X*X*X$X$X#X#X#X#X#X#X#X#X#X#X#X#X#X#X.X].].].].].].].].[.[.`.~.~.R.V.V.V.C.C.C.n.n.n.n.n.E E f E Y | Y.%.X.O.O.O.O...................O.....................X.O.O.O.O.................O.+.+.+.@.#.:X^ r.r.k.k.x.l.l.c.x.l.g.R.~.W.Q.Q.Q.Q.Q.Q.Q.Q.!.Q.Q.F.Q.S.A.Q.Q.F.F.A.F.F.F.F.Q.W.W.W.W.W.E.E.T.T.g.g.g.f.l.v.c.j.j.j.j.j.j.j.j.j.j.j.x.c.c.j.j.c.j.j.j.l.l.j.l.x.j.j.j.x.x.j.x.x.j.j.l.x.l.j.l.l.x.j.j.l.g.h.R.~.^.^.Q.Q.Q.Q.Q.Q.G.G.Q.G.Q.Q.Q.^./.^.W.W.~.~.R.R.T.T.T.g.g.g.f.g.g.w.; X X   X X X X X X X X X X X X X         X                   . . H $.X.........................................................................................................................................................................................O.O.......",
"X X X o o o o o X X o o o o X o o o o o o o o o o o X o o X X X o o X X X o o X X X X X X X o X X X X X X X X X X X X X X X X X X X X X X X X X   X   f #X].oX[.[.].].].].].].].[.].].]..X]..X].#X.X].].].].].].].#X#X].].].].#X.X#X].]..X#X].].#X#X#X#X].].#X].].].#X#X].#X#X#X+X].].].#X#X#X#X].].].#X#X.X].].].].].].#X].].+X#X#X#X#X#X].#X#X#X#X#X#X#X#X#X#X#X#X#XoX{.}.L.v M m N N C m m m m m m m N Z N m m m m N m m m m m m m m N m m m m m m m m N m N S N m m m m m m N N N m m Z A m m m m m m m N m m m m m m m m N m m Z C N Z N m m m m m m m m m m m m m m N N m m m N A m m m m m C C C m m m m N m N N N m m m m Z A Z N N m m m m m N m m m m m N m m m Z Z Z m C C C m C C C Z Z C C Z C Z C N Z C N m C C Z C N C N m m N m m m m Z Z N m N Z N N m N N N m m N C C N Z m m m m m m m N N N m m N C C m N m N C N m m m N C C C Z C m m m N m m N C C m N N m m N C Z A Z m N C Z Z m N N Z N m m m m N m m N m N m m N m C S S C C N C N m C Z Z m m m n n M M L ! H.H.F.G.F.F.G.F.F.F.G.F.F.A.F.F.F.G.G.F.F.F.G.Q.F.F.F.G.G.G.G.F.F.G.F.G.F.F.G.G.G.G.F.G.G.G.F.F.F.G.Q.G.G.Q.F.F.F.F.F.F.F.F.F.F.A.F.A.Q.!.G.F.G.F.G.G.G.G.F.G.G.G.Q.Q.G.F.A.F.G.G.Q.Q.Q.!.G.F.F.F.F.G.F.G.F.F.G.F.F.G.Z.F.F.G.G.S.(.*X*X*X*X#X&X#X#X#X#X#X#X#X#X#X#X#X#X.X].].].].].].].].].'.`.`.`.R.R.V.V.V.V.V.C.n.n.n.n.f f f f f Y Y | Y.%.X.O.O.O.+.X...O.....O...................................O.+.O...........O...+.@.@.#.M.^ q.r.a.k.j.j.l.l.l.x.c.g.T.R.~.Q.Q.Q.Q.Q.Q.Q.S.Q.G.G.Q.Q.Q.Q.G.Q.G.F.A.S.Q.S.S.W.W.W.E.E.R.T.T.g.g.g.l.l.l.l.x.c.v.l.j.j.j.j.x.x.j.x.x.c.j.x.x.l.l.l.l.j.l.c.c.l.j.j.j.j.j.j.x.c.c.x.j.l.l.x.x.l.l.j.x.j.j.d.h.T.R.W.Q.Q.Q.Q.Q.Q.Q.Q.Q.G.G.Q.Q.Q.W.W.~.~.R.R.R.T.T.g.g.g.d.l.l.x.d.a.g.i X X X X X X X X X X X X X X X X     X                     . . @ ) $.X.....O.............................................................................................................................................................................................",
"X X o o X X o o X o o o o X X o o o o o o X o o o X X o X X o o X X X X X o o X o o o o o X X X X X X o X X X X X X X X X X X X X X X X X X X X X X   n.#X].].].].].].].].].].].].].].]..X].].].#X#X].[.].].].].[.].#X#X].].].].]..X].].].].].+X#X#X#X+X#X].#X].].#X#X].].].#X#X#X#X#X#X].].#X#X#X].].].#X].#X#X#X#X#X#X#X].#X#X#X#X#X#X#X#X#X#X#X#X#X#X#X#X#X#X#X#X#XoX{.(.W v N m m m C m m m m m m m m m N m m m N m m m m m m m m m m m m m m m m m m N m N Z Z m m m m m m m N m N m m N m m N m N N m N m m m m m m m m m N m m m m N Z N m m m m m m N m m N N N m N m m N m m Z C m m N C Z Z Z C Z N m N N m m N m m m N m m N N N C Z N m m m m m m m m m m m m m N C N m C N C C m N C Z Z Z Z C Z Z Z Z N N N N m m m C C m m m m m m N C m Z Z m m m m N N C N N m N m m N N Z C Z N Z m N m m N N N C N C Z Z C C m m m N m m m C C m Z Z C N m N N m m m m m N N N N m N C Z Z Z Z Z Z N N N Z N N N m m m m m m m m m N N Z N Z Z C C N N N C N C Z Z Z m m m N m n M L H.G.G.G.F.Z.G.G.F.G.G.G.G.F.F.F.F.F.G.F.F.F.F.G.F.F.F.G.G.G.Q.G.F.G.F.F.G.G.G.G.G.G.G.G.G.G.F.F.F.A.G.G.G.F.F.F.F.F.F.G.F.F.A.F.G.F.G.A.G.Q.G.G.G.F.F.F.F.F.F.G.G.F.F.Q.G.G.F.F.F.G.G.G.G.G.G.Q.Q.G.G.F.A.G.G.F.G.F.G.G.A.F.F.F.A.(.*X*X$X*X$X#X$X#X#X#X#X#X#X#X#X#X#X#X#X].].].].].].].].].[.`.`.`.R.V.V.V.V.C.C.C.C.n.n.n.E f f f f f Y Y [ Y.%.X.+.X.O.+.X.X.O.O.........O.........O.................O.O.O.+.O.O...O.O.+.@.@.Y.} ^ q.r.a.d.k.j.j.l.l.j.j.l.g.g.R.~.^.Q.Q.Q.Q.Q.Q.Q.Q.Q.Q.Q.Q.Q.Q.Q.G.G.G.S.W.W.W.W.E.E.R.T.T.g.g.g.g.l.x.d.d.l.l.l.l.c.c.c.j.j.l.x.x.j.j.x.c.l.l.l.l.j.l.c.l.l.l.l.j.l.j.j.j.j.l.j.j.j.j.j.j.l.l.c.l.l.x.j.j.j.l.g.h.R.W.Q.Q.Q.Q.Q.!.Q.Q.W.Q.W.Q.W.W.W.R.R.R.T.T.g.g.g.d.j.j.j.j.x.x.j.d.g.q.* o X o X X X X X X X X X X         X                     . . % [ $.X...................................................................................................................................................................................................",
"o o o o o o o o o o X o o o o o o o o o o X o o X X o o X o o X X X X X X X X X X X X X o X X X X X X o X X X X X X X X X X X X X X X   X   X X X   & V..X]..X.X.X.X].].].].].].].].[.[.]..X.X].].+X#X].].].].].].[.].#X].].#X#X#X.X].].].].].].#X#X#X#X].].#X#X].].#X#X#X#XoX#X#X#X.X#X#X#X#X#X#X#X#X#X#X#X#X#X#X#X#X|.#X#X].#X#X#X#X#X#X#X#X#X#X#X&X#X].#X#X#X#X#X#X{.}.J.U M N N A m N m m m m m m m m m N N N N m m m m m m m m m m m m m m m m m m m m m N N N m N m m N m m m m m m m m m m N N m m m N N m m m m m m N m m m m m m m N Z N N N m m m m m m m N N m N m m m m m m N m N m m A C C C Z m N N N N m m m m N N N m m m N Z A C N C m m m m m m m N m m m N C N m N m m Z Z m m m Z Z C C N C Z N N m m m m m m m m m m N m m m N m N N C C m m N m C C N N N Z C C C N m N Z Z C m m m m m m N C C C C A Z Z Z C m m m N C C C m C N Z N m m N C N N N C C C C m N m m Z Z N N Z C Z Z C N N Z Z N N m m m m m m m N N C Z m C C m N N N m N N N N Z N N C Z A N x ! H.G.G.G.G.G.F.F.F.F.F.F.G.G.G.G.G.G.G.G.F.F.F.F.F.F.F.F.F.G.G.G.G.G.G.G.G.G.F.G.G.F.F.G.F.F.G.F.G.G.G.A.G.G.F.G.G.F.F.Q.F.G.F.F.F.F.G.F.F.G.F.F.F.F.G.G.G.G.G.G.G.G.G.F.G.F.G.G.G.F.G.G.F.G.Q.Q.!.Q.G.G.F.A.G.G.A.G.G.G.G.F.F.A.D.(.*X$X$X*X*X$X$X$X#X#X&X#X#X#X.X.X.X.X.X].].].].].].].[.[.`.`.`.~.V.V.V.V.V.C.C.C.n.n.n.n.n.f f f f f f Y Y ] #.%.@.+.O...O...O.O.O.O.....................................O.......O...+.@.@.#.} ^ 8.e.i.p.d.j.j.j.l.j.j.j.j.d.g.T.~.^.Q.^.Q.Q.^.Q.Q.Q.Q.Q.G.Q.Q.G.G.Q.W.W.W.W.~.E.R.R.T.h.h.g.l.c.d.d.l.x.x.x.x.d.l.l.x.j.l.x.j.j.j.j.l.j.x.c.x.c.c.j.l.c.x.l.l.l.l.l.c.c.j.j.j.j.j.j.x.x.j.x.j.j.x.l.l.x.j.j.j.j.g.g.T.~.W.Q.Q.Q.Q.Q.Q.Q.W.W.W.W.W.E.R.T.T.g.g.g.g.l.x.j.j.j.j.j.j.x.x.d.g.t.w * o X o X X X X X X X X X X X X X X X                 . . . 5  .X...........O.........................................................................................................................................................................................",
"o o X X o o o o o o o X X o o o o X X o X X X o o o o o o X o o X X X X X X X X X X X X o o o X X o o o o X X X X X X X X X X X X X X         X X   g #X.X.X].].].].].].].].].].].].].[.]..X.X.X[.].].#X#X#X#X].]..X]..X#X].].#X#X#X#X#X.X].].].]..X#X#X].#X].].].].#X#X#X]..X#X].#X].].#X#X#X#X#X#X#X#X].#X#X#X#X#X#X|.#X].#X].].#X#X#X#X#X#X#X#X#X&X#X#X#X#X#X#X#X#X{.'.,.K L B N A Z m m m m m m m m m m m N m N Z A m m m m m m m m m m m N m m m m m m m m N Z Z Z N m C Z N m m m m m m N S Z N N m m m m m N Z N m m N N m m m m m m m m m m N m m m m m m m m m m m m m m m N N N N C C N m C C C N N N m m m N N m m m m m m m m m N Z Z Z m N N m m Z N m N C m N N Z C N m N m m C C m C N C m C Z N C m C C N N m C Z C N m m m m m N N C C N m C Z C Z m N Z m m N m m C Z Z N C C C N m m m m m m m m N C C A A Z A Z C C C N m m C C C N C Z m N N Z Z N N Z Z A A N N m m C Z Z Z N m C N N C N Z A N m m m m m N N N N m m m m m m m C Z C C C N C N N A N C C ~ B M 5.H.G.G.G.G.G.F.F.F.F.F.G.G.G.G.G.G.G.G.G.G.G.F.G.G.F.A.A.Z.A.G.G.G.G.G.G.Q.G.G.G.G.F.G.F.G.F.G.G.G.G.G.Q.A.F.G.G.G.F.G.G.Q.G.G.G.Q.G.G.G.G.G.G.G.G.G.G.G.G.G.G.G.G.G.Q.G.G.G.F.G.G.G.G.F.G.F.G.Q.Q.Q.Q.G.Q.G.A.Q.F.A.G.G.Q.Q.F.Z.D.}.$X*X*X*X$X*X&X$X$X#X#X#X#X#XoX]..X.X].].]..X].].].].[.[.`.`.R.V.V.V.V.V.V.V.C.n.n.n.n.>.f f f f f f f f f d Y #.%.@.X.O.O...O.O.O.O.O...............O.O.............O...............@.%.#.{ ^ 8.r.u.a.d.d.l.j.j.j.j.j.j.j.j.g.g.R.~.Q.S.Q.^.Q.Q.Q.Q.Q.Q.Q.G.Q.Q.W.W.W.~.E.R.R.T.T.g.g.g.d.l.x.x.c.x.j.b.j.x.c.j.l.l.x.l.l.c.x.j.j.j.x.x.l.x.c.v.v.c.c.l.l.c.c.j.c.x.c.c.j.j.x.x.c.c.c.x.c.c.x.l.j.j.l.l.j.j.l.d.l.g.T.R.W.Q.!.Q.Q.Q.W.W.W.W.E.R.R.T.T.g.g.g.x.x.x.x.j.j.l.j.l.l.j.j.x.l.d.g.=.* * X X X o X X X X X o X     X X X X                   . . q &.X.X.......O...........................................................................................................................................................................................",
"o o X X o X X X X X X o o o o o o X X X X o o o X X X X X X o o o X X X X o o X X X X X X X X o X o X X X X X X X X X X X X X X X X           X X X g f V.].+X].[.[.].].].].].].].].].].].].]..X].].].].].].#X|.#X#X#X].].#X].].#X+X#X#X.X].].].].]..X.X].].].].[.].].].#X].].]..X+X].].]..X#X#X#X#X#X#X#X#X#X#X#X#X#X#X#X#X#X#X].].#X#X#X#X#X#X#X#X#X#X#X#X#X$X#X+X.X[.~.E I U ~ ~ B N N C C m m m m N m m m m m m m N N m m m m m N N m m m m m m m m m m m m m m Z N N m C C N N m N N m m m N N N N N m m m m m N Z m m m N m m m m m m m m m m m m N m m m m m m m m m m m m m m m m N m N Z Z N C C A S Z m C m N N N m N m m m m m m m m N Z N m N m m Z Z N m m N N m m C C m N N N N Z N N m m N N Z C C N N Z N N N N Z Z N m m m m m m N Z m C m C C N Z N C A N m m m m m m N C Z Z C C Z N N m m m m m m C A A C Z Z Z m Z Z C N C C m C m N m N m N C C C C C N Z Z Z m m N m m Z Z Z C m N N N C m N N N N m m m N Z Z m m m m N m m m A S Z C C Z C C C C C m N N M L H.H.F.G.F.G.F.F.F.F.F.F.G.G.F.G.F.F.G.G.G.F.F.G.Q.G.G.G.G.G.A.A.A.F.G.G.G.G.F.G.G.G.A.F.F.F.G.G.G.G.G.F.G.G.F.G.F.F.F.F.G.G.G.G.F.G.G.Q.Q.G.G.F.G.F.G.G.G.F.F.F.G.G.G.G.G.G.Q.G.F.S.S.F.G.G.F.F.G.Q.Q.F.G.G.G.F.F.G.F.F.Q.G.G.G.A.D.}.*X*X$X$X$X$X*X#X$X$X#X#X#X#X#XoX.X.X.X.X].].].].].].[.[.`.`.`.R.V.V.V.V.C.C.C.C.n.n.n.>.:.f f f g g g g g d d d [ $.%.@.+.+.+.O.+.O...............O.O...............O.O.+.+.....X.@.$.} ^ ^ 8.9.i.i.a.a.d.d.j.j.x.j.l.j.j.l.l.g.T.R.~.Q.Q.^.!.!.!.Q.W.Q.Q.W.W.W.W.R.R.R.T.T.h.g.g.g.l.j.j.l.l.j.x.c.x.j.j.j.c.x.l.l.l.l.l.l.c.j.j.j.x.x.l.l.l.l.x.c.c.l.j.x.x.c.l.x.x.j.x.j.c.x.j.c.j.x.c.v.c.j.x.j.x.j.j.j.j.l.l.g.g.R.~.W.W.W.W.W.~.E.R.R.T.T.g.g.g.g.c.x.x.c.c.j.x.j.j.l.j.j.j.j.j.x.l.d.r.; * o X X X X X X X X o X X X X X X X X                 . . 0 o.X.X...................................................................................................................................................................................................",
"o o o X o o o o X X o o o o o o o o X X o o o o X X X X X X X X o X X X X o o X X X X o X X X X X X X X X X X X X X X X X X X X X X X             o O o : a C.`.[.].].].].].].].]..X#X].[.].]..X]..X].].].].].#X.X.X].].#X.X#X]..X.X.X+X#X#X#X#X].].].].].].].].[.].].].#X]..X].].].].].|.#X#X#X].].].].#X#X#X#X#X#X#X#X#X#X#X#X#X].#X#X#X#X#X#X#X#X#X#X#X#X#X#X#X.X].'.J.>.s K L U U L ~ A N N m m m A N m m N m m m m N m N m m m m m m m m m m m m m m m m m m m m m m m m N N m m m m m m m m m N m m m m m m m m N m m m m m m N N m N m m m m m m m m m m m m m m m m m m m N m m m N m m N Z C m N C Z Z N Z Z N N N Z N m m m m m m m m N m N m m m m N N N N m N m m m m N N m m N N m N m m m N N N C Z Z C m m C N m m N N N N N m m m m C m m Z C Z C m N C A C N m m m m m m C C C Z C C N Z N m m Z C C Z C C Z Z Z A C C C C Z C N C N m N m N m m N N m m m m m m m m m m N N m N N m m m C C C Z N Z C C C m N m m C C C C N m m m N Z C Z Z C N N Z C C C C C N M ! H.H.F.G.F.G.G.F.F.F.G.G.F.G.G.F.G.F.G.Q.G.G.G.F.G.G.G.F.F.G.G.F.F.A.A.F.F.G.F.F.F.G.F.F.G.F.G.F.G.F.G.G.F.F.G.F.G.F.F.G.F.G.F.F.F.F.F.F.G.G.G.F.F.F.G.G.G.G.A.G.G.G.G.G.G.F.F.G.G.G.Q.G.Q.Q.G.F.G.G.G.G.G.Q.G.G.G.G.Q.F.F.Q.Q.F.A.D.OX*X*X$X$X#X$X*X$X$X#X#X#X#X#X#X#XoXoXoXoX].].].].].].[.[.[.`.`.`.R.V.V.V.V.V.C.C.n.n.n.>.:.f f g g g f g g g g 9 5 q  .Y.%.@.+.+.+.+.O.O.O.........O...................O.+.@.@.%.%.#.^ g ^ 8.0.e.i.a.a.d.d.k.j.j.x.x.l.l.l.j.l.g.g.R.~.^.Q.Q.Q.Q.Q.W.W.W.W.W.~.R.R.T.T.g.g.g.g.l.x.l.c.j.j.j.j.l.j.j.j.x.c.j.j.j.j.j.x.x.x.j.j.j.j.j.j.j.j.j.b.j.j.j.j.x.l.x.x.j.l.x.x.j.j.j.j.j.j.c.j.x.x.x.l.j.j.j.j.j.j.j.j.j.l.d.g.T.R.W.W.W.E.E.R.T.T.g.g.g.f.d.l.l.l.j.j.x.x.x.j.j.j.j.j.j.j.j.j.j.c.j.g.=.* O X X X X X X X X X X X X X X     X                 . . G $.X.....................................................................................................................................................................................................",
"o o o o o o o o o o o o o o o o o X X o o o o X o X X X o o X X X X o X X o o X X X o o X X X X X o X X X X X X X X X X X X X X X X X     X X X   X o o o X & > g n.C.`.].#X].].].].]..X]..X].].].].].].].].].].].].].].].+X#X.X]..X].#X#X#X#X#X|.].].].].].].].].].].#X#X#X+X#X.X].].].].#X#X#X].].]..X.X].#X#X#X#X#X#X#X#X#X#X#X#X#X#X#X#X#X#X#X#X#X#X#X#X#X#X#X#X#X[.J.N.>.T I b b K L U U B N N m A S C N N N N m N m m m N m m N N N N N m m m m m m m m m m m m N N C m m Z N m N m m m m m m m m m m m m m m m m m m m m m m m m m m N m m m m m N m m N N m m m m m m m m m m N m N N m N m Z m m N N N N C Z N N m N Z N N m m N m m m m m N m m m m N C Z N m m m m N N A A m m N N m N N m m m N C N m N Z Z N N Z Z N Z Z m m Z m N N N N m m C Z Z C N N m C C Z Z N N m Z Z C m C Z Z C Z Z N Z Z C C Z Z C m C C C A C C Z C C Z Z m C N C A Z N N C C C m N N m m m m m N m N N N N C N m C Z A Z Z Z C C C C N N N N N C A Z Z N N Z N m N A S C N Z C C C C C B M 5.H.G.F.G.G.F.G.G.G.F.F.G.G.F.G.G.G.G.F.G.G.G.G.G.Q.G.F.G.G.F.G.F.G.F.A.F.F.F.F.G.G.G.F.F.G.G.F.F.F.G.G.G.G.G.G.F.F.F.F.F.F.F.G.F.F.F.G.A.G.F.G.G.G.F.A.A.G.G.A.F.G.G.G.F.Q.G.G.F.G.Q.Q.!.G.G.G.F.F.G.F.G.F.G.Q.G.Q.G.G.Q.Q.G.Q.Q.S.S.OX*X*X*X*X$X$X$X$X$X#X#X#X#XoXoX#XoXoXoX.X.X].].].].[.[.[.`.`.`.`.`.V.V.V.V.C.C.n.n.n.n.:.:.:.f g g g g g g y > = $ % % 0 #.%.%.%.+.+.+.....O.O.O.O.O.O.O.............+.+.@.%.$.} { d p ^ 8.9.e.u.a.d.d.d.j.k.j.c.c.l.l.l.l.l.j.d.g.R.~.^.^.Q.Q.Q.Q.W.~.~.~.R.R.T.g.g.g.g.g.x.c.c.c.c.l.j.j.j.j.j.j.j.j.l.l.l.j.x.c.x.j.x.j.j.j.j.j.j.j.j.j.l.j.x.j.j.l.j.j.c.c.c.x.x.j.x.j.j.j.j.j.j.j.j.j.j.l.l.j.l.j.j.j.j.j.j.d.d.g.h.T.R.R.R.T.T.g.g.g.f.d.j.j.l.x.l.j.j.j.j.x.j.j.j.j.j.j.j.j.l.l.x.j.l.l.q.* * o o X X X X X X X X X X         X                 . # [ $.X.X.O.............................................................................O...................................................................................................................",
"X o o X X X X o o o o X X X X X X o X o o o o o X X X X o X X o o X X X X X o o X X o o o X X X o X X X X X X X X X X X X X X   X       X X X   X X X X X X X o X o : a f C.`.].oXoX.X].].].].].].].].].].].].].].].]..X].].+X#X].].].].].].].#X#X].].].].].].].].].].#X.X#X.X#X].#X#X].].].].#X#X#X#X#X#X].].#X+X].#X].].#X|.#X].|.#X#X#X#X#X#X#X#X#X#X#X#X#X#X#X#X#X].'.`.J.V.m.m.E I I K K K L L B B N A N m Z Z Z N m N m N m m m C m m Z S Z N m m m m m N m m m m N N N m N A N m m m m m m m N m m m m m m N m m m m m m m m m N N N m m m m m m m m m N m m m m m m m m m m m m m m m m m m m m N m m m m m C N m m m m N N Z N m m m m N m m m m m m N m m m m m N m m N Z Z m N N N m m m m m m m m m m N m N N C Z Z Z Z C Z m C C Z C m m m m C m Z Z N C N C N N S Z C Z C Z Z N C m Z C C C C N Z Z Z Z N N C m m C A m Z Z Z C m C m m m m m Z C m C C Z N N Z m m m m m m N N m Z m m N m C C C Z Z C Z A Z C m N N m m N m N Z Z Z Z C C C Z Z C m C C C Z N N B L H.H.H.G.H.F.G.G.G.G.F.F.F.F.G.G.G.G.G.F.G.G.G.F.F.G.G.Q.Q.Q.G.F.F.F.A.F.A.F.A.A.G.F.G.G.F.F.G.F.G.F.F.F.G.Q.G.G.F.A.F.G.F.G.G.G.F.A.F.F.A.G.G.F.G.G.F.G.F.F.A.A.A.A.A.G.Q.G.F.G.G.A.F.G.G.G.Q.F.G.F.G.F.G.G.G.G.F.G.G.G.F.A.F.Q.G.A.S.OX*X*X*X*X*X$X#X#X#X#X#X$X$X#XoXoXoX{.{.]..X].].].].].].].[.`.`.`.~.R.V.V.V.V.C.C.C.n.>.:.:.:.g g g i i p t ; ; ; : ; $ % % 0 | $.Y.%.%.+.+.X.......+.....O...X.+.@.@.@.$.#.| / a p i 6.8.0.e.u.i.d.d.k.k.k.j.k.j.l.c.l.c.l.j.j.l.g.T.R.~.W.W.^.W.~.~.R.R.T.g.g.g.g.g.l.j.l.c.c.x.b.j.j.x.l.j.j.c.l.j.j.j.x.j.j.x.c.j.j.j.l.x.j.j.j.j.l.j.j.j.l.j.l.l.j.c.j.l.c.c.j.x.j.j.j.j.b.j.j.j.j.j.j.j.c.l.j.j.l.x.j.j.j.j.d.d.g.g.g.T.T.g.g.g.f.d.j.j.j.j.j.j.j.j.j.j.j.j.j.j.j.j.j.l.x.j.x.j.j.j.j.l.d.r.t * O o X X X X X X X X X                             . %  .X.X.X...O.O.................................O.............................................O.............................................................................................................",
"X X o o o o o o X o X X X X X X o o X o o o o o o X X o o X X o X X X X X X o o X X X X o X X X X X X X X X X X X X X X X X     X         X     X o X X X X X o o o o o O & > g n.V.`..XoX#X].].].].[.[.].[.].].].].]..X.X]..X#X].].].#X].#X].].#X].#X].].].].].].].].]..X.X.X#X#X.X#X#X#X#X#X#X].#X#X#X#X#X].#X#X#X#X#X#X#X#X#X#X].#X#X#X#X#X.X#X#X#X#X#X#X#X#X#X#XoX.X].].[.`.`.J.J.N.m.W T I I b b v M B B A N N N m m m N N m m m N m m m m m N Z N m m m m m m m m m m m N N m N Z N m m N m m m m m m N N m N m m m m m m m m m m Z N N m m m N m m m m m m m m m m m m m N m m m m m m m m m m m m m N m Z Z m m m m m m N N m m N N m m m m m m m m m m m m m m N Z Z N m m N m N N N Z Z C Z m C C m m m m N m m C Z C m Z C C C m m N N N m Z m Z N C Z C m N N C C A A C Z C Z Z N C N m C N m N m m m N m m m m C m N Z C m C A Z C C m C C C N N Z N Z Z N Z N m m m m m m m m N m m N m m N m Z C C m N C Z A C C m N m m N m m m N Z Z C m N m N C Z C C C N N N M ! H.H.H.F.H.F.F.F.F.F.F.F.F.G.F.A.F.G.F.G.F.F.G.G.G.F.G.G.G.Q.!.G.F.G.F.F.Z.F.F.G.G.F.F.G.G.G.G.G.F.G.F.Q.Q.F.G.G.Q.F.F.G.G.G.Q.G.F.F.G.G.G.G.F.G.G.G.G.Q.G.Q.Q.Q.Q.G.A.F.F.G.S.A.G.F.A.A.G.G.Q.F.G.G.A.F.F.G.G.G.G.Q.G.F.G.G.F.A.G.G.Q.OXOX*X*X*X*XOX*XOX$XOXOX$X$X$X$XOXoXoXoXoX].{.].].].'.[.'.'.'.[.`.`.R.~.V.V.V.C.n.n.n.y.:.:.;.;.;.;.i u u y t t w ; ; ; $ $ % % q ' | &.$.Y.%.%.%.%.@.@.@.@.%.%.%.$.Y.#.] d 6 y i i 6.7.9.e.u.u.a.d.d.j.j.j.j.j.j.j.j.j.j.l.l.j.j.g.g.R.~.~.~.~.E.R.R.T.h.g.g.g.l.c.x.l.x.x.c.x.j.c.x.j.j.j.l.x.x.x.c.x.c.j.j.j.j.j.j.l.l.j.j.j.j.j.j.j.j.j.j.l.j.j.j.j.j.j.l.l.j.j.j.j.j.j.c.c.j.j.j.j.j.j.j.j.j.j.j.j.j.j.j.j.j.j.j.d.a.g.g.g.g.a.d.j.j.l.l.j.j.j.l.j.j.j.j.j.j.j.x.j.j.c.l.j.x.x.j.j.j.j.j.d.g.=.* * o o o X X X X X X X X X     X       X           . 5  .o.X.....................................................................................................................................................................................................",
"o X X X o o o o o o o o X X X X X X X X X X X X X X X X X X X X X X o o X X o X X X X X X X X X X X X X X X X X X X X X X                 X     X o o X X X o o o O O o O O O O O : > g g V.].#X#X.X[.[.[.].].].[.].].].].].].#X#X#X].#X#X.X#X#X].].].].].].#X].].].#X]..X.X]..X#X].].#X].#X#X#X|.#X#X#X#X#X#X.X#X#X#X#X#X#X#X#X#X].#X#X#X#X#X#X#X#X#X#X#X#X#X#X#X#X#X#X#X#X.X.X].'.'.`.~.J.V.N.m.E T I b b b U L B B B m m N m N m m N m N n m m m N C m N N m m m m m m m m m N Z N m m m m m N m m m m m m m N N m m m m m A m N m m m m N N m m m m m m m m m m m m m m m m N N m m N m m m N N m N Z Z m N Z N m m N m m N N Z m m m N N N m N m m m m N N m m m N m m m N m N N m m m m m C Z Z Z Z Z m m m m m m m C m m C C C C C Z N N C m Z C m m C C C Z m N Z C Z Z N C C Z A C C m N m N m N N m m C N m m N N C C Z Z C C C Z Z C A Z Z Z C N m m m m Z A m m m N m m m m m C C m m m m m m Z Z m Z C m C C N C C N m N m m m m m m C N C N m N N C m Z A C m N N M 5.H.H.F.G.F.F.F.F.H.F.G.F.F.F.G.F.F.G.G.F.F.F.F.F.F.F.G.G.G.G.G.G.F.A.F.G.Q.G.G.F.F.G.G.F.G.F.G.F.F.F.G.F.G.Q.G.G.G.G.G.G.G.A.F.Q.G.G.G.F.G.G.F.F.G.G.A.G.G.G.G.A.A.G.Q.G.F.F.Q.Q.G.Q.Q.G.A.F.F.F.F.F.F.F.F.F.Q.G.G.G.Q.G.Q.Q.G.G.G.S.D.D.^.^.(.~.(.(.(.(.(.}.OXOXOXOXOXOXOXOXOXOXOX{.{.{.'.'.'.'.'.'.`.'.`.~.~.V.V.V.C.C.y.y.y.y.y.8.8.8.-.-.=.=.i u u t t w ; ; ; ; ; $ $ % % q 0 ] } #.#.#.#.#.&.| [ ' 0 d d y p i i 6.6.9.0.e.u.a.a.d.k.k.j.j.j.j.j.l.l.x.c.c.l.l.j.j.d.i.T.R.R.R.T.T.g.g.g.l.c.c.l.l.x.j.j.j.j.j.l.l.l.x.j.j.j.j.j.j.j.j.j.l.x.j.j.l.l.j.j.j.j.j.x.l.j.l.j.j.j.j.j.j.l.j.j.x.j.c.x.j.l.j.j.j.j.c.c.j.j.j.j.j.l.j.j.j.j.j.j.j.j.j.j.j.d.j.j.d.j.l.j.l.c.c.j.j.l.j.j.j.l.j.j.j.j.j.l.x.j.j.j.j.j.j.j.l.x.j.j.l.l.x.l.g.r.w * O o o o o X X X X X X X     X                 . . q &.........................................................................................................................................................................................................",
"o X X X o o o X o o o X X o X X X X X X X X X X X X X X X X X X X X X X X X o X o o X X X X X X X X X X X X X X X X X X X X   X           X     O O o X o X X o o O O O o O o O O o O o O : a n.C.V.[.].].[.[.[.[.[.].].].].#X#X.X]..X.X+X].].].#X#X#X].].].#X.X].]..X].]..X#X].#X+X].].].].].#X#X#X#X#X#X].].].#X#X].#X#X#X#X#X#X].].].#X#X+X].#X#X#X#X#X#X#X#X+X].oX#X#X#XoXoX.X.X].].].].[.`.~.J.N.m.>.E I I b v L B L B B N m m m m m m m m m m N N C m m m m m m m m m m m m m m m N m m m N N m m m m m m m N N m m m m m m N N m m m m N m m m m m m m m m m m m m m m m m m N N Z Z N m m Z N m N S Z C C m m m Z N m N C Z Z C m m m m N N N m N m m m N m m m N N m m m m C N m m m m m N m A S Z N m m N m m m C C C C C m C C C Z C m N Z Z N m m C S C C N m N N C C N C Z m C m Z Z m m N N m m m C Z C N N N N C C N N C m C C C Z C Z A Z N m m m m m Z m m m m m N m C C N C Z m m m m m N m m N m m m m m N C C m N N N N N C m N N N N C C N N m m S Z C Z N ~ H.H.H.H.F.H.G.H.H.H.H.H.F.H.H.F.F.F.F.G.F.F.F.F.F.F.F.G.G.G.F.G.G.G.F.G.G.G.G.Q.Q.G.F.F.F.F.F.Q.G.G.F.F.F.G.G.F.F.A.A.F.G.G.G.F.A.F.G.F.F.G.G.G.F.F.F.G.G.Q.G.G.G.S.F.F.Q.Q.G.G.Q.Q.F.G.Q.G.A.A.A.A.A.G.F.G.G.F.G.Q.Q.G.G.F.F.F.G.F.Q.Z.4.D.A.A.A.D.D.Z.D.Z.Z.A.D.D.D.S.S.S.W.Q.S.S.W.~.~.~.~.~.~.~.~.~.~.~.~.~.~.R.R.B.B.t.w.w.q.q.9.7.9.9.6.-.-.-.=.u u u t t w ; ; ; ; ; $ $ $ $ $ % % % % % % % 7 % 7 6 y p i i 6.6.9.9.e.e.e.i.i.d.d.k.k.k.j.j.j.j.j.x.l.c.l.c.j.j.j.l.d.g.T.g.g.g.v.x.x.l.l.x.x.c.l.j.c.j.j.j.j.c.l.x.j.j.x.l.j.j.j.j.j.j.j.j.j.c.l.l.j.j.x.j.j.c.c.x.l.l.l.c.l.j.j.j.j.j.l.c.j.j.j.j.j.j.j.j.j.j.j.j.j.j.j.j.j.j.j.j.l.j.c.c.j.j.j.j.j.j.j.j.j.c.c.c.j.x.c.x.j.j.j.j.j.j.j.j.j.j.j.j.x.l.x.l.v.c.j.j.l.j.j.j.l.l.l.g.i * * o o X o X X X X X   X                       . . G $...O.....................................................................................................................................................................................................",
"X X o o X X X o o o X X o o X X X X X X X o X X X X X o X X X X o X X X X X o X X o o X X X X o o X X X X X X X X X X X X X X   X             X o X X X X X X X X o O O O o o o O O O O O O O O = > g n.V.[.].].].[.].[.].#X].]..X]..X].].].].]..X#X#X#X].#X#X#X#X].].#X].].].#X#X#X].[.].].].].#X].].].|.].#X.X].#X#X].#X#X#X|.#X#X#X].].#X#X.X].#X#X#X#X|.#X#X#X#X].].#X#X{.|.{.].#X].].].].].'.'.`.`.~.J.N.m.W T I K b v U ~ L B N m N m m m m m m m m N m m m m m m m m m m m m m m m m m m m N N N m m m m m m N m m m m m m m m m m m m m N N m m m m N N N m m m m m m m m N m m m Z Z Z m m m m m N N N m N m Z C C C m m m C N C m m m m N Z N N m m m m m m m m m m C m m m Z Z m m m m m m Z C Z N m m m m m m C N N m C C m N Z C Z Z m A A C m m N Z Z N m Z N N m N N N m m C Z C Z Z N N m m m N N m C N N N N C m C Z C N N C A C C Z Z Z C Z N m m m A N m m m N m m N m N C N m m m m N m m m m N N N m C N C m C Z m N N N A C m m C N Z N A Z N C m Z S N M ! H.H.G.F.F.F.F.H.F.Z.H.G.F.F.F.Z.F.G.F.Z.F.Z.Z.F.F.F.F.A.F.A.G.G.F.G.G.F.G.G.F.G.F.G.G.F.Z.A.F.F.F.G.A.A.F.G.G.Q.G.G.G.F.F.F.G.Q.F.F.A.G.G.G.Q.Q.G.F.G.G.G.G.G.Q.G.G.G.F.F.Q.Q.Q.G.Q.G.G.F.Q.Q.Q.G.G.G.Q.Q.Q.Q.G.G.G.Q.Q.Q.G.A.G.F.F.G.Q.G.G.G.A.G.F.A.Z.Z.3.3.Z.3.4.4.4.4.1.,.1.1.4.,.,.,.,.,.4.,.,.,.,.,.m.m.n.C.C.B.T.t.r.r.r.e.e.0.e.0.9.9.7.6.-.-.=.i i u u t t t w ; ; ; ; ; ; ; $ $ $ $ $ ; ; w t y u i =.6.6.9.0.e.e.e.i.a.d.d.j.j.j.j.j.j.j.j.j.j.l.x.j.j.l.j.l.j.j.j.d.f.d.d.l.x.j.x.x.x.c.x.j.x.j.b.j.j.x.x.l.l.j.j.x.l.x.l.l.j.j.j.j.j.j.j.j.j.l.x.x.x.x.j.j.j.j.l.c.l.c.l.j.c.c.l.j.c.c.l.j.j.j.x.c.l.j.x.l.x.j.j.j.j.l.l.j.j.j.c.x.j.x.j.j.l.j.j.j.l.l.x.c.j.j.j.j.x.x.j.j.j.j.j.j.j.j.j.j.j.j.j.j.l.j.x.c.x.j.j.j.j.l.c.x.l.g.t.w * O o X o X X X X X X                         . # [ @.........................................................................................................................................................................................................",
"o o o o o X o o o o X o o o o o X X X o o X X X X X X X o o o X X X o X X X X o o X o X X X X X X X X X X X X X X X X X X X   X X X X X       O O X o o o o X o o o o X o O O O o o o o o O o o X o o O > a f V.`.]..X].].[.].].].].].]..X].].]..X].#X#X#X].]..X].].].].].].].].].].].].].].].#X].].].].].].].|.].].].].].]..X#X#X#X#X#X#X#X#X#X#X#X#X#X#X.X#X#X#X#X#X+X#X#X#X#X#X#X.X|.#X].].].].].].'.[.'.'.[.J.N.m.W T I K K K L B B M N N m m m m m m m m m m m m m m N m m m m m m m m N N m N m m m m m m m m m m m m m m m m m m m m m m m N N m m m m m m m m m m m m m N m N N N m m m N m m m N m N m m m m m m Z Z N C C Z N m m C m C N m m m m m m m m m m m m Z m m m C C Z Z Z m N N m m m C m m N m N N m m m m m m A S N C Z Z A Z Z Z Z N C N N Z Z C N Z N m m m N m N Z Z m m N m m N N N m N m C C N N m m m m C N C N m m C C C m N C Z C Z N Z N m N m C Z m N m m C m m C C C N m m m m N m m m N N Z C N N N C m C C N N N m C Z N C C m N m C Z S N M ! 5.H.H.G.G.F.G.!.G.F.Z.F.F.G.F.F.G.F.G.F.F.F.F.F.F.F.F.G.F.G.A.G.G.F.F.F.F.F.F.G.F.G.Q.G.G.F.F.F.A.F.F.G.G.G.G.G.G.G.F.G.G.G.G.G.G.G.G.G.F.F.G.G.F.F.G.G.G.G.Q.Q.G.F.G.Q.Q.S.A.G.G.F.G.F.A.F.G.Q.Q.Q.F.Q.Q.G.F.F.G.G.G.A.G.G.A.G.F.G.G.G.G.Q.Q.Q.F.Q.Q.A.F.F.F.Z.A.Z.F.3.3.3.3.3.4.3.3.4.4.1.1.,.,.<.<.>.>.:.:.:.y.t.t.i.r.e.u.i.i.i.i.u.e.0.0.7.7.7.6.6.-.=.i i u u u t t t w ; ; ; ; ; ; ; ; t t t y u u i =.-.7.9.0.e.e.u.u.a.d.a.j.j.j.j.j.j.j.j.j.j.j.l.j.j.j.j.l.l.j.j.j.j.l.l.x.x.x.x.l.j.j.c.c.j.j.j.j.j.j.x.c.c.x.x.c.l.c.x.x.x.x.j.x.b.j.j.j.j.j.j.j.j.j.j.j.j.j.j.l.j.l.l.c.l.l.l.c.l.l.l.j.j.x.c.x.l.j.j.j.j.x.c.x.x.x.x.c.c.c.x.j.j.l.j.j.j.l.l.x.j.l.x.j.j.j.x.b.j.j.j.j.j.j.j.j.j.j.j.j.j.l.j.c.l.j.j.j.j.j.x.x.j.l.l.j.x.j.d.g.i * * O o X X X X X X                           . % | @.........................................................................................................................................................................................................",
"o o o o X X X X o o o o o X X o X X X o X X X X X X X X X X X X X X X X X X o o X X X X X X X X X X X X X X X X X X     X       X X X         O O o o o X X X X o o X o o O o o o o o O o o o o o o o O o O O : > f n.V.[.].].].].].].]..X#X#X#X].#X.X].#X].].].].].].].#X#X].].].].].].].].].].|.|.].].].].].].|.|.#X#X#X#X].#X#X].#X#X#X#X#X#X#X#X#X#X].].].#X#X#X#X#XoX#X.X+X#X+X#X#X#X#X#X#X#X]..X.X].].].[.'.'.`.J.V.N.m.E T I K b b M M M m m m m m m m m m m m m m N m N N m m m m m m m N m m m m m m m m m m m m m m m N m m m m N m m m m m m m m m m m m m m m m m m m N N m N m m N N N m N Z Z m m m m N N N N N N N N Z C C C m m m m C N N m m m N m m m N N Z Z m C Z Z Z C C Z m C N N C m m m m m m m N N Z N m m m N N N Z C C C Z m m N C C C C N N N C m N N N N N m N C C C Z Z N Z N N Z Z C C Z Z m m m m N Z Z C N C m m m N N m m m m C Z N m C Z Z Z A C N N N C C N N C Z Z C m m m m m m m m m C Z C C C m C N m Z C C C Z Z C Z C m m m Z Z N M M 5.5.3.H.H.G.F.F.F.G.G.G.F.F.F.G.G.G.G.G.G.F.F.F.G.G.G.G.F.G.G.G.F.F.F.A.F.F.F.F.F.F.F.F.G.G.Q.G.G.F.F.G.G.G.G.F.G.G.Q.G.G.Q.G.G.G.F.G.G.F.G.F.G.G.G.G.F.F.G.A.G.G.Q.G.F.G.Q.Q.Q.S.G.G.F.Q.F.A.F.F.G.G.G.F.Q.Q.Q.G.G.F.Q.Q.G.G.Q.G.Q.Q.G.F.G.G.G.Q.Q.G.Q.Q.G.A.F.F.F.G.G.F.A.F.F.H.Z.3.3.3.4.1.4.1.,.,.>.>.>.C.w.t.g.g.i.f.d.d.f.d.d.a.i.u.u.e.e.0.9.9.7.7.6.-.-.=.i i u u u u y t t t t t t t t y u u i i =.-.6.9.9.0.e.e.u.i.a.d.k.k.j.j.j.j.j.j.x.x.j.j.j.j.j.j.j.j.j.l.l.j.j.j.j.j.l.x.x.l.x.j.j.j.x.l.j.j.j.j.j.x.l.j.j.x.x.j.c.x.x.j.c.x.j.j.j.j.j.j.j.j.j.j.j.j.j.c.x.x.j.j.j.j.c.c.j.j.c.c.j.j.j.j.x.x.l.x.c.x.l.x.c.c.v.c.x.c.x.c.x.x.x.j.j.j.j.j.l.c.x.j.j.j.j.j.j.j.b.j.j.j.j.j.j.j.j.j.j.c.x.c.c.x.l.x.j.j.j.x.x.j.l.j.j.x.l.j.j.l.g.8.* * X X X X X X X X                           . 5  .X.O.O.....................................................................................................................................................................................................",
"o o o X X o o o X X o o o X X o X X o o o X X X X X X X X X X X o X X X X X X X X X X X X X X X X X X X X X X X X X X X X X     X           X O O O o o X X X X X X o o o o X o X X o o O o o O O o O o O O o o o O O > a f C.`.[.].].].].].].].]..X.X#X].]..X].].].].].].#X].].#X#X#X].].].#X#X].#X#X].]..X].].#X#X#X#X#X#X].].#X#X#X#X#X#X#X#X#X#X#X#X#X#X].].].#X#X#X#X#X#X.XoX#X#X#X#X#X#X#X#X#X#X#X#X#X#X].].].'.[.'.`.J.J.N.m.W T I b b v M m m m m N m m m m m m m Z Z m m N m m m m m m m m m m m m m m m m m m m m m m m m N m N A m m m N m m m m m m m m m m m m m m m m m m N N m N Z A m N m N m m m N N m m m N m N Z N m N N N m m m m m m m N m m m m m N N C N N N C C Z Z m Z Z m m m m m m m m m m m N m N m m C m N N Z m m Z m m N m C N N m Z N N C m C N m C Z m m m m m m m Z Z Z N N Z C N C C A C C C N N m N Z Z N N N Z Z A Z C Z C m Z Z Z C N N N m N C m m N N Z A Z Z C C N m N m C C m m N m m Z N N N m Z N N C Z S S C C C m C m m m Z N M ~ 5.5.3.H.H.H.H.F.F.A.F.F.G.G.F.F.F.F.G.F.G.G.G.F.F.G.G.G.F.F.F.G.F.G.F.G.A.F.G.G.G.G.Q.F.G.G.F.F.G.G.G.G.G.F.F.G.G.G.G.G.G.F.G.G.F.F.F.G.G.G.F.F.G.F.F.F.A.G.Q.G.F.F.F.G.F.G.G.Q.G.F.G.G.G.Q.G.G.F.G.G.Q.F.F.Q.Q.Q.Q.F.G.Q.Q.F.G.G.G.G.F.F.G.G.Q.Q.G.A.G.G.G.F.F.G.G.F.F.F.A.3.Z.3.Z.Z.3.4.4.4.4.,.,.>.C.B.T.h.h.i.i.a.d.d.d.d.d.d.d.d.a.i.i.u.e.e.0.0.0.9.7.7.6.-.-.-.=.i i i u u u u u u u u u i i =.=.-.-.7.9.0.e.u.i.i.a.a.d.d.k.k.k.j.j.j.j.j.j.c.j.j.j.j.j.j.j.j.j.k.l.j.l.j.j.j.j.j.j.j.j.j.x.j.j.l.j.j.l.x.c.c.c.c.c.c.l.c.j.j.j.x.x.j.x.x.j.j.j.j.j.j.c.x.l.c.l.j.j.x.c.x.j.j.j.l.l.j.x.j.j.j.x.j.j.j.l.x.x.l.x.j.j.j.j.j.j.l.c.c.j.j.x.j.j.j.x.j.x.x.l.j.j.j.j.j.l.j.j.j.j.j.j.j.j.j.j.j.j.j.j.l.l.l.j.c.l.j.j.j.l.j.j.l.j.l.j.j.j.l.g.r.; * X X X X X   X X X X X X X X X             + q &.X.X.......................................................................................................................................................................................................",
"o o X X o o o X X X X X X X X o o o o o o X X X X X X X X X X X X X X X X X X X X X X X X X X X X X X X X X X X X X X X X X                 O O o O O o o o X X X X O o o O X o X X o O O O o o O O o o o o o O O O O O o o : a a f V.[.].].].].].].]..X.X#X.X+X].].].].].].#X#X].#X#X#X#X#X.X#X#X]..X#X#X].].].#X.X].#X#X#X#X#X#X#X#X#X#X#X#X#X#X#X#X#X#X#X#X].].#X#X#X#X#X#X#X#X#X#X#X#X#X#X#X#X#X#X#X#X|.#X#X].oX#X].].].].'.`.~.J.J.m.W T K M m C m m m m N m m m m m N Z Z N N m m m m m m m N Z Z m n n n m m m m m m m m m m m m N m m m m m m m N m m m m m m m m m m m m m m m m N m N C Z N m m m N m m N N m m N m m N N Z N N N C m m C N m m m m m m m m m N m N N m Z C Z Z C Z A Z m N m m m m m m N C m N N m m N C m m Z Z C Z C C Z C C N N C m N C C m m N C m m N m N N m m m m m m m N m m N C C Z Z C C C C C Z A N m m N Z N C Z A Z Z Z C C C A A N N N m m C m N m m m N N C Z Z m m N m C Z m N N m m m N N N m N N C C A S Z C C m N N m N m N N x ! 5.5.3.3.H.H.H.F.F.F.G.F.F.H.F.F.G.F.F.F.F.G.Q.G.G.G.F.A.F.F.F.F.G.F.G.G.G.F.Z.F.F.G.F.G.F.G.F.F.F.F.F.F.G.G.F.F.F.G.G.F.G.G.F.G.F.F.G.G.G.!.G.F.F.F.F.F.G.G.G.G.G.F.F.F.F.G.G.G.Q.G.A.F.G.G.G.F.G.F.G.G.G.F.F.G.G.F.F.F.G.G.Q.G.G.G.F.G.F.G.G.G.G.F.A.F.F.G.G.F.G.F.G.F.F.F.3.3.A.Z.3.4.D.4.4.N.C.B.B.h.g.i.f.f.d.d.d.j.j.d.j.d.d.d.d.d.a.i.i.u.u.e.e.e.0.0.9.7.7.6.6.-.-.-.-.-.=.i i i =.=.=.=.-.-.-.6.6.9.9.0.e.u.i.i.a.d.d.d.d.j.j.j.j.j.j.j.c.j.l.x.j.b.j.l.j.j.j.j.j.j.l.l.l.j.j.j.j.j.j.b.j.j.l.l.j.j.j.j.c.x.l.j.j.l.x.l.c.c.j.j.j.j.j.x.x.j.j.j.j.j.j.j.x.x.c.j.j.j.j.x.x.x.l.l.j.x.j.j.j.j.j.j.j.j.j.l.x.j.j.j.j.j.j.j.j.j.l.c.l.j.j.j.j.l.j.j.j.j.j.j.j.j.j.j.c.c.x.l.l.j.j.j.j.j.j.j.j.j.j.j.c.v.c.c.c.c.l.l.l.j.l.l.l.l.j.l.j.j.j.d.g.u * * X X X X X X X X X       X X X     * ; y 9 _ &.X.X.......................................................................................................................................................................................................",
"X o X X o o X X X X X X X X X o o X X X X X X X X X X X X X X X X X X X X X X X X X X X X X X X X X X X X X X X X X X   X X X               o o o o O X X o o X X o o o o X X X X X X o o o o o o o X X X X o o o O O o O o o o o O > a f C.`.].#X].].].].#X.X.X#X].].]..X].].#X#X].#X#X#X.X]..X#XoX#X].#X#X].].].].].].].#X#X#X#X.X#X#X#X.X#X#X#X#X#X#X#X#X#X#X#X.X.X#X#X#X#X#X#X#X#X#X#X#X#X#X#X#X#X#X#X|.#X#X+X]..X#XoXoX.X.X].'.'.[.~.J.,.K B Z m m m m m m m m m m m m N C m m m m m m m m m m N Z A Z N m m m m m m m m m m m m m m m m m m m m m m m m m m m m m m m m m m m m m m m N N N C C m m m N N m m m m m m m m m m N m m N N m N C m m N N N m m m m m m m N m N Z Z m N N Z S S Z A Z Z m m m N Z Z C C C N C m m Z N N m C m m m C C Z S m N m N Z m m C Z Z m m Z Z N N N m N N m N Z m Z Z m C C C N Z C C C C m Z Z Z N m m m N N Z Z m Z Z C C C Z A m m C m m N m m m N m m C Z C C N Z Z C C C m C C m m m N N m m m C m C Z C C Z C N m m m N N B L 5.5.5.H.H.H.H.F.F.F.F.G.F.G.G.G.G.F.F.F.F.A.Z.F.G.F.F.F.F.G.F.F.F.G.F.G.F.F.G.F.Z.F.F.F.F.F.G.G.G.F.F.F.F.F.G.G.G.F.F.G.F.G.G.G.F.F.A.A.F.G.F.Q.F.F.F.G.G.G.F.Q.G.G.F.G.G.G.F.G.G.G.G.G.G.G.F.G.F.G.F.G.F.A.F.Q.G.A.F.F.F.F.G.G.G.G.F.G.F.F.F.G.G.F.F.F.A.A.F.F.A.A.F.F.F.F.F.F.3.Z.A.D.4.N.N.B.T.T.h.g.f.d.d.d.d.d.j.d.j.d.d.d.j.d.d.j.d.d.d.a.i.i.u.u.e.e.0.0.0.7.7.9.7.6.6.-.-.-.-.-.-.-.-.-.-.6.7.7.9.9.9.0.e.u.p.p.a.d.d.j.d.j.j.j.j.j.j.j.j.l.l.j.j.j.j.j.j.j.j.j.j.x.l.j.j.j.j.l.j.x.x.j.x.j.x.l.j.j.j.j.j.j.j.j.j.j.j.l.j.x.x.j.j.j.j.j.j.l.j.j.j.j.j.j.j.x.l.j.j.b.j.j.j.x.x.j.l.j.j.j.j.j.l.j.j.j.j.j.c.c.c.c.x.j.j.j.j.j.l.j.j.j.l.j.j.j.j.j.j.j.j.j.j.j.j.j.j.x.x.c.j.l.l.l.j.l.c.l.c.l.x.j.l.c.c.l.x.c.l.l.l.j.l.l.c.j.x.l.j.j.j.j.d.f.q.* X X   X       X   X X X X X X * ; y i i p 6 ' @.+.O.O.O...................................................................................................................................................................................................",
"X X X o X o o o o o X X X X X o X X o o o o o o o X X X o o o o o X X X X X X X X X X X X X X X X X X X X X X X X X X   X X X             X o O o X X X o X o X X o o o X o X X X X X X X X o O O X X X X X o X X o X o o o o o o O o o O O > g n.V.[.].#X.X].].]..X].]..X.X.X.X#X.X].]..X.X].]..XoX.X#X#X#X#X#X#X.X].]..X.X].#X#X#X#X#X#X#X#X#X#X#X#X#X#X#X#X#X#X#X.X#X#X#X#X#X#X#X#X#X#X#X#X&X#X#X#X#X#X#X#X#X#X#X#X#X#X#X.X.XoX{.{.[.'.J.m.v B N N N N m m m m m m m m m N m m m m m m n m m m m m m N C C C N m Z N m m m m m m m m m m m m m m m N m m m m N m m m m m m m m m m m m m m N m N C N m N m N m m m m m m m m m m m N N m m m N m m m m m Z N m N m m m m m m m N Z N m m m A S S Z A A Z N N C C Z C C C C C C m C Z A Z C Z Z N N m C Z m m m m N N m m Z Z N N N m N N N N N N N m C C C A Z N Z Z Z Z Z N N N N Z m m C Z Z C m Z C N C N N m m N m N Z m m m m m m m m C C C Z Z S Z C Z S A C C C m m m N m m N N m C Z m m m N C C C m m m m m N M L 5.5.5.3.H.H.H.G.F.H.F.G.F.F.G.G.G.F.F.F.F.F.F.A.H.F.F.G.F.G.G.G.F.G.G.F.G.G.F.G.F.Z.F.F.F.F.G.G.F.G.F.F.G.F.G.F.F.G.F.G.Q.Q.G.Q.G.A.F.F.F.F.F.F.G.F.G.F.F.F.F.G.G.F.F.F.G.F.F.F.F.Q.G.F.G.G.G.G.G.G.G.F.G.G.F.G.F.F.G.G.F.F.F.G.G.G.Q.F.F.G.F.F.F.F.F.F.A.A.A.A.F.A.A.A.A.A.A.A.A.D.N.E.E.B.T.h.h.f.f.d.d.j.d.j.j.d.d.d.d.d.j.j.d.d.j.d.d.d.d.d.d.f.a.i.u.u.e.e.0.0.0.9.9.7.7.7.9.7.7.7.7.7.7.7.7.9.9.0.0.0.e.e.u.u.u.i.d.d.d.j.j.j.j.j.j.j.j.j.j.j.j.j.l.l.l.j.j.j.j.j.j.l.x.x.l.j.x.l.x.l.j.j.j.j.j.l.j.j.j.j.j.j.j.j.c.x.j.j.x.j.x.j.l.j.j.j.x.x.j.j.j.j.j.j.j.x.j.x.j.c.x.j.x.j.j.j.j.j.j.j.j.j.j.j.j.j.j.j.j.x.x.c.x.j.j.j.j.j.j.j.j.j.j.j.j.j.j.j.j.j.j.j.j.l.l.j.j.j.j.j.j.x.j.j.j.j.j.l.j.j.x.l.l.x.x.x.x.x.c.c.j.j.j.j.l.x.l.x.j.j.j.j.d.i.r.;.* X X         X X X X X * ; u ;.8.8.=.i y 9 | @.O.O.......................................................................................................................................................................................................",
"o X X o X o o X X o o X X X X o X X o o o o o o o o X X o o o X X X X X X X X X X X X X X X X X X X X X X X X   X X X X X X               o O o o O O o o o o X o o X o X X X X X o X o X X o o X X X X o X X o X o X X X o X o O o O O o o X o O : a f C.V.[.].].].].].]..X#X.X].#X].].].+X.X.X#X.X#X#X.X].]..X]..X#X#X#X#X#X#X#X#X#X#X].#X#X#X#X]..X].].#X#X#X#X#X#X].].#X#X#X#X#X#X#X#X#X#X#X#X#X#X#X#X#X#X#X#X#X#X].oX#X#X#X#X#X#X{.'.~.W v N N N N N m m m m m m m m m m m N m m m m m m m m m m m N m m m m m m m m m m m m m m m m m m m m m m m m m N m m m m m m m m N N N Z N N m N N N N N N N m m m m m m m m m m N m m N C m m m m N m m m m N N N m m m Z m Z m N m m m N Z N n B B ~ ~ ~ B N A A N Z Z Z N Z Z m Z C m N Z A S S A C C C Z N N m m m N N C m m m m m m N N N Z C Z Z m Z Z N Z Z N Z Z Z Z Z N N N N N m C N N Z Z Z C m m m N N N m m m m m N Z Z m N m m m N C Z C C C C C Z C Z C C C Z C m N N Z N N C m m N m m N N C C Z C N N m m m M ! 5.5.5.H.H.H.F.F.G.G.F.F.G.F.G.G.G.G.G.G.F.F.F.F.G.F.F.F.F.F.F.G.F.G.G.G.G.G.F.G.F.F.Z.Z.F.F.F.G.G.A.A.A.F.F.G.G.F.G.F.F.F.G.G.Q.Q.Q.F.F.F.F.F.G.G.G.G.F.G.G.A.G.G.G.F.A.F.A.A.A.F.G.G.G.Q.Q.F.F.G.G.Q.G.G.Q.G.G.Q.F.G.Q.Q.Q.G.F.G.F.F.F.G.F.G.G.F.F.F.F.F.F.F.A.A.A.Z.A.A.S.D.N.N.E.T.T.h.h.g.g.g.d.x.d.j.j.x.j.j.d.d.d.j.j.j.j.d.l.x.j.j.j.j.d.d.d.f.a.i.u.u.u.u.u.u.u.e.0.0.0.0.0.0.0.0.9.0.0.0.0.0.e.e.e.u.u.u.a.a.i.d.d.j.j.j.j.j.j.j.j.j.j.j.l.j.j.l.j.l.l.j.j.j.j.j.j.j.j.l.j.l.x.j.j.j.j.j.j.l.j.l.l.j.j.c.l.l.l.l.x.j.l.j.j.j.j.j.j.l.j.x.j.x.j.j.j.j.x.l.x.x.x.j.l.c.j.j.x.j.j.j.x.j.j.x.c.x.j.j.l.x.j.j.j.j.j.j.l.j.j.j.x.x.l.l.j.j.j.x.j.j.j.j.j.j.j.j.j.j.l.j.j.j.j.j.j.j.j.j.j.j.j.j.l.j.l.l.j.j.x.c.x.l.l.l.j.j.l.j.x.x.l.j.j.j.j.d.a.r.t.w X X   X X X X   X ; u ;.q.t.q.q.6.=.i y q &.@.O.........................................................................................................................................................................................................",
"o o X X X X o X X o o X X X o X X X X X X o o X X X X o o X X X X X X X X X X X X X X X X X X X X X X X X X X X     X X X X               O O X o o o o O O o X X X X X X X X X X X o o o o X o o X X o o o X X X X o o o o X o o o o o o o o o o o o o O > a f V.`.].#XoX].].].].]..X].].].].].].].].+X#X+X].].].].].#X#X#X#X#X#X#X.X#X.X].#X#X#X#X#X].].].#X#X#X#X#X#X.X#X].#X].#X#X#X#X#X#X#X#X#X#X#X#X#X&X#X#X#X#X#X#X#X#X#X#X#X#X{.}.K.I M A N N N m m m m m m m m m m m m m N m m m m m m m m m m m m m m N m N m m m m m m m m n m m m m m m m m m m N m m m m m m m m m m m Z A m m N N C N N Z A N m m m m m N N N N N m m m m m m N m N Z A Z N m m m m N N N N N N N C Z Z m C m n M l v K U U L L ~ B N N m S Z Z S Z C C m m m m m N C Z N m N N N N N m C C N m m m m m m m C C m N Z N Z C m N C N N N N Z Z Z N m m N m C C Z A Z Z C C m N N N Z m m m m m m C Z m C N m m N C C N C C Z C C C C Z C C C C N m N Z C N N m m m m m m N C A S S A Z Z N m M 5.5.H.3.H.H.G.G.G.G.G.F.F.F.F.F.F.G.G.G.G.G.F.F.F.G.G.Q.F.F.G.G.F.F.F.F.G.G.G.G.F.G.G.F.F.A.Z.F.F.G.G.G.G.F.G.G.G.F.F.F.F.F.F.F.G.G.!.G.F.F.Q.G.F.G.G.G.G.F.A.A.F.F.G.Q.G.Q.G.F.A.A.G.G.G.G.Q.Q.G.F.Q.G.Q.Q.G.G.F.F.G.G.F.Q.G.Q.G.Q.G.F.F.F.G.F.F.F.F.A.A.F.F.A.A.A.A.S.D.W.E.E.T.T.T.g.g.g.g.l.l.x.l.d.j.d.j.x.j.j.j.j.j.j.d.j.j.j.j.j.d.j.j.j.j.d.d.d.f.p.a.u.u.u.i.i.u.e.e.e.e.0.e.e.0.e.e.e.e.e.e.e.u.u.u.u.i.a.d.d.d.d.j.j.j.j.l.j.j.l.j.j.j.j.j.l.j.l.j.j.c.l.c.x.j.x.x.j.x.x.l.j.j.l.j.j.j.j.j.j.j.j.j.j.x.c.c.x.j.j.j.j.x.x.j.j.j.c.l.c.c.c.j.x.j.j.j.c.l.x.x.l.c.j.x.j.j.j.j.j.l.l.x.j.j.j.x.c.j.l.l.l.x.j.l.x.j.l.j.x.l.j.v.c.x.c.x.j.x.x.j.j.j.j.j.j.j.j.j.j.j.j.j.j.j.j.j.j.j.x.j.j.j.j.x.j.j.l.x.l.j.j.l.c.l.l.l.j.j.c.l.j.j.j.j.j.j.j.d.i.i.u * o   X X X * t i w.t.r.e.e.e.9.6.=.i 6 0 #.@.O.........................................................................................................................................................................................................",
"X X X X X X X X X X X o X o o o X X X X o X X X o o X X X X X X X X X X X X X X X X X X X X X X X X X X X   X X     X X X               X O X o o X X o o X o o X X X X X X X X X X X X o X O o o X o O X X X X o X o O O O O O o X O o X X o o o o o o o o o O : a f C.~.].#X.X].].].].#X].].].].].].].].+X.X#X.X].].[.].].].].].]..X#X#X#X#X#X#X#X#X#X#X.X].|.#X#X#X#X#X#X#X#X].#X#X].#X#X#X#X#X#X#X#X#X#X&X#X#X&X#X#X$X$X&X#X#X#X#X{.}.D.v M N m m N m m m m m m m m m m m m m m m m m m m m m m N m m m m m m Z N N N N m m m m m m m m m m m m m m m m m m N m m m m m n m N N N N m N S S m m N C Z Z N m m m m Z N N m Z C m m m Z m Z N m N N m m m m m m N N N m N N m N A Z Z Z N M v I T I K b b b L U L ~ S S Z m S S m C m m m m m m N Z N N N m N Z N m m Z Z N m N m m m m m N N Z m m Z Z N C Z m N m N m Z Z Z m N m m m N Z Z Z C C C A A m m m N m m m m m m N Z C N N m N N m m m m Z N m m m C N N N N N m m m m m m m C N m m m m Z S C C A Z Z A M L 5.H.3.3.Z.F.H.G.G.F.G.F.F.G.G.G.G.F.F.!.G.G.G.G.G.G.F.F.G.F.F.F.F.G.G.Z.Z.F.F.G.!.G.F.F.G.G.G.A.A.A.F.G.Q.G.G.G.G.G.G.G.F.G.G.Q.G.G.G.G.F.F.F.F.Q.S.G.F.G.G.Q.Q.F.F.G.Q.G.G.G.G.F.F.G.G.F.G.A.A.Q.G.G.F.A.A.G.G.G.F.F.G.F.F.A.A.A.F.F.G.G.A.G.Q.Q.G.F.F.A.A.A.A.S.D.N.E.E.E.T.T.g.g.g.g.d.x.x.c.x.x.l.l.j.j.d.d.j.j.j.j.j.j.j.j.j.j.j.j.j.j.j.d.d.j.d.d.a.a.p.i.i.u.u.i.u.u.u.u.e.e.e.u.u.u.u.u.u.u.u.u.u.i.i.i.a.a.d.d.d.j.d.j.j.j.j.j.j.j.j.j.j.l.l.j.j.j.x.l.j.c.c.c.j.j.x.j.j.c.x.c.c.j.j.j.j.j.j.j.x.j.x.l.j.j.c.j.j.j.j.x.c.x.j.l.j.l.c.c.j.j.j.j.j.j.j.j.j.j.l.x.j.j.j.j.x.x.j.x.c.j.j.j.j.j.j.j.j.j.c.c.j.j.j.j.j.j.j.j.j.j.j.l.j.c.x.j.j.j.j.j.j.j.j.j.j.j.j.j.j.j.j.j.j.j.j.j.j.j.j.j.j.j.x.l.j.j.l.x.j.x.x.l.x.c.c.l.j.j.l.j.j.j.j.j.j.j.d.a.f.q.* * * * w i 8.r.r.i.i.u.i.e.0.7.6.=.i 6 / &.X...........................................................................................................................................................................................................",
"X X o X X o X o X X o X X o X o X X X o X X X X X X X X X X X X X X X X X X X X X X X X X X X X X X X X X X X X X X X                   X o o X X o X X X o o X o o o o o o X X X X X X X X X o X o X o X X X X X o o o o o o o o o o o o O o o o X o O o O O O O o o : > a n.V.`.]..X].].].].].oX#X#X].].].].].].#X.X].[.[.]..X].].#X+X#X#X#X#X#X#X].#X#X.X.X#X#X#X#X#X#X#X+X].#X#X#X#X].].#X.X.X#X#X#X#X#X#X#X#X#X#X#X#X$X#X&X&X&X#X{.}.W v B m m m N m m m m m m m m N m m m Z Z m m m m m m m m m m m m N m m m Z N m m N Z m m m m m n n m m m m m m m m m m m m m m m n m m N N N m m N A m m m m m N N N m N m m m N m m Z A m m Z m N m N m m m m m m m m N m N N N N m N Z m N A N c U K.J.D.N.,.E T I K K L U ~ ~ ~ N S A m m m N m N N m N m Z N m N A Z m m m Z Z m m m m N N N Z Z Z Z N m m Z C m m m N N N m m N Z Z N N N m m N C m Z Z A C C m N C m m m m m m m m C C N N m m C m m C Z C m m C N N N N m m m m m m C Z Z Z N m m m m N Z A C m C N N M ! 5.5.H.H.Z.F.H.F.G.G.F.F.F.F.F.G.G.F.F.F.F.F.G.F.F.F.F.F.F.F.G.F.F.G.G.F.F.F.F.F.G.G.G.F.F.F.Q.G.G.G.F.A.F.G.G.G.G.G.G.F.F.G.F.G.G.G.F.Q.Q.Q.G.F.Q.G.G.G.F.G.G.G.G.G.G.F.Q.Q.G.F.G.A.F.G.G.F.Q.G.F.G.Q.Q.G.G.F.F.Q.Q.F.G.G.G.Q.G.Q.Q.Q.G.Q.G.F.G.G.G.F.F.G.S.W.D.W.E.E.R.T.T.h.i.g.g.l.x.x.b.j.x.x.l.j.j.j.j.j.l.j.j.j.j.j.j.j.j.k.k.j.j.j.j.j.j.j.d.d.j.d.d.d.a.p.p.a.i.p.i.i.u.u.u.u.u.u.p.i.a.a.u.a.a.i.i.p.i.d.d.d.d.d.j.j.j.j.j.j.j.j.j.j.j.c.j.j.j.l.j.j.j.j.j.x.j.j.j.j.j.j.x.c.c.v.x.j.l.j.x.j.j.j.j.j.j.l.j.j.j.x.c.j.x.x.j.j.c.j.c.x.l.j.j.c.v.x.j.j.j.j.j.c.j.x.j.j.j.j.j.x.x.j.x.j.j.j.j.j.j.j.c.x.j.j.j.j.j.x.c.j.j.j.j.j.j.x.x.j.j.j.j.j.j.j.j.j.j.j.j.j.j.j.j.l.l.j.l.l.j.j.j.j.j.j.j.l.j.x.x.j.j.x.l.j.l.j.x.c.c.l.k.j.c.l.j.d.d.j.j.d.d.f.g.i w i 8.r.r.i.e.e.a.i.i.i.0.0.7.-.i p 6 ] &.X...........................................................................................................................................................................................................",
"X X o X X X X X X o o X X o o o X X o o X o o X X X X X X X X X X X X X o X X X X X X X X X X X X X X X X X X X X X                     O O O O X o o X X X o O O O X X X X X X X o o X X X X o o o X X X X X X X X X o o o o o X o O o o o o o o o o o o o O O O O O O O O O : a f C.V.`.'.].].].].].#X+X.X].].]..X#X#X#X.X].#X.X]..X#X#X#X#X#X#X#X].[.].#X#X#X|.|.#X#X].].].].#X#X#X#X.X.X]..X#X#X#X#X#X#X#X#X#X#X#X#X#X#X#X#X#X#X#X}.K.U M N N m m m m m m m m m m m m m m m m N N m m m m m m m n m m m m m m m m m m m m m N m m m m m m m m m m m m m m m m m N N m m m m m m m m m m m N N m N m m m m N N N m m m m m m m A A m m m m m m m m m m m m m m C C N N N C Z Z N m m m M v 2.}.}.{.'.`.J.J.m.>.T I I K L U U L L B B N N m C m m Z C m m m N C Z N Z Z Z N m N N N N Z Z Z Z Z N Z N m N m m N m m m m N m m m m m N N N N m N N C A Z C C C C C m m m m m N C m C N m m m m m m C C C C m m m m m m m N C m m N m m m C Z Z N m C N m C A Z Z C N N L 5.5.3.H.H.F.H.F.H.F.F.G.G.F.F.F.F.F.F.F.A.F.F.G.F.F.A.F.F.F.F.F.F.F.F.F.F.G.F.G.F.F.G.G.G.F.F.F.G.F.F.F.G.F.G.G.G.F.G.G.G.Q.G.G.F.A.F.F.F.Q.G.G.Q.Q.G.A.G.Q.F.G.G.G.Q.G.F.G.F.G.F.F.F.G.F.Q.G.G.G.G.F.A.G.Q.G.G.F.F.G.G.G.F.Q.G.G.Q.Q.Q.Q.G.G.A.A.G.A.W.W.W.W.E.E.R.T.T.g.g.f.f.l.l.l.j.j.b.j.j.j.j.j.j.j.j.j.j.x.l.j.j.j.j.j.j.j.j.k.j.j.j.j.j.j.j.j.d.j.d.d.d.d.d.a.d.a.a.a.a.i.a.a.a.a.a.a.f.d.f.d.d.d.d.f.a.d.d.d.j.d.d.j.j.j.j.j.j.j.l.j.j.x.x.j.l.x.j.j.j.j.j.l.j.l.j.j.c.c.j.l.j.l.l.l.j.j.j.c.x.j.j.j.j.j.j.j.j.j.j.x.j.x.j.j.j.j.j.j.j.j.j.x.x.x.j.j.l.x.j.j.j.x.j.j.j.j.j.j.j.x.j.j.j.j.l.j.j.j.j.j.j.j.j.j.j.j.j.j.j.j.j.j.j.j.j.j.j.j.j.j.j.j.l.j.j.j.l.j.j.j.j.j.l.j.j.j.j.j.l.j.j.j.j.j.j.j.j.j.j.j.j.j.l.j.l.x.c.c.c.l.j.l.j.j.j.j.j.d.j.d.d.i.g.g.g.g.d.a.d.d.a.a.i.i.r.0.9.7.-.i y 9 | @.X...........................................................................................................................................................................................................",
"X X X o X X X X o o o X X o X X o o o X o o o X X X X X X X X X X X X X X X X X X X X X X X X X X X X X X X X                         X O O O o o X o o O X X o O O o o o X X o X X X X o X o o X X X X X X X X X X o X X X o X o o o O o o o X X o O o o o o O O O O O O O O O O O : > 9 f V.`.[.#X{.].#X].].].]..X#X#X+X#X#X#X#X#X#X.X#X#X#X#X#X#X#X+X].].].].].].]..X+X#X#X].#X#X#X#X].#X#X#X.X#X#X]..X#X#X#X#X#X#X.XoX#X#X#X.X#X{.}.S.v B N Z Z N m m m N N m m m m m m m m m m m N m m m m m m m m m n m N m N m Z m m m m m m m m m m m m m m m m m m m m m m N m N m m m m m N N C N N N m m m m m m m m m m N m m m m N Z Z Z Z N m m m m m m m m m m m m C Z m m m m Z N Z m m m M v K.OXoX#XoX{.'.'.`.J.V.N.m.E T I K K K L U ~ ~ N N A S C N N Z N N Z Z N N A Z N m N Z Z C m Z Z Z A A N m m m m N m N m m m m m m m m m N N N N C Z Z m Z Z Z Z N N N m m m m N N C m m m N C m m N m N N N C C C N N m C m N m C C N C N m N m C C m m N N C C Z A N N N ~ 5.5.H.H.Z.H.F.H.H.F.Z.F.G.G.F.F.H.F.A.H.F.F.F.F.G.G.F.F.F.F.G.F.F.G.F.F.F.F.G.G.F.F.G.G.G.G.F.F.G.G.F.G.G.G.G.G.F.F.F.F.G.G.F.G.G.G.F.A.F.F.G.G.A.Q.Q.G.Z.F.G.F.G.G.Q.G.G.G.F.G.G.G.G.G.F.G.F.G.G.G.G.G.G.F.G.F.F.F.F.G.G.G.G.F.F.A.A.F.Q.Q.G.Q.Q.W.W.W.E.E.R.R.T.h.i.i.f.d.d.l.l.l.l.c.b.j.j.c.c.j.j.j.j.l.j.x.x.j.j.j.j.j.j.j.j.j.j.j.d.j.j.j.j.j.j.j.j.j.j.d.d.d.d.a.d.a.d.d.f.f.f.a.d.a.d.a.d.d.d.d.d.d.d.d.d.d.d.j.j.j.j.j.j.j.j.j.j.x.j.j.x.j.l.x.c.c.c.x.x.j.j.x.c.c.j.x.c.x.c.x.x.x.c.c.x.j.j.j.j.l.j.j.j.j.j.j.j.j.j.j.j.j.j.j.j.j.j.j.j.j.x.j.j.j.j.j.x.x.j.j.x.x.x.x.j.j.j.j.j.j.j.j.j.j.j.j.j.j.j.j.j.j.j.j.j.j.j.j.j.j.j.j.j.j.j.l.j.j.j.j.j.j.j.x.j.j.j.x.j.j.j.j.j.j.j.j.j.j.j.j.j.j.j.j.l.j.j.j.j.j.j.j.j.j.j.j.j.l.j.j.j.j.j.c.j.j.j.j.d.d.d.a.f.f.d.d.d.j.d.a.a.i.e.0.9.9.6.=.i y q &.@.X...........................................................................................................................................................................................................",
"X X X X X o o o o o o X X X X X X o X X o o X X X X X X X X X X X X X X X X X X X X X X X X X X X X X X X X X X X X X                 X O o X X o X X X o o X X o o o o o o o X X X o X X X X X X X X X X X X X X X o o X X o X o o o o o o o o o X o O o O O O O O O o O O O o O = O O o O : 9 g n.V.].].#X].].].].].#X#X+X#X#X#X#X#X.X#X#X#X].].#X#X#X#X#X#X#X#X#X#X#X#X.X].].].]..X#X+X.X#X#X.X].#X#X.X#X#X#X#X#X#X#XoX#X#X#X#XoX{.}.W v N N N N N m m m m m m m m m m m m m m m m m m m m m m m m m m m m m m m m Z S m m m m m m m m N m m m m m N m m m m m m m m N m m m m N m N C C N m m m m m m N m m m m m m m m m m C Z N m N m m m m m m m m m m m C Z A Z m N C Z N N N m m c U (.OX$X$X#X#XoX].].'.[.`.`.J.V.m.,.R I K K K L L L L ~ ~ B N N N N N m Z Z Z A Z m m N Z Z Z Z N C Z N C Z m N Z Z m C Z N m N N N N m m m m m m C Z Z Z Z C Z N m m m N m m m m m C C m m N Z C N N m N N N N N m m C C Z m N m N N N C C m N m C C C C N m C C A A N N B ! 5.5.5.H.H.Z.Z.H.G.G.G.F.F.G.G.F.G.H.H.F.F.H.F.F.F.G.G.G.F.Z.F.G.F.F.F.F.F.F.F.F.F.F.F.G.F.G.F.G.G.G.G.G.Q.G.G.G.F.G.F.F.F.G.G.G.G.Q.Q.G.G.Q.G.Q.F.A.F.G.G.F.G.F.G.G.G.G.Q.!.Q.Q.Q.!.F.G.G.F.F.F.G.F.F.G.G.F.F.F.F.F.G.F.G.G.G.G.G.F.G.S.A.W.Q.W.W.W.E.E.T.T.h.g.i.g.d.l.j.j.l.x.x.x.b.b.x.c.x.l.x.c.x.l.l.l.j.j.j.j.j.j.j.j.j.j.j.j.j.j.j.j.d.d.d.j.j.j.j.d.d.d.d.d.d.d.a.f.d.d.d.d.d.d.d.d.d.d.d.d.d.d.d.d.d.d.j.j.j.j.j.j.l.j.j.j.j.x.j.j.x.x.j.j.x.l.j.c.x.c.c.c.c.c.x.x.j.j.j.l.x.c.c.v.c.c.x.j.j.j.j.j.j.x.l.j.l.j.j.j.j.j.j.l.j.j.j.j.j.j.j.j.j.j.j.j.l.j.x.c.x.x.c.x.c.c.x.x.x.j.j.l.j.j.l.x.j.j.j.j.j.j.j.j.j.j.j.j.l.j.j.j.l.x.j.j.j.j.x.j.j.j.j.j.j.j.j.j.x.j.l.j.j.x.l.j.x.j.j.j.j.j.j.j.j.j.j.j.j.j.j.j.j.j.j.j.j.j.j.j.j.j.j.j.j.l.l.j.j.j.j.j.a.a.d.d.d.d.k.d.a.a.a.i.e.e.9.7.-.=.i 6 0 &.X...X.........................................................................................................................................................................................................",
"o X X X X X X X o o X X X X o o X X X X X X X X X X X X X X X X X X X X X X X X X X X X X X X X X X X X X X X   X X X                 o X X X o o o o X X X X X o X o o o o o O O o o X X X X X X X X o X X X o o X o X X X o o o X X o o X o o o o o o O O O o o o O O o o O o O O o O o O O O O : 3 g C.#X].].]..X]..X#X.X#X#X#X.X#X#X#X#X.X.X#X#X#X#X#X#X#X#X#X#X#X#X#X#X.X].].].#X#X.X].].#X#X].]..X#X.X#X].].#X#X#X#X#X#X#X#XoX{.(.R M A Z N m N m m m n m m m m m m m m n m m m m m m n m m m m m m m m m m m m m N m m m m m m m m m m m m m m m m m m m m m m m m m m m m N m m m N m N N m m m m N N m m m N m m m m m m m m N m m m m m m m m m m m m m C C N C C C N N Z Z N N v 2.OX#X#X$X$X#X#X#X.X.X].].].[.`.~.J.J.N.m.E T I K b v M B B ~ B B N N N m N C Z Z Z N N N N Z N C C Z A C m m N Z Z N m N N N Z Z N N C Z N m m m m m C Z Z A Z N N m C m m Z N m m C C m C Z m m N m m N N m m N m m m m m m m Z Z N N C C m m N C N m N N Z C C Z A N m B ! 5.5.H.H.H.F.H.H.H.H.F.G.G.F.G.F.F.F.F.G.G.F.H.G.F.G.F.G.G.G.F.G.G.F.F.G.F.F.F.F.F.F.H.F.F.F.F.F.Q.G.G.G.G.G.G.G.G.G.F.F.G.G.G.G.F.G.Q.Q.G.G.F.G.Q.Q.G.F.F.G.A.G.G.G.G.F.F.F.G.G.G.F.G.F.F.Q.F.F.Q.Q.G.G.G.Q.F.G.G.F.F.G.G.Q.G.G.F.G.G.W.W.W.W.~.R.R.T.T.h.g.g.g.x.d.x.x.j.j.j.j.j.j.j.b.j.j.j.x.j.j.j.j.j.l.j.j.j.j.j.j.j.j.j.j.j.j.j.j.j.j.d.j.d.j.j.j.j.d.j.d.d.d.d.d.a.f.d.d.d.d.d.d.d.j.j.j.d.d.j.d.j.d.j.j.j.j.j.j.j.j.j.j.j.j.x.l.j.j.j.x.j.x.j.j.l.j.j.l.x.c.x.j.j.j.j.j.j.j.j.j.x.c.c.x.x.j.j.j.j.j.x.c.j.j.j.j.j.j.x.j.j.j.j.j.j.x.x.j.j.l.j.x.j.j.j.x.j.l.c.c.j.l.x.j.x.l.j.l.j.j.j.x.x.j.j.j.j.x.j.j.j.j.j.j.j.j.j.j.j.j.x.c.c.x.j.j.j.x.j.j.j.j.j.l.j.l.l.c.j.l.x.x.l.j.j.x.l.j.j.x.x.l.j.j.j.j.j.j.j.j.j.j.j.j.j.j.j.j.j.j.l.j.j.j.j.j.j.j.j.j.j.j.l.d.j.j.k.d.d.d.a.u.e.9.9.7.-.i p 6 ] &.X...X.........................................................................................................................................................................................................",
"X X o X X X X X o o X X X X X X X o X X X X X X X X X X X o X X X X X X X X X X X X X     X X X X X X X X X         X               X o X X o X X o o X X X X o X X O & O X X o O O o o X X X X X o o X X X o o X X o o X X X X o o o O O o X X o X X o o o o o o o o O o o o o O O O O O O O O O = = : V.oX].#X#X#X].].].#X.X#X#X#X#X.X.X#X#X#X#X#X.X#X#X#X#X#X#X#X#X#X#X#X#X#X#X.X].#X#X#X.X.X]..X].].#X].].].].].#X#X#X#X#X#X&XoX}.L.K M N N N N N m m m n m m m m m m m m m n m m m m n m m m m m m m m m m m m m m m m m m m m m m N m m m m m m m m m m m m m m m m m m m m m m m N N Z N N N Z N N m N m m m m m m m m m N m N m m m m m m m N m m N m m N C Z C m N m m m N N m M K K.OXoX$X#X#X$X#X#X#XoX#XoXoX.X].'.'.[.`.J.J.N.m.W T I K 4 b v M L B B N N N Z N m Z A C C Z N N N m m N Z C m m N N N m m m N m N Z N Z Z N C C N C N C N m m N m N N N N Z Z N m m N N C C A A C N m m m m m m m m m m Z Z C m C C m m m m m N m m N m m m N C m N Z N m L ! 5.5.5.H.H.H.H.H.F.Z.H.H.H.F.G.G.G.H.H.H.G.G.G.G.G.F.G.F.G.G.F.F.!.G.F.G.G.G.F.F.F.Z.F.F.F.F.F.F.F.G.G.G.!.Q.G.F.G.G.G.G.G.G.G.Q.G.F.F.F.G.G.G.Q.F.G.G.F.G.Q.G.G.G.G.G.F.G.G.G.G.G.F.G.F.A.F.G.F.F.F.Q.Q.F.G.Q.G.G.G.G.G.F.F.G.Q.F.W.W.W.W.E.R.R.T.h.g.g.d.d.d.l.x.j.j.j.j.j.j.j.j.j.j.j.j.j.j.j.j.j.j.j.j.j.j.j.j.j.j.j.j.j.j.j.j.j.j.j.j.j.j.d.d.d.d.d.j.d.d.j.d.d.d.d.d.d.d.d.d.d.j.j.j.j.j.j.j.j.j.j.j.j.j.j.j.j.j.j.j.j.j.j.l.j.j.j.j.j.j.j.j.j.j.j.j.j.j.j.l.x.j.j.j.x.j.x.x.l.j.j.j.x.j.l.l.j.j.j.j.j.j.x.j.j.j.j.j.j.j.j.j.j.j.x.x.j.j.j.j.j.j.j.j.j.j.j.j.x.j.j.l.j.x.x.j.j.j.j.j.j.x.j.j.j.j.j.j.j.j.j.j.j.j.j.j.j.j.j.j.j.j.j.j.x.j.l.j.j.l.l.j.l.x.j.x.j.j.j.j.j.j.j.l.x.l.x.j.j.j.j.j.c.j.j.j.j.j.j.j.l.j.j.j.j.l.j.j.j.j.j.j.j.j.j.j.j.j.j.j.j.j.j.j.j.j.k.j.j.d.a.i.u.e.9.8.8.-.i p 7 ] @...............................................................................................................................................................................................................",
"o X X X X o X X o X X X X X X X X o X X X X X X X X X X X X o X X X X X X X X X X X X X X X X X X X X X X X                         X o X o o o X X X o X X X o X o O = O o o o o o o o X X X X X X X X X X X X X o o o o X X X X o o o o o o X o X O X X X X o X X o o O O o o o o o o O O O O O O & a '.#X|.#X#X#X#X#X.X#X.X.X#X#X#X#X#X#X#X#X#X#X#X].].].].].#X#X#X#X#X#X#X#X#X#X#X#X#X#X.X.X.X].].]..X.X]..X#X].#X#X#X#X#X#X#XoX}.W v N N N N Z N N m m m m m m m m m m m m m m m m m m m m m m m m m m m m m m m m m m m m m m m m m N m m m m m m N N N N N m m m m m m m m m m m N m N N N m N m m m m N m m m m m m m m m m N N C N m m m N N m m Z Z N N N m N m m m m m m m m M W OX$X$X$X$X#X&X#X#X#X#X#X#X#X#X#XoX.X].].].'.`.~.J.V.N.m.E T I K b K L L U B A S A N Z Z Z Z N Z m C m m m m m C m N m m m m N m m N N C C C C C m Z Z Z Z N m m m N Z m N Z Z N m m N C N m C C Z Z m m m m m m m N N C N Z C m Z C N m m m N m m m C C C m m C Z C C m m n B ! ! 5.H.H.H.H.H.H.G.G.H.H.H.G.F.G.H.H.H.H.G.G.G.G.G.G.G.F.G.G.F.G.G.F.A.F.F.F.F.F.H.F.F.F.F.F.G.G.F.G.F.G.G.G.F.F.F.G.G.F.F.F.F.G.F.F.F.F.F.F.G.G.F.G.Q.G.G.G.F.F.F.F.F.G.Q.G.G.G.Q.G.G.F.F.F.G.G.F.F.G.G.G.Q.Q.G.Q.F.G.F.G.S.W.W.W.E.E.T.T.g.g.i.g.g.l.d.j.j.j.j.j.x.c.x.j.l.j.j.j.j.j.j.j.j.j.j.j.j.j.j.j.j.j.j.j.j.j.j.j.j.j.j.j.j.j.j.j.x.j.j.j.j.j.j.j.j.j.j.d.d.d.d.d.j.j.j.d.j.j.j.j.j.j.j.j.j.j.j.j.j.j.j.j.j.j.x.j.j.j.x.j.j.j.j.x.j.j.j.j.j.j.j.j.j.j.j.j.j.j.l.j.j.x.x.j.j.j.j.j.j.j.j.j.j.j.j.j.j.l.j.j.j.j.j.j.j.j.j.j.l.c.c.j.j.j.j.j.j.j.j.j.j.j.j.c.x.x.x.j.x.c.l.j.j.l.j.j.j.j.l.j.x.x.c.j.j.j.j.j.j.j.j.j.j.j.j.j.c.c.x.j.j.j.j.j.j.j.j.j.c.l.j.j.j.j.j.j.j.j.j.l.l.j.j.j.j.j.j.j.j.j.j.j.j.j.j.j.j.j.j.j.l.j.j.j.j.j.j.j.j.j.j.j.j.j.j.j.j.j.j.j.j.d.d.d.d.a.i.u.e.0.9.6.=.i y 9 | o...O.O.........................................................................................................................................................................................................",
"o X X o o o X X o o X X X X X X X X X X X X X X X o X X X X X X X X X X X X + X X X     X   X X X X X X X X X X         X           O o o o o o o o o o X o o X o o O O O O o o o o o o X X X X X X X X X X X X o o X X X O O X X X X o X o o o o X o o o X o o X X X X X O O X X X X o o o O O O O O f ].].#X#X#X#X#X#X#X.X#X#X#X#X#X#X#X#X#X#X#X]..X+X].].].].].].].#X#X#X#X#X#X#X#X].#X#X#X#X]..X].]..X].]..X#X#X#X#X#X#X#X#XoX{.K.U v N m m m m m m m m m m m m m m m m m m m m m n m m m m m m m m m m m m m m m m m m m m m m m m m m m m m m m N m Z N Z Z Z N m m m m m m m m m m N m m N N m m m m m m m m m m m m N Z N m N N N N N m m N m m m N Z Z N N m m N m m m m m m N v Z.OX$X*X$X*X#X#X#X#X#X#X#X#X&X#X#X#XoX.X.X.X].].'.'.`.~.~.J.V.m.m.E I I K v L U L ~ ~ A Z Z Z m Z N N m N m C m N N N N Z C m m Z Z N m m N Z Z m C C Z Z C Z m m N m C m N C Z C N m N C N C Z C m N m m m m m m m m N Z N m N C C C m N m m m m m m C A Z N N N C C N N m m n n L ~ ! ! 5.H.H.H.H.H.H.H.H.G.G.G.G.H.F.F.G.G.F.F.G.G.F.F.F.G.G.F.F.F.F.F.F.F.F.F.F.F.H.F.F.G.!.G.F.F.F.F.G.G.G.G.F.G.G.G.F.F.F.F.F.F.F.G.F.F.F.F.F.G.G.Q.G.Q.Q.G.G.F.G.G.Q.F.G.Q.F.Q.Q.G.F.G.F.F.F.G.F.G.Q.F.G.G.F.Q.S.S.W.W.E.R.R.T.T.h.i.g.g.l.l.x.j.j.j.j.j.j.l.j.j.l.j.j.j.j.j.j.j.j.j.j.j.j.j.j.j.j.j.j.x.c.j.j.j.j.j.j.l.j.j.j.j.j.j.x.l.j.j.j.j.j.j.j.j.j.j.j.d.d.d.j.j.j.d.j.j.j.j.j.j.j.j.j.j.j.j.j.j.j.j.x.j.x.j.j.j.j.j.j.j.j.j.j.j.j.j.j.j.j.j.j.j.x.x.l.j.l.j.j.j.j.j.j.l.j.j.j.j.j.j.j.j.j.x.j.j.j.j.j.j.j.j.j.j.j.j.j.j.j.j.j.j.j.x.j.j.j.l.j.j.j.c.c.c.x.x.j.c.c.x.j.j.j.j.j.j.j.j.j.j.x.x.j.j.j.x.c.c.j.j.j.l.j.l.j.l.l.c.x.l.x.j.j.j.j.j.j.j.j.j.j.j.j.j.j.j.l.j.j.j.j.j.j.j.j.j.j.j.j.j.j.x.x.l.x.l.j.l.l.l.c.l.j.j.j.j.j.j.j.j.j.j.j.j.j.j.j.j.j.j.j.d.d.a.i.u.e.9.8.=.=.u 6 9  .o...............................................................................................................................................................................................................",
"o X X o o o o o o o o X X X X X X X X X X X X X o o o o X X o X X X o X X X X X X X X         X X   X X X X X                     X o X O X X X X o o o o o X o X o o o O O o o o o o o o o X X X X X X X X o o X o X X o X X o X X o X O : O o o O X o O o o X X X X X X X O o o o o o o o o O O O : C.oX].oX#X+X#X#X#X#X#X.X.X#X#X#X#X#X#X#X#X#X#X#X].#X#X#X#X#X#X#X#X+X#X#X#X#X#X#X#X#X#X#X#X#X#X#X.X].#X+X#X#X#X#X#X#X#X#X#XoX}.L.b M N m m m m m m m m m m m m m m m m m m m m m m m m m m m m m n m m m m m m m m m m m m m m Z m n m m m m m m N m m m m m m m m N m m N m m m m m N N N Z N m N N m N N m N N m m m m A Z m N N m m Z N m N m m m N N m C m m N m m C Z N m m M K K.OX$X*X*X*X&X#X#X#X#X#X#X#X#X#X#X#X#X#X#X#X.X.X.X.X.X].'.'.'.[.`.J.J.m.W T I I K U U U ~ ~ N A Z N N Z C C C Z N m N Z N C N m m Z S A N N Z m C C N N m C N m m m m m m N N N C m m C C m N m m m m m m m N N m N m m N m m m m m m N N N m m N m m C S Z N N C m m m C m m N n n n M M L ~ ! 5.5.H.H.H.H.H.H.F.G.H.F.G.G.G.H.H.F.G.G.F.F.G.G.G.F.F.F.F.G.F.F.F.G.F.F.F.A.G.G.G.F.F.G.F.F.F.G.F.F.F.G.G.F.G.G.G.Q.Q.G.F.F.F.G.F.F.A.G.F.G.G.!.Q.Q.G.G.G.G.F.G.G.Q.Q.G.Q.Q.F.A.F.F.Q.G.F.G.Q.G.Q.W.W.W.E.E.R.T.T.h.g.g.f.l.l.x.c.b.j.j.j.j.l.l.l.x.x.j.j.j.j.x.j.j.j.j.j.j.j.j.j.x.x.c.j.j.j.j.c.j.j.j.j.j.j.j.j.j.j.j.j.j.j.j.j.j.j.j.j.j.j.j.j.j.j.j.j.d.d.j.j.j.l.l.j.j.j.c.j.j.j.j.j.j.j.j.j.l.x.l.l.x.l.j.j.j.x.j.j.j.j.j.j.j.j.j.j.j.j.x.j.j.j.j.x.j.j.j.j.j.j.j.j.j.j.j.x.l.j.j.j.j.j.j.j.j.j.x.j.j.l.j.j.j.j.j.j.j.j.j.j.j.j.j.x.j.j.x.j.c.x.x.x.x.j.j.j.l.x.j.j.j.j.j.j.j.j.j.j.j.j.j.j.j.j.x.j.j.j.j.j.x.x.x.c.x.x.c.x.j.j.j.j.x.j.l.l.j.j.j.j.j.j.j.j.j.l.j.j.l.j.j.j.j.j.j.j.j.j.j.j.j.x.c.x.c.c.c.l.j.j.j.j.j.j.j.j.j.j.j.j.j.j.j.j.j.j.l.j.d.d.a.i.i.e.9.8.=.i p 6 0 #.o...............................................................................................................................................................................................................",
"o o o o o o o X X X X X X X X X X X X X X o X X o . . @ . . . . o o X X X X X X X X X X X X X X X     X X X X X X X               o O X X o o o X o O O o X X o X X X o X O O o o o X X o o X X X X X X X o o o X X X X X X X o X o X X o O O o X o X X O o o O o X X X o o X X o o o o o o O O O O > `.'.].].{.#X#X+X#X#X#X#X#X+X#X#X#X.X.X#X&X#X#X#X#X#X#X#X#X#X#X.X#X#X.X#X#X#X#X#X#X#X#X#X#X#X#X#X#X#X]..X#X#X#X#XoX#X#X#X#X{.}.W v B m m m m m m N m m m m m m m m m m m m m m m m m m m m m m m m m n m m m m m m m m m m m m Z N m m m m m n m N m m m m m m m N N N N N m m m m m m m N N m N m N N N Z m N Z m m N m m N m m N m m m N m m m m m m N Z Z Z N m m m m m N N N v R }.$X$X$X&X&X*X$X#X&X&X#X&X#X#X#X#X#X#X#X#X#X#X.XoX#X#XoX.X.XoXoXoX].'.[.~.J.N.m.W R I I K U U U B A N N Z Z m Z N N m N N m m m m N Z A A Z N C m Z Z Z C Z N m m m N N N m Z Z m m m C C m m m m m N N m N Z C N m m m m m m m m m m m m m m m m m m N Z m N m N C C C C C N m m m n n z n x M M L ! ! 5.H.H.H.H.H.H.H.F.F.G.G.G.H.F.F.G.F.F.F.G.F.G.F.Z.Z.F.F.F.F.G.G.G.F.G.G.F.F.A.G.G.F.G.F.F.G.!.G.G.F.F.F.G.Q.G.Q.G.G.G.G.G.G.F.A.F.G.G.G.Q.Q.Q.G.G.G.F.F.G.G.G.G.Q.Q.Q.A.A.F.F.F.F.W.W.W.W.E.R.R.T.T.h.g.g.g.d.l.l.l.j.j.j.j.j.j.l.j.l.j.j.x.c.c.l.j.l.j.x.j.j.j.j.j.j.j.j.x.c.c.j.j.j.j.j.j.j.j.j.j.j.j.j.j.j.j.j.j.j.j.j.j.j.j.j.j.j.j.j.j.j.j.j.j.j.j.j.l.x.j.j.j.j.j.x.j.j.j.j.j.j.j.j.j.j.j.x.j.j.j.j.j.c.c.j.j.j.x.j.j.j.j.j.j.j.j.j.j.j.j.j.j.j.j.l.j.j.j.j.j.j.j.l.x.j.j.j.j.j.j.j.j.x.x.l.j.j.j.j.j.j.j.j.j.j.j.x.j.x.j.x.j.j.j.j.x.x.c.x.j.j.x.j.j.j.j.x.x.j.j.j.j.j.j.j.j.j.j.j.j.j.j.j.j.j.j.j.j.x.l.j.j.j.j.j.j.j.j.j.j.j.j.j.j.j.j.j.j.j.j.j.j.j.j.x.x.j.j.j.j.j.j.j.j.j.l.j.j.l.j.l.l.j.x.l.j.j.j.j.j.j.j.j.j.j.j.j.j.j.j.j.j.j.k.d.d.d.a.i.e.0.9.6.-.i p 6 ] &.o...............................................................................................................................................................................................................",
"o o o X X o X X o o X X X X X X X X X X X X X X . # 1 1 1 @ @ @ @ . . X X X X X X   X X X X X X X X     X X                       X X X o o o o X O O o o o O o X X o o X o O o o o o o o o o X X X X X X X X X X X X X X X o o o X o X X X X O O X X X X o o o O o X X X o X X o o o O o o o O & O f ].'.].].].]..X].].].].].#X#X#X#X#X.X.X.X#X#X#X#X#X#X#X#X#X#X#X#X#X#X#X.X#X#X#X#X#X#X#X#X#X#X#X#X&X$X#X#X#X#X#X#X#X+X.X].].}.K.U v N m m m m m m m m m m m m m m m m m m m m m m m m m m m m m m m m m n m m m N Z m m m m m m m m m m m m m m n n m n m m m m m N N N N m m m m m m m N N N m Z Z m Z Z N m m m m m m Z A m m m m m N m m N m m m N N m C A S N N Z C C N m N B v L.OX$X$X*X&X&X&X*X#X#X&X&X#X&X#X&X&X#X#X#X#XoX#X#X#X#X&X&X#X#X#X#X#X#XoXoXoX{.'.'.J.J.N.m.E I I b v L L B ~ S N N N N m N m m m N m N m m m N m m C N N C N N N m m m N m m m N C N m N C N N N m m C C m m N C m m m m N N N m m m m m m m m m m m m m m m N N N m m N Z C Z C N m m m m m m m m m n n B L ! ! 5.H.H.H.H.H.H.H.H.G.H.H.H.F.F.F.F.H.F.Z.F.G.G.F.F.F.G.F.G.!.G.G.G.G.G.F.F.G.F.H.F.G.F.G.F.F.G.F.F.F.G.F.G.Q.G.G.G.A.G.G.G.A.F.G.G.Q.Q.Q.G.F.F.G.F.G.Q.Q.Q.Q.Q.Q.G.S.F.Q.S.W.W.W.E.R.T.T.h.h.g.g.x.x.c.x.x.j.j.j.l.j.j.x.j.l.l.j.j.j.j.j.j.j.j.x.j.x.l.j.j.x.c.j.j.j.j.j.j.j.j.j.l.c.j.j.j.j.j.l.j.j.j.j.j.j.j.j.j.l.l.j.j.j.j.j.j.j.l.j.j.j.j.j.j.j.j.j.j.j.j.j.j.j.j.l.j.j.j.j.j.j.j.x.x.j.j.j.j.j.j.j.j.j.j.j.j.j.x.j.c.l.j.j.j.j.j.j.j.x.c.j.j.x.j.j.x.c.j.j.x.j.j.x.c.l.j.j.j.j.j.j.j.x.j.j.j.j.x.l.j.j.j.j.j.j.j.j.j.j.j.j.j.j.j.j.l.j.l.j.j.j.j.j.j.j.j.j.j.j.j.j.j.j.j.j.j.l.x.j.j.j.j.x.j.c.x.l.x.j.j.x.x.l.j.j.j.j.j.x.x.l.j.j.j.j.j.j.j.j.j.x.j.j.j.l.j.x.j.j.j.j.j.j.x.x.l.j.j.c.c.c.j.j.j.j.j.j.j.j.j.j.j.j.j.j.j.j.j.j.j.d.k.d.d.a.i.e.e.9.7.6.=.i y 7 [ @.................................................................................................................................................................................................................",
"X X o X X X X o X X X X X X X X X X X X X X X o . # 4 K b b 4 2 , @ @ @ . . . X X X X X X X X X   X X X   X     X                 X X X X X X O O o o o o X o X o X X X X X O X X X o X X X o X X X X X X o o X X X o X X X o X X X o X X o X X o O o X X X o o o o o X X X o O O o o o O O o O O : V.].].].]..X].].#X].].].]..X#X].].].].]..X#X#X#X#X#X#X#X#X#X#X#X#X#X#X#X#X#XoX#X#X.X#X#X#X#X#X#X#X#X&X&X&X#X#X#X#X#X#X#X.X'.'.L.b M N m m m m m N m m m m m m m m m m m n n m m m m m m m m m m m m m m m m m m m m Z N m m Z Z m m N m m m m m m m m m m m N m m m m N m m m m m m m m m m N m N Z N m N N m m N m m m N A N N m N N m m m m m m m m m m C C m m N m Z Z Z N N M L K.OX$X$X$X*X&X&X*X$X#X#X&X&X#X&X&X&X&X&X#X#X#X#X#X#X#X#X#X&X#X#X#X#X&X#X#X#X#X#XoX].'.'.~.J.N.m.E T I K b M U U B N N N N m m m m m m Z Z Z N C Z Z N C Z Z C N N m m m N N m m N N m N C C m m N N m N Z m m m m m N N m m Z N m m m m m m m n m m m m m m m N N m N C Z C C m C C N m C m m m m m m m m m m B L ~ ! 5.H.H.H.H.H.H.H.H.H.F.G.F.F.F.G.H.F.F.G.G.G.!.Q.F.F.G.G.G.F.Q.G.G.F.F.F.F.A.F.F.F.F.F.G.F.G.F.G.G.G.Q.G.G.G.Q.G.G.G.Q.F.F.F.G.G.G.Q.G.G.Q.G.F.F.G.G.F.Q.Q.S.W.S.W.W.E.R.R.T.T.g.g.i.g.l.l.j.j.j.x.j.j.j.j.j.j.j.l.j.l.j.l.j.j.j.l.j.j.j.j.j.j.j.j.j.j.j.j.j.j.j.j.x.l.j.j.j.c.x.j.j.j.j.j.c.c.c.j.j.j.j.j.j.j.j.j.j.j.j.j.j.x.x.x.l.j.j.j.j.j.j.x.j.j.j.j.j.j.j.j.x.j.j.j.j.j.j.j.j.c.c.c.j.j.j.j.j.j.j.j.j.x.j.j.j.j.j.j.j.j.l.j.x.c.c.j.j.x.x.c.x.c.j.j.j.j.x.x.j.j.j.j.j.x.l.j.x.j.j.j.l.l.c.c.x.j.j.j.j.j.j.j.j.j.j.j.x.c.l.j.j.l.l.j.j.j.j.j.j.x.j.j.j.j.j.j.j.j.j.j.j.j.j.j.x.j.x.c.c.x.c.j.l.j.x.c.l.j.j.j.j.j.j.j.x.l.j.j.j.j.j.j.j.j.j.x.j.j.j.j.j.l.c.j.j.j.j.j.j.c.x.l.l.x.v.c.x.j.j.j.x.j.j.j.l.j.j.j.j.j.j.j.j.j.j.j.d.d.d.d.a.u.e.0.7.6.=.i y 9 | @.................................................................................................................................................................................................................",
"o o X X X X X X X X X X X X X X X o o X X X X o @ , b c l l b b b 4 2 , @ @ . . . . X       X X   X     X X                     X X X X X X o X o O O O o o X X o O O X X X X X X X X X X X X X X X X X X o X o o X o o X o X X X X X X X X X o o o O o X o X X X X X X X o o o O O o O O O O O o a `.]..X.X].].]..X.X]..X#X]..X.X#X].].].].]..X#X#X].].].#X#X#X.X#X#X#X#X&X#X#X#X.X#X].].].].#X#X.X#X].#X#X#X#X#X.X]..X+X#X.X'.(.W b M m m m m N m N m m m m m m m m m m m m m m m m N m m m m m m m m m m m m n n m m m N m m Z N m m Z S N m m m m m m m m m m m m m m m m m m m m m m m m m N N Z N m m m N N N Z m m m m m m N m m m N N m m m m N Z A N m N N N N N m C Z A N n U (.$X$X#X$X&X&X*X$X#X&X&X#X#X#X#X&X*X&X&X&X#X#X#X#X#X$X#X#X#X#X#X#X#X#X#X#X$X#X#X$X#XoXoX].'.'.`.J.J.m.m.T I K K v L L L B A N Z A Z Z C C Z A C N N C C Z Z Z Z N N C N C m N C m m m m N C m N m m C Z C C Z m m m N m m m m N m m m m m m A A m m m m m m m N N N N N C C C C C Z Z C Z C C m m m m N m C m m m m B L L ! ! 5.5.5.H.H.H.H.H.G.F.F.F.F.F.F.F.F.F.F.F.F.F.A.F.G.G.F.F.G.!.G.G.!.Q.F.F.F.Q.F.A.A.F.F.F.F.F.G.Q.F.F.G.F.F.F.F.G.F.F.F.G.Q.F.G.Q.Q.G.G.G.G.G.Q.Q.W.W.W.W.E.R.T.T.h.i.g.d.d.j.b.j.j.j.x.l.j.j.j.j.j.x.j.j.j.j.j.j.x.j.j.j.j.j.x.j.j.j.x.j.j.j.j.j.j.j.j.j.j.j.j.j.j.j.j.j.j.j.j.j.x.j.x.c.x.j.j.j.j.j.j.j.j.j.j.j.j.j.j.j.j.j.j.j.j.j.j.j.j.j.j.j.j.j.c.l.j.j.j.j.j.j.j.j.j.x.j.j.j.j.j.j.j.x.j.j.x.j.j.j.x.l.j.x.j.j.j.j.j.j.x.j.j.x.l.x.j.x.j.c.x.j.j.j.j.l.x.j.j.j.j.j.j.j.j.j.c.c.c.c.c.x.j.j.j.j.j.j.j.j.j.j.j.j.j.j.j.j.j.j.j.j.j.j.j.j.j.j.j.j.j.j.j.j.j.j.j.j.j.j.j.j.j.j.j.x.j.j.j.j.j.j.j.c.x.j.j.j.j.l.j.l.j.j.j.x.j.j.l.j.j.l.j.j.j.j.j.j.j.j.j.j.j.j.j.l.x.c.x.j.x.x.x.c.x.c.c.l.x.j.j.j.j.j.j.j.j.j.j.j.j.k.k.k.d.d.d.p.a.e.0.9.6.=.i y q &.@.................................................................................................................................................................................................................",
"o o X o X X X X X X X X X X X X o X o o X X X . @ 2 v n c c h l c v v v b 2 , , @ @ . . . . .   X X                             X X X o o X o o o o o o o O o X X o o o o X X X X X X X X X X X o o o X X X X X X o o o X o o X X o X X o o X o O o o O O X o X X o O o o o o o o o O O o O O O O >.].[.]..X.X#X#X#X#X#X.X]..X].].#X.X.X#X].[.].].].].].].].].].].]..X#X#X#X#X#X#X.X#X#X#X].]..X.X.X#X#X].#X#X#X#X#X#X].].].].'.J.I v B m m m m m m m m N N m m m m m m m m m m m m n m m m m m m m m m m m m m m n n m m m m m N m m m N m N m m m m m m m m m m m m m m m m m m m m m m m m m m N Z Z N m m m N N m m m m m N m m m m m m m m m m m N N Z Z C C N m N N C C Z N B M 2.OXOX*X*X&X&X*X$X&X#X&X$X&X&X#X#X.X#X&X#X&X&X&X#X#X#X$X$X#X#X#X$X#X#X&X&X#X#X#X&X#X&X#X#X#XoXoX].].'.'.`.J.J.m.E T I b v L B L B B N N N N Z N N N m m m A Z A A C Z Z N C Z C m m m m m C N C N m m N C Z C C C C N N N N m m m m m m m m m m Z S N m m m m m m N N C C N N C N N m m N m m C N C N m m C C C m m N m m N N B L L ! ! 5.H.H.H.H.G.F.F.G.F.Z.G.G.G.F.F.F.F.G.F.F.F.G.G.G.G.G.G.G.G.G.F.F.F.F.H.H.H.F.F.F.Q.Q.F.F.A.F.F.G.Q.G.G.Q.F.F.G.Q.G.F.Q.G.G.F.A.S.W.S.W.W.E.E.R.T.h.h.g.f.d.j.x.x.x.j.x.x.c.x.j.x.j.j.j.j.j.j.j.j.j.j.j.j.j.j.j.j.j.j.j.x.j.j.j.j.j.j.j.j.j.j.j.j.j.j.j.j.j.j.j.j.j.j.j.j.j.j.j.j.j.j.j.j.j.j.j.j.j.j.j.l.j.j.x.c.j.j.j.j.j.j.j.j.j.j.x.j.l.l.j.j.j.j.l.l.c.x.x.c.c.c.c.c.x.j.j.l.l.j.x.x.l.j.j.j.j.j.c.j.j.j.j.j.j.j.j.j.c.j.x.c.x.l.c.l.j.j.j.j.j.j.j.j.j.j.j.j.j.j.j.x.j.j.j.j.j.j.j.j.j.j.j.j.j.j.j.j.j.j.l.x.j.j.l.j.j.j.j.j.j.j.l.j.j.x.x.j.j.l.j.j.j.j.j.j.j.j.j.j.j.j.x.c.x.c.l.j.x.x.j.l.x.j.j.j.j.x.j.x.j.x.j.j.j.j.j.l.l.j.j.j.j.j.j.j.j.j.j.j.c.x.j.j.c.c.x.l.c.x.j.j.j.j.x.j.j.j.j.j.j.j.j.j.j.j.j.j.k.d.a.a.i.e.e.9.7.6.=.i 6 0 &.@.................................................................................................................................................................................................................",
"o o X X X X X X X X X X X X X X X X X X X X . . , b v n n c n z h h h k v v v b 4 2 , @ @ @ . . .           X                 X o o o o o X X X X X X o X X X o o o X X X X X X o X X X X X X o o X X O X X X X o o X X X o o o X X X X X o O o X X o o o X X O o X o X O O X o o o o o O O O O > V.'.].+X#X.X.X.X].].].#X.X]..X.X#X.X#X.X].].].[.].].].].].[.[.].].[.].#X#X#X#X#X#X#X#X#X#X].].#X#X#X#X#X#X#X#X#X#X#X#X{.{.{.~.L.b M m m m m m N m m m m N N m m m m m m m m m m m m m m m m m m m m m m m m m m m m m m m m m Z m m m m m m m m m m m m m m N m m m m m m m m m m m m m m m m m m m N N N N m Z Z N N m N m N m m m N m m m m m m m N m m N C C C N N N C N N N B M K.OX$X*X*X&X&X*X$X#X#X&X&X&X&X&X&X#X#X#X#X&X&X&X&X#X#X#X#X&X&X#X#X$X&X&X&X&X&X&X#X&X#X#X#X#X#X#X#X#X#X.XoX].[.'.J.J.m.,.T I K K v L U L B N N S Z m m Z N C N N Z Z N N N m m N C m m m N m m A Z N m m C C C C C Z C N N N Z N m N N m N N C N N Z A Z m N N m N N N Z Z C m N m m m m m C C N m N N m m C C m C N N m m A S A m n z M L U ! H.H.G.G.G.G.G.G.G.F.F.F.A.F.Z.Z.A.A.F.G.F.F.F.F.F.F.G.G.G.G.A.Z.H.F.F.H.F.F.H.F.F.F.F.F.F.G.G.Q.G.G.G.F.G.Q.Q.F.G.G.S.S.W.W.W.E.E.T.T.h.h.g.g.d.l.l.x.j.l.c.x.j.j.j.x.c.j.j.j.j.j.j.j.l.l.j.j.j.j.j.j.l.j.j.j.c.j.j.j.j.j.j.j.x.c.x.j.j.j.j.j.j.j.j.j.j.j.j.j.j.j.j.j.j.j.j.j.j.j.j.j.j.j.l.j.j.j.j.j.x.c.j.j.j.x.j.j.j.j.j.j.j.j.c.x.j.j.j.j.j.j.x.x.x.l.c.l.x.x.x.l.j.j.j.j.j.x.x.c.c.x.j.j.j.j.x.j.j.j.j.j.j.j.j.j.j.x.l.j.j.l.j.j.l.j.j.j.j.j.j.j.j.j.j.j.j.j.j.j.j.j.j.j.j.j.j.j.j.j.j.j.b.x.x.j.x.j.l.j.j.j.j.j.j.j.j.j.l.l.j.x.x.j.j.j.j.j.j.j.j.j.j.j.j.j.j.j.x.c.x.j.x.l.l.j.l.l.j.j.l.j.j.j.j.j.j.j.j.j.j.j.c.j.x.x.j.j.j.l.j.j.j.j.l.l.j.j.j.j.l.l.j.x.x.j.l.j.j.j.j.j.x.l.j.j.j.j.j.j.j.k.d.d.k.d.d.a.a.u.e.0.9.6.=.i p 6 ] #.X.................................................................................................................................................................................................................",
"X X X X X X X X X X X X X X X X X X X X X X . @ , b n n n n n n n n n n k k k v v v b 4 2 , # @ @ . . .                       o o o X o X o X o O o X X o X X X X X X X X X X X X X X o X X X X X X X X o X X X o o X X X X X o o X X X X X o o X X X o O o o o o o o o X X o o X o o O O O O O a [.[.].#X]..X].].].].#X#X#X#X#X].#X#X#X.X.X#X#X].].].].].].].].].].[.].].#X.X.X]..X.X.X.X#X#X+X+X.X#X#X#X#X#X#X#X#X#X#X#X{.'.(.W b M m m m m m N N N N m m m m m m n m m m m m m m m N m m m m m m m m m m m m m m m m m m m m N m m A N m m m m m m m m m m m m m m m m m m m m m m m m m m m m m m m m m m N Z S N N m N N N N m m m m m m m m m m m m N N N C m N N C C Z Z B M R }.OX$X$X&X&X&X#X$X&X#X#X&X&X&X&X&X&X&X&X&X#X#X$X&X&X&X#X#X&X&X&X&X&X&X&X&X&X&X&X&X&X$X#X#X#X#X#X#X#X#X#X#X#X#X{.].].'.`.J.J.m.>.T I I U L B B ~ A m Z Z Z N N C N C N m m m N m N m C N C m m C Z A Z N Z C N C Z C Z m m m m m m m m m m m N Z m Z Z C m N N m Z Z N N m Z Z A N C N m N A A Z N C Z Z C m N N N N m C C C Z Z S A n z z n v 5.G.F.G.G.G.F.F.G.F.F.Z.Z.Z.F.F.F.G.F.F.G.G.G.F.F.F.G.F.G.G.F.H.A.H.F.F.F.F.F.F.G.F.F.F.F.F.G.F.G.G.G.G.F.G.G.Q.S.W.W.W.E.R.R.T.T.g.g.g.l.l.l.l.j.j.j.j.j.l.j.j.j.j.j.l.x.j.j.j.j.j.j.x.c.x.j.j.x.j.x.j.x.x.j.j.j.j.j.j.j.j.j.j.x.c.c.x.j.j.j.j.j.j.j.j.j.j.j.j.j.j.j.j.j.j.j.j.j.x.c.x.j.j.x.c.j.j.j.c.c.j.j.j.j.x.j.j.j.j.j.l.c.x.j.j.j.j.j.j.j.j.j.l.x.x.j.j.j.j.j.j.j.j.j.j.j.j.j.j.c.x.j.j.j.j.j.j.j.j.j.j.j.j.x.j.j.j.j.l.j.l.c.j.x.j.j.j.j.j.j.j.j.l.j.j.j.j.j.j.j.j.j.j.j.j.j.j.j.j.j.j.x.j.j.j.j.j.j.j.j.j.j.j.j.j.j.j.j.j.j.j.j.j.j.j.j.j.j.j.j.j.j.j.j.j.j.j.j.j.j.j.j.x.j.j.l.j.l.j.j.j.j.j.j.j.j.j.j.j.j.j.l.x.x.j.j.j.x.l.l.l.j.j.j.l.j.j.j.j.j.l.j.l.j.j.j.j.j.j.j.j.j.j.j.j.j.j.j.j.j.j.j.j.j.d.d.a.i.e.e.9.6.=.i p 6 [ @.X.................................................................................................................................................................................................................",
"X X o o X X X X X X X X X X X X X X X X o o . @ 2 v n n n n n n n n n n n n n c k k c v v v b 2 , , @ @ . . . .   X           o o X o o X X o o o o o X X X X X X X X X o X X o o o o o X X o o o o o o X X X X X o o o X X X o o X X X X o X X X X X X o o o o o o O o o X o o o X O O O O & & n.].[.].].].]..X.X.X.X]..X#X#X#X#X#X#X#X.X#X#X#X#X.X].]..X]..X.X.X].].[.[.].]..X.X.X#X+X#X.X#X#X#X#X.X#X#X#X#X#X#X#X#X#X#X].'.K.U v N m m n m m m m m m m m m m m m m m m m m m m m m m m m m N m m m m m m N m m m m m m m m m m m m m S N m m m n m m m m m m m m m m m m m m m m m m m m m m m m N N m m m Z S B L U L N m N A A N N m m m m m N m m m m m N m m N C A Z N Z B v L.OXOX$X&X&X&X&X#X#X#X&X#X#X#X#X&X&X#X#X&X&X#X#X#X#X#X#X#X#X&X&X&X&X&X&X&X&X&X#X#X&X&X&X&X&X#X&X&X#X&X&X#X#X#X#XoX#X#X#XoX].'.'.`.J.N.m.W T I K M L B N m Z N N C Z C Z N m m N N N m N C C Z N m m Z A Z C Z m N Z C Z Z m N m m N N C m m m m m N N C C Z C C m m N m m m m N S Z m N m N Z Z C C C C C N m m m m m N C C m C Z N Z Z m n x v 5.G.G.Q.G.G.G.F.F.F.G.G.G.F.F.F.F.F.F.F.F.F.F.F.F.G.G.G.F.G.F.F.A.F.F.F.F.G.G.F.G.G.G.G.Q.G.F.Q.F.G.A.G.F.A.S.W.W.W.E.R.T.T.h.g.g.g.l.l.c.x.j.j.j.j.j.x.j.j.j.j.j.j.j.j.j.j.j.j.j.j.j.j.x.c.c.j.l.c.c.c.c.x.j.j.x.j.j.b.j.j.j.j.j.j.j.j.j.j.j.j.j.j.j.j.j.j.j.j.j.j.j.j.j.j.j.j.j.j.j.j.j.j.j.x.c.j.j.c.j.j.j.j.j.l.x.j.j.j.j.j.j.j.j.j.j.j.j.j.j.j.j.j.j.j.j.j.j.j.j.c.x.j.j.j.j.j.j.j.l.j.j.j.j.x.x.j.j.j.j.j.j.j.c.j.j.j.l.l.j.j.l.j.j.j.j.j.j.j.j.j.j.l.j.j.j.j.j.j.j.j.j.j.j.j.j.j.j.j.j.j.l.l.x.l.j.l.j.j.j.x.l.j.j.j.j.j.j.j.j.j.j.j.j.j.j.j.j.j.j.x.l.j.j.j.j.j.x.l.l.l.j.j.j.j.j.j.j.j.j.j.j.j.x.j.j.j.l.x.x.j.j.l.l.x.j.j.c.l.j.j.j.j.j.j.j.j.j.j.j.j.j.j.j.j.j.j.j.j.j.j.j.j.j.j.j.j.k.j.j.j.j.d.d.d.a.a.a.e.0.9.6.=.i y 9 | @...................................................................................................................................................................................................................",
"o X X X X X X X X X X X X X X X X X X X X . . , 4 v M n n n n n n n n n n n n n n n n n k c c v v b 4 2 , @ @ . . . .         o X o o o o X X X X X O O o o X o X X X o X X o O o O o o o X X o o o o o o o o o X X X o X X X X X X X X X X X X X X o X o o o o o o o o o O o o X o o o o o O : V..X].[.].].].].]..X].].].].]..X].].+X#X.X.X#X#X#X#X.X+X.X].]..X+X.X].].[.[.].].#X#X#X#X#X#X#X].#X#X#X#X#X#X#X#X#X#X#X#X#XoX}.S.K M N m m m m m m m m m m m m m m m m m m m m m m m m m N m m m m m m m m m m m m m m m m m m m n n n m m m m m m m m m N m m m m m m m N N m m m m m m m m m m m m m N m m m m B v b b L U L L N A A Z N N m m N Z C Z Z Z N m N m m N N m m N M U K.OX$X$X$X&X&X&X&X&X#X#X&X#X#X#X#X&X&X#X&X*X&X&X#X#X#X#X#X#X#X#X&X&X&X&X&X&X*X&X&X&X&X&X&X&X&X&X&X&X&X&X&X&X#X#X#X#X#X#X#X#X#XoXoX{.'.'.J.J.N.W I v M B N N N N m Z m Z N m m C N C m m N N Z Z N m N m C C Z N N C C m C Z N Z Z N N N m m N m m N C C C Z N Z C N m m m m m m m Z Z N N m m N C C m m N m m m m N Z C N N Z Z C N N Z Z N M L H.G.F.F.F.G.G.G.G.G.F.F.G.F.G.F.G.F.F.F.F.F.F.F.F.F.F.G.G.G.F.F.F.F.F.F.H.F.F.G.Q.G.G.G.G.G.F.G.G.F.Q.W.W.W.W.E.R.R.T.h.h.g.g.g.d.l.x.c.x.x.x.j.j.j.j.j.j.j.x.x.j.x.j.c.c.j.l.j.j.j.j.x.x.j.j.j.j.j.c.j.j.j.j.j.j.j.j.j.j.j.j.j.j.j.j.j.j.j.j.j.j.j.j.j.j.j.j.j.j.j.j.j.j.j.x.j.j.j.j.j.j.j.j.j.j.j.j.j.j.j.j.j.l.j.j.j.j.j.j.l.j.j.j.j.j.l.j.j.l.c.l.j.j.j.l.c.j.j.j.x.x.j.j.j.j.j.j.j.j.j.j.j.j.j.c.x.j.j.j.j.j.j.j.j.j.j.j.j.j.j.j.j.j.j.j.j.j.j.j.j.j.j.j.j.j.j.j.j.j.j.j.j.j.j.j.j.j.j.j.j.j.j.x.l.j.j.x.j.l.j.x.l.j.j.j.j.j.j.j.j.j.j.j.j.j.j.j.j.j.j.x.j.j.j.c.l.j.l.j.j.j.j.j.l.j.j.j.j.j.j.l.j.c.x.j.j.j.j.j.j.x.j.x.j.j.j.j.j.j.j.x.l.x.j.j.j.j.j.j.j.j.j.j.j.j.j.j.j.j.j.j.d.j.j.j.j.j.j.j.j.d.d.d.d.a.i.u.e.0.9.6.=.i y q &.@...................................................................................................................................................................................................................",
"o X X X X X X X X X X X X X X X X X X X X . @ , b M n n n n n n n n n n n n n n n n n n n n n k k c c v b b 2 , # @ @ . .   X o X X X o o o X X X X X O o o X O X X X X X o X o o O : : O X X o o o O o o o o o X o X X X X X X X X o X X X X X X X X o o X X X o O O O O o o o X o o o X O O g ].].].].].]..X.X].#X.X.X].].[.].].].].]..X#X.X#X#X+X#X#X.X+X.X.X#X#X.X.X.X].[.].]..X#X#X#X#X#X#X].#X#X#X#X#X#X#X#X#X#X#X#X{.}.W v B m m n m m m m m m m m m m m m m m m m m m m m m m m m N N m n n m m m m m m m m m m m m m m m n n m N m m m m m m m m m m m m m m m m A m m m m m m m m m m N m m m N N m M v R R I I K U L B L ~ ~ N N A N Z C C Z Z Z m N Z N N m m m m N M U OX$X*X*X&X&X&X&X&X&X&X&X&X&X&X#X#X#X&X&X#X&X&X&X#X&X&X#X#X#X#X#X#X#X&X&X&X&X&X&X*X&X&X&X&X&X*X&X&X&X#X#X&X&X$X#X#X#X&X&X&X&X#X#X#X#X#XoX].'.[.J.D.W v B Z N Z C Z Z Z m N m m m m N N m m m m m m N N m m N m m m m Z C N Z Z Z Z Z N N Z Z m m m m N C C Z Z Z Z Z C Z m m N m N m N N m N N m C Z C m m m m m N A Z C N C N Z Z Z Z N N N n ! H.G.G.G.G.F.G.G.G.G.F.F.F.G.G.G.F.G.G.G.F.F.F.F.F.F.F.F.F.F.G.F.G.F.F.F.F.F.F.A.F.F.G.F.Q.F.A.F.S.S.W.W.E.R.R.T.h.g.g.g.d.d.j.j.l.l.j.l.j.j.j.j.j.j.j.j.j.x.x.x.j.j.j.j.x.j.j.j.j.j.j.j.l.j.j.j.j.j.l.j.j.x.b.j.x.j.j.j.j.j.j.j.j.j.j.j.j.j.j.j.j.j.j.j.j.c.j.x.x.j.x.j.j.j.j.j.x.j.x.x.j.j.j.j.j.j.x.j.j.j.j.j.j.j.j.j.j.j.j.x.j.j.j.x.x.j.j.l.j.j.j.x.j.j.j.j.j.j.l.j.j.j.j.j.j.j.j.j.j.j.j.j.j.j.j.c.c.c.j.j.j.j.j.j.j.j.j.j.j.j.j.j.j.j.x.j.j.j.j.j.j.j.j.j.l.j.j.j.j.j.x.x.j.j.j.j.j.j.j.x.j.j.j.j.l.x.j.j.j.j.j.x.j.j.j.j.j.j.j.j.j.j.j.j.j.j.j.j.j.j.l.x.x.c.j.j.j.j.x.x.j.l.j.j.j.j.j.j.j.l.l.j.j.j.j.j.j.j.l.j.j.j.j.j.j.j.j.j.j.x.j.j.j.j.j.j.j.j.j.j.j.j.j.j.j.j.j.j.j.j.j.k.j.j.j.j.j.j.l.j.k.k.d.d.a.u.e.e.0.7.6.i p 6 0 &.o...................................................................................................................................................................................................................",
"o o o X X X X X X X X X X X X X X X X X X . @ 2 c n m m n n m n n n n n n n n m m n n n n n n n n n c c c v v b b 4 < , @ . o o X X X o X o X X X X o O o o O o O X X o X X X X X o O & O O X o X o O o o o o o o o X X o O O X X X X X X X X o o o X X X X X X o o O o O O o O o o X o o O o n.#X].]..X.X.X]..X#X#X#X#X#X].].].].].].].]..X.X#X#X#X#X#X#X#X#X.X].#X#X]..X.X].].[.[.]..X#X.X.X#X].].#X].].#X#X#X#X#X#X#X#X{.K.U v N m m m n m m m n m m m N m m m m m m m m m m m m m m m m m m n n n m m m m m N m m m m m m m m m m m m N N m m m m m m m m m m m m m m m m m m m m m m m m m m m m m m N N v U L.J.N.m.>.E I I K K U L L L B N N S A C Z Z N Z m m m m m N N v W OX$X*X$X&X&X&X&X&X&X&X&X&X&X&X#X#X#X&X&X&X&X&X&X&X#X#X#X#X&X&X#X#X#X#X#X&X&X&X&X&X&X&X#X&X&X&X&X&X&X#X#X&X&X&X$X&X#X&X&X&X&X&X&X&X&X#X#X#XoXoX{.~.L.L B N N Z Z Z N C N N m m N N m m N m m m m m N m m N m N N Z N N Z C m m C N m m N Z N m m N C m m Z N N N C C Z Z Z N N m m m m Z Z N Z N m N Z Z C m m Z N N N Z N m A C N C Z N N N M 5.H.F.G.G.G.G.G.G.F.F.G.G.Z.G.F.F.F.F.F.F.G.G.F.F.F.F.A.A.G.F.F.G.F.G.G.G.G.F.F.A.Z.F.F.F.Q.A.4.D.W.E.E.R.T.T.h.h.g.g.d.l.j.j.j.j.j.j.j.j.j.j.j.j.j.j.j.j.j.j.b.j.j.j.j.j.j.j.j.j.j.j.j.x.l.j.j.j.c.c.c.j.j.j.j.b.j.j.j.j.j.j.j.j.j.x.c.j.j.j.j.j.j.j.j.j.j.c.j.j.j.j.j.j.j.j.j.j.j.j.j.j.j.j.j.j.j.j.j.j.j.j.j.j.j.j.j.j.j.j.j.j.j.j.l.c.j.j.j.j.j.l.j.x.c.j.j.j.x.x.j.x.l.j.l.j.j.j.j.j.j.j.j.j.j.j.j.j.j.x.j.x.j.j.j.x.c.j.j.j.j.j.j.j.j.j.j.j.j.j.j.j.j.j.j.j.j.j.j.j.j.j.j.x.j.x.x.j.x.c.c.x.j.j.j.j.l.j.j.j.j.j.j.j.j.j.j.j.j.j.j.j.j.j.j.j.l.x.j.j.j.j.j.l.j.l.x.l.j.l.x.l.j.j.j.j.j.l.j.j.j.j.j.j.j.j.j.j.j.j.j.j.j.j.j.j.j.j.j.j.j.x.x.j.j.j.j.j.j.j.j.j.j.j.l.j.j.j.j.j.j.j.k.j.j.j.j.j.j.j.k.d.k.d.d.a.i.u.e.e.9.6.=.i p 6 ] &.o...................................................................................................................................................................................................................",
"o X X X X X X X X X X X X X X X   X X X . . @ 4 v n m m n m m n n n n n n n n m m m m n n n n n n n n n n n n c c v b b 4 - # o o o X X X X X X X X X X X X O o o o X X X X X X X X X o O O o X X X o o X o o o o o X o X o o o X X X X X o O O o o X X X X X X o o o O o O O o o o o X o O > V..X]..X.XoX#X#X.X#X#X#X#X#X#X#X#X#X.X].].].#X.X.X#X+X#X#X#X#X#X#X+X].].#X.X].#X].].[.].].].#X].].#X]..X.X].].#X#X#X#X#X#X].J.L.v M N n n m n m m m n m m m m m m n n n m n m m m m m m m m m m n n m m m m m m m m m m N N m m N m m m m m m m m m m m m N N m m m m m m m m m m m m m m m m N m m m m N N N B v 2.}.'.`.~.J.J.N.m.W E I I K K L L L B A N m N m N m n m N Z N M L K.$X$X*X$X$X&X&X#X#X#X&X&X&X&X&X&X&X&X&X&X&X&X*X&X&X#X#X#X#X#X#X#X+X#X#X#X#X#X#X#X#X&X&X#X#X&X&X&X&X&X#X#X#X#X#X#X&X&X&X&X#X&X&X&X&X&X&X#X#X#XoX{.}.m.v B N Z N N N C N m m m m N N N Z N Z S A N m m m m N m m m N N m N Z m m N m m N Z N m N N Z Z N Z Z Z m N N m m m N m m m m N m m N Z m m m N C Z A Z Z Z N m m C N Z Z Z Z Z C N N M L H.H.G.G.G.G.G.F.F.G.F.F.G.F.A.F.Z.Z.Z.Z.F.A.F.F.F.F.F.G.F.F.G.F.G.F.G.G.G.A.F.G.F.H.F.A.S.W.W.E.E.E.T.T.h.g.g.g.l.l.j.j.j.x.j.j.j.j.j.b.j.j.j.j.j.j.j.j.j.j.j.x.x.j.j.j.j.j.x.j.j.j.j.j.l.x.j.j.j.x.c.c.l.j.j.j.j.x.j.j.j.j.j.j.j.j.j.j.j.j.j.j.j.b.j.c.c.j.j.j.j.j.j.j.j.j.j.j.l.j.j.j.x.l.j.l.j.j.j.x.j.j.j.j.j.j.j.j.j.j.j.j.j.j.j.j.j.j.j.j.j.j.l.j.j.j.c.j.x.x.x.x.x.j.x.j.j.j.j.j.j.j.j.j.l.j.j.j.x.j.x.x.j.j.j.j.j.j.x.x.j.j.j.j.j.j.j.j.j.j.j.j.j.j.j.j.j.j.j.j.j.j.j.j.j.j.j.x.x.j.x.j.j.j.j.c.x.x.x.j.j.c.j.j.j.j.j.j.j.j.j.j.j.j.j.j.j.c.l.j.j.j.j.j.j.l.j.j.j.x.x.j.j.j.j.j.j.j.l.j.j.j.j.j.j.j.j.j.j.j.j.j.j.x.j.l.j.j.j.x.x.x.j.l.c.j.j.j.j.l.x.j.l.j.j.j.j.j.j.j.j.k.j.j.j.j.j.k.k.j.j.d.k.j.d.d.a.a.u.e.e.9.7.-.i p 6 [ @.X...................................................................................................................................................................................................................",
"X X X X X X X X X X X X X X X X X X X . . @ , b M n n n m n m n n n n n n n n n n m m m m n n n n n n n n m n n n n k l 2 # . o o o o o o o X X X X X X O O o o O o X X X X o o o o o O o o O O O X o o X X X O o o o o X X o X X X X X X o o o o o o X X X X X X o o O O O O O o o O o o o a .X].].].]..X.X#X#X#X#X#X#X#X#X#X#X#X.X#X#X.X#X#X.X]..X].]..X.X]..X.X#X].].#X#X#X#X].].].#X.X.X#X]..X].].+X.X].].#X#X#X#XoX'.J.W v N m m n m m m m m m n m m m m m m m n n m n n m m m m m m m n m m m m m m m m m m m m m m m N N m m m m m m m m m m m m m N m m n m m m n m m m m m m m m m m m N m m m S N n v K.OXoXoX].'.'.'.`.J.J.N.m.W T I K K K L U L M m m m m m m m A M W }.$X=X*X=X=X*X&X&X&X&X#X&X&X*X&X&X&X&X&X&X&X&X&X&X&X&X#X#X#X#X&X&X#X#X#X#X#X#X#X#X#X#X#X#X#X#X#X&X&X&X*X#X#X&X#X#X&X&X&X#X&X&X&X&X&X&X&X#X#X#XoX{.(.R v N m N N N m m N N m m m N Z N N N Z Z N N m m m N m m N N m m N m N N N N N Z N N m N m N Z m m m C Z A Z Z m N m m m Z N m m m m m Z Z C N m m m Z Z N m m N Z Z N Z S Z C Z C C N n ! H.H.F.G.F.F.G.F.H.F.H.F.Q.G.F.G.G.F.G.A.F.G.F.F.G.G.A.F.G.F.G.G.F.F.F.F.F.G.A.F.Q.Q.W.W.W.E.E.T.T.T.g.i.f.d.l.l.c.j.j.j.j.l.j.j.j.j.j.j.b.j.j.j.x.j.j.j.j.j.j.j.j.j.j.j.x.c.c.j.j.j.j.j.j.j.j.j.j.j.j.j.j.j.j.j.j.j.j.j.j.j.j.j.j.j.j.j.l.j.j.j.j.x.c.c.x.x.j.j.j.j.j.j.j.j.j.x.x.j.j.j.j.c.j.x.j.j.l.x.j.j.j.j.j.j.j.j.j.j.j.j.j.j.j.j.j.j.j.j.j.j.j.j.j.j.j.x.x.x.c.x.l.x.j.j.j.j.j.j.x.j.l.x.j.j.x.c.l.j.c.x.j.j.j.j.j.j.j.c.x.j.x.j.j.j.j.j.j.j.j.j.j.j.j.j.j.j.j.j.j.j.j.j.j.x.x.j.x.j.j.j.j.j.j.l.l.j.j.j.j.j.x.j.j.j.j.j.j.j.j.j.j.j.j.j.j.l.j.j.j.j.j.j.j.j.x.x.x.x.j.l.j.j.j.x.x.j.j.j.j.j.j.j.j.j.j.l.x.l.j.j.j.l.j.j.j.j.j.j.l.j.j.j.j.j.j.j.j.j.j.j.j.j.j.c.j.j.j.j.j.j.j.k.j.j.j.j.j.j.j.j.k.d.d.d.a.a.e.e.0.9.9.=.i y 9 | @.....................................................................................................................................................................................................................",
"X o X X X X X X X X X X X X X X X X X . . @ 2 v n n n n n n m m n n n n n z z n n n n m m m m n n n n n n m n n n n M b < @ . o o o o O O O X X o o o o O O O X X X X X X X o o o o o o O o O O O O X X X X o o X o o o o X o o o X X O & O X X o O o X X X X X o o X o O O o o O o o O O O g .X].].].[.].].]..X.X]..X]..X.X.X#X.X.X.X.X#X#X#X#X#X].].#X.X].].#X#X.X#X].].#X#X#X#X#X#X#X#X.X.X#X#X#X.X].#X#X].#X#X#X#X#X{.K.U v N m m m m m m m m m m m m m m m m n n n m n m m n m m m m m m m m m m m m m N m m m m m m m m m m m m m m m m m m m m m m m m N m m m m m m m m m m m m m m m m m N m m N B v U }.OX#X#X#XoXoXoX].'.'.'.~.J.N.m.E T I K K L L B B B N n N N B v m.OX$X*X*X*X*X=X&X&X&X&X&X&X&X&X&X&X&X&X#X#X#X#X&X&X&X&X&X#X#X&X&X&X&X&X#X#X&X&X&X&X#X#X#X#X#X#X#X#X&X&X&X&X#X#X&X$X#X&X&X&X#X#X&X&X&X&X*X&X#X$X#X}.K.I M N Z N A Z m m m m m m m N Z N N N N N m m m N m m N m m m m m m m m m m m N N Z Z N m N N m m Z N m Z C Z S Z Z N C Z m m N m m m m m N N C m N m N m m m m m N C Z m C C C Z C N N M 5.H.H.3.H.F.F.F.F.F.H.F.H.F.F.F.F.F.Q.G.G.G.F.A.F.F.F.F.G.A.Z.F.F.F.F.F.F.F.F.F.Q.W.W.W.E.E.T.h.g.i.f.g.x.l.l.l.j.x.x.x.x.j.j.j.j.j.j.j.j.j.j.j.j.j.j.j.j.j.j.l.x.j.j.j.j.j.j.j.j.j.j.j.j.j.j.j.j.j.j.j.j.j.j.j.j.j.j.j.j.j.j.j.j.j.l.j.j.j.j.j.j.j.j.j.j.j.j.j.j.j.j.j.j.j.j.j.j.j.j.j.j.j.j.j.j.j.j.x.x.j.j.j.j.j.j.j.j.j.j.j.j.j.j.j.j.j.j.j.j.j.j.j.j.j.j.j.j.l.x.l.j.j.j.j.j.j.j.j.j.j.j.x.j.x.j.j.j.l.j.x.j.j.j.x.j.j.j.j.j.j.j.j.j.j.j.j.j.j.j.j.j.j.j.j.j.j.j.j.j.j.j.j.x.j.j.c.j.j.j.j.j.j.j.j.x.j.j.j.j.j.j.j.x.j.j.j.j.l.l.j.j.j.j.j.j.j.j.j.j.j.j.j.j.l.j.l.j.l.x.x.j.j.c.x.c.c.j.j.j.j.j.j.j.j.l.j.j.j.l.j.j.j.j.l.j.j.x.x.j.j.j.j.x.j.l.j.j.j.j.j.j.j.c.x.j.x.l.j.j.l.j.j.l.j.j.j.j.j.j.j.j.d.d.d.d.a.i.u.e.0.9.6.=.i y q &.X.....................................................................................................................................................................................................................",
"o X X X X X X X X X X X X X X X X X X . . , b v n n n m N m n n n n n z z z n n n n n n m m m n n n n n n n n n n n M b , @ o o o X X o o O o X o O O o O X o o X X o o X X o o o X X o o O O o o O O X o X X o o o X X o X X o o o o X O O O o X o O o X o o X o o o X o O O o O O o o O : V..X.X#X.X].].].].].].].].].].].].].]..X#X#X#X#X#X#X#X].#X#X#X.X].#X#X].]..X.X.X].#X#X#X#X#X#X#X#X]..X#X#X].#X#X#X].].#X#X#X}.L.b M N m N m m m n m m m m m m m m m N N m n m m m m m m m m m m m N m m m m m m N N m n m m m m m m m m m m m m m m n n m m m m m m Z m m m m m m m N m m m m m N m m m n n m M b m.OX$X#X#X#X#XoXoX#XoXoX].].'.`.~.J.V.m.>.E I I K K v U U M L L K K.$X$X$X&X#X&X*X&X&X&X&X&X&X&X&X&X&X#X&X&X&X&X&X&X#X#X&X&X#X#X&X&X#X&X#X#X#X#X&X&X&X&X#X#X#X#X#X#X#X#X#X#X#X#X#X#X&X#X#X&X&X&X#X&X&X#X#X$X$X$X$X{.}.W v B Z S S Z A A m m m m m m m m m m N N m m N m m m m m m m m m m N m m m m m m m Z N Z m m N N m m m m m C Z S Z Z Z Z Z C m m m m m N m m N m m Z Z m m N m m m m N N m N m C C N A N L 5.H.F.F.F.G.F.G.F.F.F.F.H.H.F.F.F.G.F.G.G.Q.Q.F.F.Z.A.F.G.F.F.F.F.F.F.G.G.G.G.F.S.W.E.T.h.h.r.i.g.d.d.c.v.l.x.x.x.l.j.j.c.c.j.j.j.j.l.l.x.l.j.j.j.j.j.j.j.j.j.j.j.j.j.j.j.j.j.j.j.j.j.j.j.j.j.j.j.x.j.j.x.j.j.j.j.j.j.j.j.j.j.j.l.x.j.x.j.j.j.j.b.x.x.j.j.j.j.j.x.j.j.j.x.x.j.j.j.j.j.x.c.j.j.j.j.j.j.j.j.j.j.j.j.c.c.j.j.j.j.j.j.j.j.j.j.j.j.j.j.j.j.j.j.c.x.c.j.j.x.x.j.j.j.j.j.j.j.j.l.j.j.j.j.c.c.v.j.j.c.j.x.j.j.j.j.j.j.l.j.j.j.j.j.j.j.j.l.l.j.x.j.j.j.j.j.j.j.j.j.j.j.j.j.j.j.j.j.j.j.j.l.j.j.j.j.c.c.l.l.j.j.j.j.j.j.j.j.j.j.x.l.j.j.j.j.j.j.j.j.x.j.j.j.l.x.j.j.x.x.x.j.x.l.j.x.c.j.j.j.j.j.j.j.j.j.j.j.j.j.j.j.j.j.j.j.j.j.j.j.j.j.j.c.j.j.j.l.l.j.j.j.j.x.c.j.l.l.l.j.j.j.l.v.j.j.j.l.j.j.j.k.k.j.k.d.a.u.e.0.9.7.6.i p 6 / &.X.....................................................................................................................................................................................................................",
"o X X X X X X X X X X X X X X X X X . . @ , v n m n n n m m n n n n n z n n n n n n n n m n n m n n n n n m n n n n M 2 , @ o X X X X o O o o X o o O o o o o X o o o o X X o O o o O o o o O X X O O X X o X X o o o X X o o o o o o o X X X O O o X o o X o o o o o O X o O O o o o O O > `..X].#X#X#XoX].].].].].[.].].].#X].].].].#X.X#X#X#X#X#X].#X#X#X].]..X]..X.X].].]..X#X#X#X#X#X#X#X#X].]..X#X#X#X#X#X#X#XoXoX}.,.b M N N N N m m n m m m m m m m m m m m m m m m m m m N m m m m n m m m m m m n n m m m m m m m m m m m m m m m m m m m m m N N N m m m m N m m m m m N m m m m m m m n m m m M b K.OX$X&X#X#X$X&X#X#X#X#X#X#X#X].].'.`.~.J.V.N.m.E T I I U U U U R }.$X*X&X&X&X#X#X&X#X&X&X&X&X&X&X&X&X&X#X#X&X&X&X*X&X#X#X&X&X#X&X#X#X#X#X#X#X#X#X&X&X&X&X&X&X#X#X#X#X#X&X&X#X&X&X#X#X&X&X&X&X#X&X&X&X&X#X#X&X$X$X{.(.R L B Z Z Z m N A S m m m m m m m m m m m m N m m m m m m m N N m N N m m m m m N Z N Z Z C m m N m Z m C C Z S S Z C m Z Z A N m N N N N m m m N m Z S Z Z N N Z N Z m Z A C C C N A Z x ! H.3.F.F.F.F.F.F.Z.Z.H.3.F.F.G.F.F.G.Q.G.F.Q.F.G.G.F.G.G.G.F.G.G.F.F.A.F.F.A.F.F.D.C.C.w.0.e.f.d.j.l.l.l.j.l.l.j.l.x.x.j.j.x.l.j.j.j.j.j.j.j.j.j.j.j.x.x.j.j.j.j.x.l.c.l.j.x.c.x.j.j.j.j.j.j.j.j.j.j.j.j.j.j.j.j.j.j.j.j.j.j.j.j.j.j.l.j.j.j.j.j.j.j.j.x.j.j.j.j.j.j.j.j.j.j.j.j.j.j.c.c.j.j.j.x.j.j.j.j.j.j.j.j.j.j.j.j.j.j.x.j.j.j.j.j.j.j.j.j.j.x.c.l.j.j.j.j.j.c.c.j.x.j.j.j.j.j.j.j.j.j.j.j.j.x.j.j.x.j.j.j.j.j.j.l.j.l.j.j.j.j.j.j.j.j.j.j.j.j.j.j.j.j.j.j.j.j.j.j.j.j.j.j.j.j.j.j.j.j.x.c.c.l.j.j.j.j.l.l.j.j.j.j.j.l.l.j.j.j.j.j.x.x.j.x.j.j.j.j.j.j.j.j.x.j.j.x.l.x.j.j.j.j.j.j.j.l.j.j.j.j.j.j.j.j.j.j.j.j.j.l.j.l.l.l.j.j.j.j.j.l.j.j.j.j.x.x.l.c.l.c.c.l.j.j.j.l.j.j.j.l.j.j.j.j.j.j.j.j.j.j.k.d.d.a.a.i.e.e.0.9.8.6.i p 6 ] &.X.........................................O...........................................................................................................................................................................",
"o X X X X X X X X X X X X X X X X X . . @ 2 v M n n n n n n n n V n n n n n n n n n n n n z n n n n n m m m m n n n v 2 # # O o X o X o O o o o X X X o o o o o O o o o X X X O o o o o X o o o o o o X X o o X X X X X X o o o o X o o X X X X o o o X o o o o o o o O O o o o O O O & O f ].].#X+X.X]..X.X.X.X].].].].].].].#X#X].].].].#X#X#X#X#X#X].].#X#X].#X.X.X]..X].#X|.#X].#X.X#X&X#X#X#X#X#X#X+X+X+XoX#X#X#X{.(.U v B N m m n m m n n n n n n m m n n n m m m m N N m m m n n n n n n m m m m n m m n n m m m m m m m m m m m m m m m m m m m m m m m m m m A N m m m m m m m m m n n m m m n n c U }.$X*X*X=X$X&X&X&X&X#X#X#X#X#X#X#X.X].].'.`.`.~.V.V.N.m.W R T W J.OX$X*X&X&X&X$X#X#X#X#X#X&X#X#X&X&X&X&X#X#X#X#X#X#X#X&X#X&X&X#X#X&X&X&X&X#X#X#X#X&X#X#X&X&X&X&X&X&X&X&X&X&X&X#X#X&X&X&X&X&X&X&X&X#X#X#X#X#X&X#XoXOXK.U L N N N m m m N N Z N m m m m Z N m m m N m m m N N m m m m m m m N N N N m m N Z Z m m C N N m N Z m m m C Z Z Z Z Z C N m m N N N N m m N N N N Z A Z C m N m N N Z Z Z C N C m Z A M 2.H.H.H.H.F.F.G.F.F.H.Z.3.3.G.F.F.F.F.F.G.G.G.G.G.F.G.G.G.!.Q.G.Q.F.F.G.F.F.F.A.A.W.>.w.g.g.d.j.x.j.j.j.l.l.j.j.j.x.x.j.j.j.l.j.j.j.j.j.j.j.j.j.x.j.c.c.j.j.j.j.j.j.j.j.j.c.c.j.x.x.j.j.j.j.j.j.j.j.j.j.j.j.j.j.j.j.j.j.j.j.j.j.l.l.j.j.j.j.j.j.j.j.j.j.j.j.j.j.j.j.j.j.j.j.j.j.c.c.j.j.j.j.j.j.j.j.j.j.j.x.j.j.j.j.j.j.j.j.j.j.j.j.j.j.j.j.j.j.j.j.x.j.j.j.j.j.j.j.j.x.j.j.j.j.x.x.j.x.x.l.j.j.j.j.j.j.j.j.j.j.j.j.j.j.j.j.j.j.j.j.j.j.x.c.x.x.j.j.j.x.j.j.j.j.j.j.l.j.j.j.j.j.j.j.j.j.j.j.j.x.x.j.l.j.j.j.j.j.j.j.j.l.j.j.j.x.j.j.j.j.j.j.j.j.j.j.j.j.j.l.j.j.j.j.j.j.j.l.j.j.j.j.j.j.j.j.x.c.j.j.j.j.l.x.j.j.j.x.x.x.l.j.j.j.j.j.j.j.j.x.j.j.j.j.j.c.j.j.l.l.l.j.c.l.j.j.c.c.j.j.l.j.j.j.j.j.j.k.k.d.d.d.a.a.a.a.i.u.e.9.9.6.-.i p 6 [ @.X.....................................................................................................................................................................................................................",
"o X X X X X X X X X X X X   X X X X   . , b M M n n n n n n n n n z n n n n V V n n n n n n n n n n n m m m z n M M l , @ # O O o o X X X o o o X o o o O o X o o o X o X X o o o o o O O O O o X o O X X X O o X X o o o X X X o X X X X X o X X X o o X o o o o o o X o O o o & O O & : V.#X].].+X.X].].].].#X.X].].].].].].].].].].].#X.X].#X#X#X#X#X#X.X.X].].#X#X].].].#X].].#X#X#X.X#X#X#X#X&X#X#X#X#X#X#XoX].].}.K.K B N N m n n m m n m n n m n m n n n n m m m m m m m m m m n n m m m m m m m n n n n n m m m m m m m m m m m m m m m m m m m m m m m m m m m N m m m m m N m m n m m m m m m M l L.OXoX$X$X*X&X&X&X&X&X&X#X#X&X#X#X#X#X#XoX.X].].].[.`.`.~.J.J.N.J.{.$X$X*X&X&X&X&X*X&X&X&X#X&X#X#X&X#X#X&X&X&X#X#X&X&X#X#X#X#X&X&X#X#X&X#X#X#X#X#X#X&X#X#X&X&X&X#X&X&X&X#X&X&X&X#X#X&X&X&X#X#X#X#X#X#X#X#X#X&X&X$XoX}.m.v B m m N Z N m m m N N N m N Z N N m m m N m m N N m m N m m m m m m m m N m m C N N m C m m N Z N m m m m m m m m C C C C m m m N N m m m m m m C A Z N N Z Z N Z N Z Z Z N m N N N m L 5.5.3.3.H.F.F.F.F.H.H.F.F.3.H.F.H.H.F.F.F.G.F.G.G.G.F.G.G.G.G.G.G.F.A.F.A.F.F.G.A.S.N.w.g.l.j.j.j.l.j.x.l.l.x.j.j.j.j.j.l.j.j.j.j.j.j.x.l.x.x.x.j.x.x.j.x.j.x.c.j.j.j.j.j.j.j.x.c.c.j.j.j.j.j.j.j.j.j.j.j.j.j.j.j.j.j.j.j.j.j.j.j.j.j.j.j.j.j.j.x.x.j.x.j.j.j.j.j.j.j.j.j.x.j.j.j.j.j.j.j.x.j.j.j.j.j.j.j.j.j.j.j.j.j.j.j.j.j.j.j.j.j.j.j.j.j.j.j.j.j.j.j.j.j.j.j.j.j.x.j.j.j.j.j.j.j.j.j.j.j.j.j.j.j.j.j.x.x.j.j.j.j.j.j.j.j.j.j.j.j.j.c.c.x.j.j.j.j.j.j.c.j.j.j.j.j.j.j.j.j.j.j.j.j.x.j.j.l.j.j.j.j.j.j.j.j.j.j.j.j.j.l.j.j.j.j.j.j.j.j.j.j.j.j.j.j.j.j.j.j.j.j.j.j.x.j.j.j.j.j.j.j.x.x.x.c.l.x.x.j.l.j.j.l.j.j.l.j.j.j.j.j.j.j.j.j.j.j.j.j.j.j.j.j.j.j.j.j.j.j.j.j.j.j.j.j.c.j.j.j.j.j.j.j.j.j.j.j.j.k.k.d.d.d.a.a.i.e.0.9.8.6.i y 9 | @.X.....................................................................................................................................................................................................................",
"X X X X X X X X X X X X X   X X X X . @ , b n n n n m n n n n n n n n n z z n n n n n n n n n n n n n n n m m m M M l , @ o o O O o X o X X X o o X X o O o X o o o o X X X X o O O O O O o o O o o o O o o X O O o o X X X X X X o o X X X X X X o o o o o O o o o o o X o o o O O O O > ~.].].#X#X].].].].[.].].].].].].].].#X#X].]..X].]..X].#X#X]..X#X#X#X#X#X#X#X].].].].].].]..X#X#X#X#X#X#X#X#X#X#X&X#X#X$X#X].}.W v B N N m n n m m m m m m m m m m n n n n n m m m m n n m m m m m m m m m m m n n n m m m m m m m m m m n m m m m m m m N m m m m m m m m m m m m m n m m m m n n m m m m m M c v K.OX#X$X#X#X&X&X&X&X&X&X#X#X&X&X&X&X#X&X#X#X#X#X.X.X].].].'.[.[.].oX#X&X&X&X&X&X&X*X*X&X&X#X#X#X#X&X&X&X&X&X&X&X&X&X&X&X&X#X#X#X&X&X#X#X&X#X#X#X#X#X#X#X#X#X#X&X#X#X&X#X#X#X&X&X#X&X&X&X&X#X#X#X#X#X#X#X#X#X#X$X#X{.}.R M B Z m m m Z N m m N m N N m m m m N m m m m m m N N m N m m m N N m m m m m m N N N m C C C N m N N m m m N m Z A Z Z C N m m N N m m m m m m m N Z Z Z C Z Z C Z C Z C m m C N m N x ~ 5.3.3.3.H.H.F.F.F.F.F.F.F.F.H.F.F.F.F.F.F.F.F.G.F.G.F.F.G.G.G.G.F.G.F.F.F.A.A.A.A.S.N.y.T.v.c.x.x.l.l.j.j.j.j.j.j.j.x.x.j.j.j.j.j.j.j.x.x.j.x.l.j.j.j.l.j.j.j.x.j.j.j.j.j.j.j.j.j.j.j.j.j.j.x.j.j.j.j.j.j.j.j.j.j.j.x.c.x.j.j.j.j.j.j.j.j.j.j.j.j.j.j.j.j.j.j.j.j.j.j.j.j.j.c.l.x.j.j.j.l.j.j.j.j.j.j.j.j.j.j.j.j.j.j.j.j.j.j.j.j.j.j.j.j.j.j.j.j.j.j.j.j.j.j.j.j.j.j.l.x.j.j.j.j.j.j.j.j.j.j.j.j.j.j.j.j.j.j.j.j.j.j.x.j.j.j.j.j.j.j.j.x.j.l.j.j.j.j.j.j.x.j.j.j.j.j.l.j.j.j.j.j.j.j.j.j.j.j.j.j.j.j.j.j.j.j.j.j.j.j.j.j.j.j.j.j.j.j.j.j.j.x.x.x.j.x.j.j.x.x.j.j.j.j.j.j.j.j.j.j.j.j.j.j.j.j.j.j.j.j.j.j.j.j.j.j.j.j.j.j.j.j.x.l.j.j.j.j.j.j.j.j.j.j.j.j.j.j.j.j.j.j.j.j.j.j.j.j.l.j.j.j.l.j.j.j.j.j.j.d.d.d.d.d.a.i.e.e.0.9.6.=.i y q &.@.......................................................................................................................................................................................................................",
"X X X X X X X X X X X X X     X     . @ 2 v n n n n n n n n n n n n n n n n n n n n n n n n n n n n m n n n m m M v < # @ + o X X X o o o X X X X X X X o o X o O o X X X X o X o O o o X o o o O O o o X X X X O O o X X o X o o O O o X o X X o o o o o o o o o o o O o o O O O O O O f ].[.].#X#X.X#X].].#X.X].]..X].].].].#X#X+X#X]..X#X#X.X.X#X#X.X]..X.X#X#X#X#X].].].].#X].].].].#X#X#X.X#X].|.#X#X#X#X#X#X#X{.(.U M N N m m m n m m m m m m m m m m m m n n m m m m n n n n m m m m m m m m m m m m m m m m m m m m m m n m m m m m m m m m m m m m m m m n m m m m m m m n m m n n n m m m N M c R }.OX#X&X&X#X&X&X&X&X&X&X&X#X&X&X&X&X&X&X&X&X#X#X#X#X#X.X#X].].#X].#X#X#X#X#X&X&X&X&X&X&X#X#X&X#X#X&X#X#X&X&X#X&X#X#X#X&X&X&X&X#X#X&X&X#X#X&X&X&X#X&X&X&X#X#X#X#X#X#X#X#X#X&X&X#X#X&X#X&X&X&X#X#X&X#X#X&X#X#X#X#X#X}.K.U B N Z m N N m N Z m N N m N m m m m N N N m m m m m Z Z N N m m N N m m m m m N N N N m m m m N N N m m m m N N Z Z Z A Z m N m N Z m m m Z N N m N C Z C N N Z Z Z C Z C C Z m m Z N M ! 5.3.3.H.F.F.G.F.F.3.F.H.F.F.F.Z.H.F.F.F.G.F.H.F.G.F.G.G.F.F.F.F.F.F.G.A.F.Z.Z.Z.Z.Z.D.C.h.z.v.v.x.j.j.j.j.j.j.j.j.j.j.j.j.j.j.j.j.j.j.x.j.j.j.j.j.j.j.j.j.x.j.l.j.j.j.j.j.j.j.j.j.j.j.j.j.j.j.j.j.j.j.j.l.x.c.c.c.c.c.j.j.j.j.j.j.j.j.j.j.j.j.j.j.j.j.j.j.j.j.j.j.x.j.j.j.j.j.c.c.j.j.j.j.j.j.j.j.j.j.j.j.j.j.j.j.j.j.j.j.j.j.j.j.x.j.j.j.j.j.j.j.j.j.j.j.j.j.j.j.j.j.j.j.j.j.j.j.j.j.j.j.j.j.j.j.j.j.j.j.j.j.j.j.j.j.j.j.j.j.j.c.x.j.j.j.j.j.j.j.j.j.j.j.j.j.j.l.j.j.j.j.j.j.j.j.j.j.j.j.j.j.x.j.j.j.j.j.k.k.j.j.j.j.j.j.j.j.j.j.j.j.j.l.l.x.c.x.j.c.x.x.x.x.j.j.j.j.j.j.x.j.j.j.j.j.j.j.j.j.j.j.j.j.j.j.j.l.c.c.j.j.j.j.j.j.l.l.j.x.c.j.j.j.j.j.j.j.j.j.j.j.j.j.j.j.j.j.j.j.j.j.j.j.j.j.x.j.j.j.j.j.j.k.d.d.d.a.i.u.e.e.9.8.6.i i 6 0 #.X.X.....................................................................................................................................................................................................................",
"X X X X X X X X X X X X X X         . , b v n n n n n n n n n n n n n n n n z n n n n n n n n n n m n n m n n m M b , @ . X X X X X o O o O o X o O X X X X X X O O X X o X o o o O o o O o O O O o o O X X o X X o o o o O o o X o o o X X o o o o o o o o o O O O O o o o o O O O & : V.#X].].].].#X.X].].#X#X#X].].].].]..X].#X#X.X#X.X.X.X.X].#X#X#X#X#X#X.X#X#X#X#X].|.].].#X].].].].#X#X#X].].].{.#X#X#X#X#X{.}.S.K M N m m m m m m m m N m m m m m m m n n n n m m n n n m n n m m m m m m m m m m m m m m m m m m m m n n m m m m m m m m m m m m m m m m m m m m m m m m m m m m m m m n n n M b L.OX#X&X&X$X$X&X&X&X&X#X#X#X#X#X#X#X&X&X&X&X&X#X#X#X#X#X#X#X#XoX#X#X#X$X#X$X&X#X#X#X#X&X&X&X&X#X#X&X#X#X#X#X&X&X#X#X#X#X#X#X&X&X#X&X&X#X#X#X#X&X&X&X&X&X&X&X#X#X#X#X&X#X#X#X#X&X&X#X#X&X#X#X&X&X&X&X&X&X#X&X#X#X#X{.}.L.v B N C m N Z Z Z Z N m N N N N m m m m m N m m m m N C Z A N m m N N m m m m m m m Z Z C N m m m m m m m m N m N m C m Z Z N m m N N m m Z Z m N m m m m C m N C Z S C Z Z C Z C N N N L 5.5.H.H.H.H.G.F.G.F.F.H.F.3.F.F.F.H.H.F.F.H.F.G.F.F.F.A.A.F.A.A.A.Z.Z.Z.F.Z.A.3.3.3.4.D.N.B.T.l.v.x.j.j.j.j.j.l.j.j.j.j.j.j.j.j.j.j.x.j.j.j.j.j.l.j.j.j.j.j.j.j.j.j.j.j.j.j.j.j.j.j.j.x.j.j.j.j.j.j.j.j.j.j.l.x.x.l.j.j.j.j.j.j.j.j.j.j.j.j.j.j.j.j.j.j.j.j.c.x.j.j.j.x.x.x.j.j.c.c.x.j.j.j.j.j.j.j.j.j.j.j.j.j.j.j.j.x.c.j.x.j.j.j.j.x.j.j.j.j.x.j.j.x.j.j.j.j.j.j.j.j.j.j.j.j.j.j.j.j.j.j.j.j.j.j.j.x.j.j.j.j.j.j.j.j.j.j.j.j.j.j.j.j.j.j.j.j.j.j.j.j.j.j.j.j.j.j.j.j.j.j.j.j.j.j.j.j.j.j.j.j.j.j.j.c.k.j.l.j.j.j.j.j.j.j.j.j.j.j.j.l.c.c.l.j.l.x.j.j.l.x.j.j.j.j.j.x.c.j.j.j.j.j.j.j.j.j.x.c.j.j.j.j.j.j.j.j.j.j.j.j.l.l.j.j.j.x.j.l.x.j.j.j.j.j.j.j.j.j.j.j.j.j.j.j.j.j.j.j.l.l.j.l.j.x.j.j.j.j.j.j.d.j.j.d.a.a.u.e.e.0.7.6.-.i p 6 ] #.o.......................................................................................................................................................................................................................",
"X X X X X X X X X X X X X X X       @ , b M n n n n n m n n n n n n m n n n z z n n m n n n n n n n n n n n m n n l , @ o o X o X X X o o O o O X O O X X X X X o o o X X o o X X O o o O O o o X O O o o X X X o o o o o o o o o X X X X X X X X o o O o X o o o O o o o o o O o O O a '.].oX.X].]..X.X].].].]..X#X#X#X.X].]..X].]..X#X#X.X]..X].].#X#X#X#X#X#X].+X.X].].].]..X#X#X#X].#X#X#X#X#X#X].].#X#X#X#X#X{.}.2.v M m m m m m m m m m N m m m m m m m m m n n n n n n n n n m m m n n m m m m m m m m m m m m m m m m n n m n m m m m m m n m m m m m m m m N m m m m m m m m m m m m m m n n c b K.OX#X#X&X#X#X#X#X#X#X#X#X#X#X#X#X#X&X&X#X&X#X&X#X#X#X#X#X&X#X#X#X#X#X#X#X&X$X&X&X&X&X&X&X&X&X&X#X#X&X&X#X&X&X&X#X&X#X#X#X#X&X&X#X&X&X#X#X#X#X#X#X&X#X#X&X&X&X&X&X#X&X&X&X&X#X&X&X&X&X&X&X&X&X&X&X&X&X*X*X&X&X&X#X{.(.R M N m C N m Z S S Z Z Z m N Z N N m m m N N m N m m N m N Z m m m m m m m m m m m m m N Z C m m m N m m m m N m m m m m m N Z Z m m m m m m m m N C m N C m m m Z Z C C A A A S N N N x ~ 5.5.3.H.F.F.G.G.F.F.G.F.F.F.3.Z.H.F.F.F.F.F.H.F.H.H.Z.H.3.A.F.F.F.F.F.A.A.A.A.Z.3.3.4.4.N.w.T.g.d.j.j.j.j.x.c.c.j.j.j.j.l.j.j.l.j.j.j.j.j.l.l.j.j.j.j.j.j.j.j.j.l.j.j.j.j.x.j.j.j.x.j.j.j.j.x.c.x.j.j.j.j.j.j.j.j.j.j.j.j.j.j.j.j.j.j.j.j.j.j.j.j.j.j.j.j.j.x.x.j.j.j.j.j.j.j.j.x.j.j.x.j.j.j.j.j.j.j.j.j.j.j.j.j.j.x.c.c.j.c.c.j.j.j.x.j.j.j.j.j.x.j.j.x.j.j.j.j.j.j.j.j.j.j.j.j.j.c.c.c.j.j.j.j.j.j.j.j.j.j.j.j.j.j.j.j.j.l.j.l.j.j.j.j.j.j.j.j.j.j.j.j.j.j.j.j.j.j.j.j.x.x.j.j.j.j.j.j.j.j.j.j.j.j.j.j.j.j.j.j.j.j.j.j.j.j.j.j.j.l.c.c.c.x.j.l.j.x.x.j.j.j.x.l.l.j.j.j.j.j.j.j.j.j.j.j.j.j.j.j.j.j.j.j.j.j.j.j.x.x.j.j.j.j.j.l.l.j.j.j.j.j.j.j.j.j.j.j.j.j.j.j.j.j.j.j.j.j.l.l.c.j.l.c.x.l.j.j.j.l.j.j.j.d.a.a.a.u.e.e.9.7.6.-.i p 6 [ $.X.......................................................................................................................................................................................................................",
"X X X X X X X X X X X X X X       . @ 2 v n n m n n n n n n n m n n n m m n n z n n n n n n n m n n n n n n n M c 2 # @ o X o O o X o o X o o O X o & O X X X X O o X X X X X X X X o o O O O O o X X X o X X X X o o X X X X X O O o X X o o X X o X o o o o o o o X o O o o o O O o f oX].].#X.X].].].].].].].]..X#X#X#X#X].].].].].].].#X]..X].]..X#X#X#X#X#X.X.X.X].].].].].].#X#X#X#X.X#X#X#X#X.X.X#X#X#X].{.}.K.U v m m m m m m m m m m N N m m m m m m m m m m m n n n n m m m m m m m n n m m m m m m m m m m m m m m n n m m Z N m m m n n n m m m m m m m N m m n n m m m m m m m m m n m M l U }.OX#X&X#X#X#X#X#X#X#X#X#X#X#X#X#X#X#X&X&X&X#X#X#X#X#X#X#X#X#X&X#X#X#X#X#X#X#X#X&X&X&X#X#X&X#X#X#X#X&X&X&X&X#X#X&X&X&X#X#X#X&X&X&X&X#X#X#X#X#X#X#X#X#X#X&X&X&X&X&X&X&X&X&X&X&X&X&X&X&X&X&X&X*X&X*X*X*X*X*X&X&X&X#X}.K.K B N m m m m m N C Z C Z C m m m m m m N m m m m N N m Z Z Z m N m m m m m m m N N m m N m N C N N m m m m m m m N m m m m N Z m m m m m m m m m Z Z C m N N m N m N C Z C Z S S S Z N M ! H.H.H.H.F.F.F.F.H.H.Z.F.Q.F.F.Z.3.F.F.F.F.F.F.F.H.3.F.Z.H.Z.H.H.F.Z.H.A.3.4.3.3.3.3.4.4.N.C.T._.l.j.j.j.j.j.x.j.j.j.j.j.c.c.j.j.j.j.j.j.j.j.x.x.j.j.j.j.j.j.j.j.j.j.j.j.j.c.x.j.j.j.j.j.j.j.j.j.j.j.j.j.j.j.j.j.j.c.j.j.j.j.j.j.j.j.j.j.j.j.j.x.j.j.j.j.j.j.j.j.j.j.j.j.j.j.j.j.j.x.j.c.c.x.x.j.j.j.j.j.j.j.j.j.j.j.l.x.j.j.j.j.c.j.j.x.j.j.j.j.j.j.j.j.j.j.j.j.j.j.j.j.j.l.j.j.j.j.j.c.c.l.j.j.j.j.j.j.j.j.j.j.j.c.j.j.j.j.j.j.j.j.j.j.j.j.j.j.j.j.j.j.j.j.j.j.j.j.j.j.c.c.l.j.j.j.j.j.j.j.j.j.j.j.j.j.j.j.j.j.j.j.j.j.j.j.j.l.l.g.i.0.a.v.c.j.j.j.j.j.j.j.j.j.l.c.c.j.j.j.j.j.j.j.j.j.j.j.j.j.j.j.j.j.j.j.j.j.j.x.l.j.j.j.j.j.x.l.j.j.j.j.j.j.j.j.j.j.j.l.x.j.j.j.j.j.j.j.l.l.j.j.l.l.x.l.j.l.j.l.c.l.k.k.d.d.a.a.u.e.e.9.7.6.=.i y 6 | @.X.......................................................................................................................................................................................................................",
"X X X X X X X X X X X X   X       . , b v M n n n n n n n n n n n n n n n n n n n n n n n n n m m m n n n n n n b < @ . o o X o o o X X X X o X O o o o o X X o O o X X X X X X X X X o o o o o O O o o o X X X X X o X X X X o o O O o X o o X o o o o o o O O o o o O O O & o o O = C.].].].#X].].].].].].]..X#X.X#X#X#X#X#X.X.X].]..X].].]..X].].].#X#X#X#X#X#X#X#X].].].].].#X].].].#X#X#X#X#X+X+X#XoX#X.X].[.}.L.v M m n m m m m m m m m m m m m m m m m m m m m m n m m m m m n m n m m m n n m n m m m m n m n m m m n n m n N m N Z N m m m m m m m m m m n m m m m n n m m m m m m m m m m M l 2.OXoX#X#X$X#X#X#X#X#X&X#X#X#X#X#X#X#X#X#X&X&X&X#X#X#X#X#X#X#X#X#X#X&X&X#X#X#X#X#X#X#X#X#X#X&X&X&X#X#X#X&X&X&X&X&X#X#X&X&X#X#X#X&X&X&X&X#X#X&X#X#X#X#X#X#X#X&X#X#X#X#X#X&X&X&X&X&X&X&X&X&X&X&X&X&X*X*X*X*X&X&X&X#XoX}.W v B N Z m N N m Z C Z Z m N Z N m N m m m N m m m m Z C m m C N m m N N m N N m m Z m m N m m m m N N N N m m m m N N m m m N N m m m m m m m m m m N N C m N N N m N N m N C Z Z N A N L 5.H.H.H.H.F.F.F.H.Z.H.Z.G.Q.!.G.F.H.3.H.F.F.F.F.F.F.F.F.H.H.Z.3.Z.Z.Z.3.3.3.3.4.1.1.1.1.,.,.>.w._.v.x.j.j.j.j.j.j.j.j.j.j.j.j.j.j.j.j.j.j.j.j.j.j.j.j.j.j.j.j.j.j.j.j.j.j.j.j.j.j.j.x.j.j.j.j.j.j.j.j.j.j.j.j.j.j.j.j.j.j.j.j.l.j.j.j.j.j.j.j.j.j.x.j.j.j.j.j.j.j.j.j.j.j.j.j.j.j.j.j.x.j.j.x.x.l.j.j.j.j.j.j.j.l.j.j.j.j.j.j.j.j.j.x.j.j.j.j.j.j.j.j.j.j.j.j.j.j.j.j.j.j.j.c.x.j.j.j.l.j.l.l.l.j.j.j.j.j.j.j.j.j.j.x.x.x.j.j.j.j.j.j.j.j.j.j.j.j.j.j.j.j.j.j.j.j.j.j.j.j.j.l.j.j.j.j.j.j.j.j.j.j.j.j.j.j.j.j.j.j.j.j.j.l.l.l.g.r.r.q.q.8.i r.l.l.x.j.j.j.j.j.x.x.j.j.x.j.j.j.j.j.j.j.j.j.j.j.j.j.x.j.j.j.j.j.j.j.j.j.j.j.j.j.j.j.l.x.x.j.j.j.j.j.j.l.j.j.j.j.j.j.j.j.j.j.l.j.j.j.j.j.j.l.j.j.l.j.j.j.j.j.j.k.d.a.a.i.e.e.0.9.7.6.=.i y 9 &.@.X.......................................................................................................................................................................................................................",
"X X X X X X X   X X X X X X     . @ , v M m n n n n n n n n n n n n n n n n n n n n n n n n n m m n n n n n n c l , # o o o X X X X o X X X X o X o o o X X X X o O o o o o X X X o o o o o o o o o O O o o X o o X X X o o o X o o X X X X o X X X X X X o o O O O o o O O O O O O > ~.].].]..X].].].].].].].#X#X#X#X#X#X.X#X#X.X#X#X#X#X].].#X.X].].]..X#X#X#X.X#X#X#X|.].].].#X#X].]..X#X#X#X#X#X#X#X{.oX+X].'.(.W v B N m m m m m n m m m m n m m m m N N m m m m n m m m m N N m m m n m m n n m n m m N m m n m m m m m m n n m m N N Z m m n m m N m m m n n n m m m n n n m m n m m m m m m M K K.OXoX#X#X#X#X#X#X#X#X#X#X#X#X#X#X#X#X#X#X#X#X#X&X&X&X&X#X#X#X#X#X#X#X&X#X#X&X&X#X#X#X#X#X#X#X&X&X#X#X.X#X#X#X#X&X#X&X&X#X#X#X#X#X&X&X&X#X#X#X#X#X#X#X#X#X#X#X#X#X#X&X&X&X&X&X&X&X&X&X&X&X&X&X#X#X&X&X&X*X&X*X&X#X{.}.U v N N Z S N m m N S A N m m Z Z m m m m m N Z Z C m m m N N C Z Z N m N N m C N N N m m m N m m N N m Z Z m m m N m m m m m m m m m m m m m N m m m m m C m N m m N m N C N N N C Z N M L H.H.H.H.H.F.F.F.F.H.F.F.H.F.F.G.G.F.H.4.3.F.H.F.F.F.F.F.H.3.3.3.3.Z.3.3.3.1.1.1.1.2.2.2.,.,.>.:.T.z.x.c.j.j.j.j.j.j.j.j.j.j.j.j.j.j.j.j.j.j.j.l.j.j.j.x.j.x.j.j.j.j.j.j.j.j.j.j.j.j.x.x.j.j.j.j.j.j.j.j.j.j.j.j.j.j.j.j.j.j.j.j.j.j.j.j.j.j.j.l.j.j.j.j.x.b.b.j.j.j.j.j.j.j.j.j.j.j.j.x.j.j.c.l.j.j.j.j.j.j.j.x.j.j.j.j.j.j.j.x.c.j.j.j.j.j.j.x.j.j.j.j.j.j.j.j.j.j.j.j.j.j.x.c.j.x.j.x.j.j.x.x.j.j.j.j.j.x.x.j.j.j.j.j.j.j.j.j.j.j.j.j.j.x.j.j.j.j.j.j.j.j.j.j.j.j.j.j.j.j.j.j.j.j.j.j.j.j.j.j.j.j.j.j.j.j.j.j.j.j.l.z.z.g.r.q.w.t.T.).T.;.8.z.v.x.j.l.l.j.j.j.x.j.j.j.j.j.j.j.j.j.l.l.l.l.l.j.x.j.j.x.x.j.j.x.j.j.j.j.l.j.l.j.j.j.j.j.j.j.j.j.j.j.j.j.j.j.j.j.j.j.j.j.j.l.x.x.j.j.j.j.c.l.l.j.j.j.j.k.j.j.d.d.a.a.i.e.e.0.7.6.=.i i y d &.X.........................................................................................................................................................................................................................",
"X X X X X X X   X X X X X       . @ 2 v n n n n n n n n n n m n n n n n n m n n n n n n m n m m m m m n n n n c 2 , # O X o o X X o o X X X X X X X o o X X X o O o O o o o X X o O X X O o o o X X X o X o o o o o o X X o o o o X o O O o O o X X o X o o o X o o X X o o X o O O f [.].].].].]..X#X].'.].].].#X#X#X.X.X#X#X.X]..X#X.X.X#X].].#X#X].].].].#X#X#X.X#X#X#X#X#X#X#X#X]..X.X#X.X#X#X#X#X#XoXoXoX{.}.K.U M N N m m m m m m m m m n n m m m m m m N m m m m m m m m m m m m m m n m m m m m m n m m m m m m m m m m n n n m Z m m m n m m m Z m m m m m m m m m m m n m m m m m m m m m v U }.{.oX#X&X#X#X&X&X#X#X.X#X#X#X#X#X#X&X$X&X#X#X#X#X&X&X#X#X#X#X#X#X+X#X&X&X#X#X&X#X#X&X&X#X#X#X#X#X#X&X#X#X#X#X#X#X&X&X&X&X#X#X#X#X#X&X&X&X#X#X#X&X#X#X#X+X#X#X#X#X#X#X#X&X&X&X&X&X&X&X&X#X#X#X&X#X#X#X#X#X#X&X#X#X}.K.K B m m Z C N N N m m N N m m N N m m m m m N m Z A m m m N N Z m C Z C C m m m Z Z N m m m m m m m Z Z Z Z N m m m m m m m m m m m m m m m m m m m m N m m m N m N m m N N C N N m N N M ! H.H.H.H.H.H.F.F.F.F.H.F.F.F.A.H.F.H.F.H.3.Z.3.3.3.H.F.G.F.H.H.H.3.3.3.3.3.3.1.1.2.,.2.<.<.,.,.:.t.v.l.x.l.j.j.j.j.j.j.j.j.j.j.j.j.j.j.j.j.j.j.c.c.j.j.j.l.x.j.j.j.j.j.j.j.j.x.x.j.j.j.j.l.j.j.j.j.j.j.l.j.j.j.j.j.j.j.j.j.j.j.j.x.j.j.j.j.j.j.j.j.x.x.j.j.j.j.j.j.j.j.j.j.j.j.l.j.j.j.j.l.j.j.l.j.j.j.j.j.j.j.j.j.j.c.x.j.j.j.j.l.j.j.j.j.l.j.j.j.j.j.j.j.j.j.j.j.j.j.j.j.j.j.j.j.c.j.j.j.j.j.j.j.j.j.j.j.j.j.j.j.j.l.x.x.j.l.j.j.j.j.j.j.j.j.x.j.j.j.j.j.j.j.j.j.j.j.j.j.j.j.j.j.j.j.j.j.j.j.j.j.j.j.x.j.j.j.l.l.g.g.g.r.q.w.T.).).XXXX).B.;.g.v.x.x.x.j.j.j.j.l.c.l.c.x.j.j.l.x.x.x.x.c.j.c.x.j.l.j.j.c.j.j.j.j.j.j.j.j.x.j.j.l.x.j.j.j.j.j.j.j.j.j.j.j.j.j.j.j.j.j.j.j.j.j.l.c.c.l.j.l.j.j.j.j.j.j.k.k.j.k.d.d.a.r.e.e.9.9.8.=.i p 6 / &.o.........................................................................................................................................................................................................................",
"X X X X X X X X X X X         X . , l M n n n n n n n z n z n n n n z n n n n n n n n n n m m m m n m m z n M l < @ . o o o o X X X X X o X X X X X X o o o o o O o o O O o o X X o O X X o o O o X X X X X X X X o X X X X o o o X o O o o O O X X X o o o o O O o o o o o o o O O V.].].].]..X]..X#X#X].].].].].#X#X].].].].#X#X].]..X#X#X#X]..XoXoX].].].#X#X#X#X#X#X#X#X#X#X#X#X]..X#X#X#X#X#X#X#X.X.XoXoX].}.L.b M m m m m m m n n m m m m n n m m m N m m m m m m m m n m m n m m m m m m m m m m m m n m m m m m m m m m m m m n m m m m m m m m n m m m m m N m m m m m m m m m m m m N m M v 2.OX{.oX#X*X&X&X#X&X&X&X#X#X#X#X#X#X#X#X#X&X&X&X&X#X&X&X#X#X#X&X&X#X#X#X#X&X&X&X#X#X#X#X&X&X#X#X#X#X#X#X#X#X#X#X#X#X#X#X#X&X&X#X#X#X#X&X&X&X#X#X&X&X&X#X&X#X#X#X#X#X.X#X#X#X&X&X&X&X&X&X&X$X#X&X&X&X&X&X&X&X#X#X#XoX}.2.v B A Z C m N m m N N m m N N m m m N m m m m m N N m N m m C Z m m m N N N N m m Z Z C N N m m m m m N m m m m m m m m m m m m m m m Z m m m m m N N N m N N m m N m m m N C A C m N N M 5.H.H.H.F.H.H.H.F.F.F.H.F.F.F.F.F.H.F.Z.F.H.4.H.3.3.H.3.H.H.3.H.3.3.3.3.1.1.2.1.2.1.<.<.<.<.<.,.>.:.T.z.x.l.j.j.j.j.j.x.j.j.j.j.j.j.j.j.j.j.j.j.j.j.j.j.j.j.j.l.j.j.j.j.c.x.j.j.j.l.j.j.j.j.j.j.j.j.j.j.j.j.j.j.j.j.j.j.x.j.j.j.x.j.x.j.j.j.j.j.j.j.j.j.j.j.j.x.j.j.j.j.j.j.j.j.j.j.j.j.j.j.x.j.x.x.j.j.j.l.j.j.j.j.j.x.x.j.j.j.x.j.j.j.j.j.j.j.j.j.j.j.j.j.j.j.j.j.j.j.j.j.j.j.j.l.j.j.j.j.j.j.j.x.j.j.j.j.j.j.j.j.j.j.j.j.j.j.j.j.j.j.j.j.j.j.j.j.j.j.j.j.j.j.j.j.j.j.j.j.j.j.j.j.j.j.j.j.j.j.j.j.j.l.x.j.x.l.l.t.w.y.w.B.).).XXXX+X+X+X+X).8.t.v.j.l.l.j.j.j.j.j.j.j.x.j.j.j.j.j.j.j.j.j.j.j.j.j.j.j.j.j.j.j.j.j.l.j.c.x.j.j.c.c.j.j.l.j.j.j.j.j.j.j.j.j.j.j.j.j.j.j.j.j.l.j.j.j.j.j.j.j.j.j.j.j.j.j.d.j.j.j.a.a.a.i.e.e.0.9.6.6.i p 6 ] &.X.........................................................................................................................................................................................................................",
"X X X X X X X X X           X . @ , v n n n n z n n n n n n z n n z z z n n n n n n n n n m m m m m n n n n M l , # O o o o o o o o X o X X o o X X X X X o o X X X o X o o o o X o o o o X o O O O o X X o X o o o O X X X o o o O X X X X X O o X X X o o o O O O X X o o o O O > ~.].].oX].].].].#X#X.X].[.].]..X#X.X]..X#X#X#X.X+X#X#X#X#X#XoX]..X.X.X].]..X#X#X#X#X#X#X#X#X.X#X#X.X.X.X+X].].]..X#X#X#XoX{.}.W b B m m m m n n n m m m m m m m n m N m m m n m m m m m m m m m m m m m m m n m m m m m m n m m m m m N m n m m n n n n n m m m m m m m m m m m m m m n m m m m m m m N m N N M v K.OX#X#X#X#X&X&X#X#X#X#X#XoX.X#X#X#X#X#X#X#X&X&X&X#X#X#X&X&X#X#X#X#X#X#X#X#X&X&X&X&X#X#X&X&X&X#X&X&X#X#X#X#X#X#X#X#X&X&X#X&X#X#X&X&X&X#X#X&X#X#X&X#X#X#X#X#X#X#X&X#X#X#X#X#X#X#X&X#X&X&X#X#X#X#X&X&X&X#X#X&X&X&X$XoX}.R M B Z N C N m m m m m m m m m m m m m m m m m m m Z Z m m N m m N N N m m N N Z C Z C C Z Z m m m C m m m m m n n m m m m m m N Z m m m m m N m m N N Z N m N m m m m m m m C Z Z N N m L 5.H.H.H.H.H.H.H.F.F.H.F.G.F.F.F.F.F.F.H.Z.H.3.3.H.H.3.3.3.3.3.3.3.3.4.3.1.1.1.1.2.<.,.<.<.<.<.<.>.:.T.g.l.j.l.j.j.j.j.j.j.j.j.j.j.j.j.j.j.j.j.j.j.j.j.j.j.j.j.j.j.j.j.j.j.j.j.j.j.j.j.j.j.j.j.j.j.j.j.j.j.j.j.j.j.j.j.j.j.j.j.j.j.j.j.j.j.j.j.j.j.j.j.x.x.j.j.j.j.j.j.j.j.j.j.x.j.j.x.j.j.x.x.j.c.c.x.j.x.j.j.j.j.j.j.j.j.j.j.j.j.j.j.j.j.j.j.j.j.j.j.j.j.j.j.j.j.j.j.j.j.j.j.j.j.j.j.j.j.j.j.j.x.j.j.j.l.j.j.j.j.j.j.j.j.j.j.j.j.j.j.j.j.d.j.j.d.j.j.d.j.j.j.j.j.j.j.j.j.j.j.j.j.j.j.j.j.j.j.j.j.j.l.c.c.z.g.r.t.t.B.).XXXX+X+X#X#X#X#X#X+XXXw.8.z.l.l.l.k.j.j.j.j.j.j.j.j.j.j.j.j.j.j.j.j.j.l.j.j.j.j.j.j.j.j.j.j.j.j.j.j.j.x.c.j.j.j.j.j.j.j.j.c.j.j.j.j.j.j.j.j.j.j.j.l.j.j.j.j.j.l.c.j.j.j.j.k.j.j.k.j.j.l.k.a.a.i.e.0.9.6.-.=.i y 9 | @.o.........................................................................................................................................................................................................................",
"X X X X X X X   X           X . @ 2 v n m n n n n n n n n n n n n n n n n n z z n n n n n n m m m m m n n n c 2 # # o o O O X o O O o X O o o o X X X X X X X X o o O O O O o O o X X o O o o o o O X o o X X O O o X o o o O X o o X X o o X o O o X o X o o o O O O o o o o O X f .X]..X.X#X#X.X]..X.X.X.X].].#X.X#X#X#X#X#X#X#X#X#X.X.X].]..X.X].]..X].]..X].].].].#X#X#X#X#X.X].#X#X#X.X.X#X.X].]..X#X#X{.}.K.I v m m m m n n n n m m m m N N m m m m m m N m m m m m m m m m m m m m m m m n m m m m m m m m m m m m N N m m m m n n n n n m m m m m m m m n m m m m m n m N m m m m m m m N M R }.oX$X#X#X&X#X#X&X&X&X#X#X#X#X#X#X&X#X#X#X#X#X#X&X&X#X#X&X&X&X#X#X#X#X#X#X#X#X#X#X&X&X#X#X&X*X&X&X&X#X#X#X#X#X#X#X#X#X&X&X&X&X#X#X#X&X#X&X&X&X#X#X#X#X#X#X#X#X#X#X&X#X#X&X#X#X#X#X#X#X&X#X#X#X#X#X&X&X&X&X&X&X$XoX{.L.U B N N N m N N N m m m m m N m m m m m m m m N N Z Z Z A N N N N m m m m m m m N Z N m N N Z N Z N m m N N N m m m m m m N m m m N m m m m m m m N N m m N N m m m m m m N Z Z Z Z Z N M ! 5.H.H.H.Z.F.G.H.F.F.F.G.F.G.F.F.F.F.H.Z.H.H.F.H.3.3.3.3.3.3.3.3.3.3.3.1.4.1.2.1.,.<.<.<.R <.<.R T :.y.g.d.j.j.j.j.j.j.j.j.j.j.j.j.j.j.j.j.j.j.j.j.j.j.j.j.j.j.j.j.j.j.l.j.j.j.j.j.j.j.j.j.j.j.j.j.j.j.j.j.j.j.j.j.j.j.c.j.j.j.j.j.x.j.x.j.j.j.j.j.j.j.j.c.x.j.j.x.x.j.j.j.j.j.j.j.j.x.j.j.x.j.j.j.j.j.j.j.j.j.j.j.j.j.j.j.j.j.j.j.j.j.l.x.c.j.j.j.j.j.j.x.x.x.x.j.j.j.j.j.j.j.j.j.j.j.j.j.j.j.x.x.x.j.j.x.j.j.j.j.j.j.j.j.j.j.j.j.j.j.j.j.j.j.j.j.c.x.j.j.j.j.j.j.j.x.j.j.j.j.j.j.j.j.j.j.j.j.j.l.z.v.z.g.w.w.B.).XXXX+X+X#X&X#X&X&X&X&X#X#XXX).;.t.z.j.l.x.j.j.j.j.j.l.j.j.j.j.j.j.j.j.j.j.j.j.j.j.j.j.l.l.j.j.j.j.j.j.x.j.j.j.j.j.j.l.j.j.j.j.l.l.j.j.j.j.j.j.j.j.j.j.j.j.j.l.c.c.l.c.x.j.j.j.j.j.j.j.j.d.j.d.d.a.u.u.e.0.9.6.-.i i y q #.@.X.........................................................................................................................................................................................................................",
"X X X X X X X   X X X   X X   . , b v n m n n n n n n n n n n n n n n n n n n n n n n n n n n m m m m n M n c < @ # o o O O o X X o o o O o X o X X o X X X X X o O O O O o O O O O X o O o O o o o X X X X X o O O o X o o o X X X o O o X O o O o o X X X X o o o O O O O o O O n.oX]..X#X#X.X.X]..X#X#X#X].].#X]..X+X.X]..X#X#X.X.X]..X].#X.X].].].].].]..X].].].].].].#X#X#X#X.X].#X#X+X#X#X#X#XoX].oXoX{.}.D.b M m m n m m n m m m m m m m m m m m m m m m m m m m m m m m m m m m m m m m n m m m m m m m m m m N m m m N m m n n n n n n n n m m n m m m n m m n m n n n m m m n m m m m N v Z.OX#X#X$X&X&X#X#X#X#X#X#X#X#X#X#X#X#X#X#X#X#X#X#X#X#X#X#X#X&X&X#X#X&X#X#X#X#X#X#X#X#X#X&X#X#X&X&X&X&X#X#X#X#X#X#X#X#X#X#X&X#X#X&X&X&X#X#X&X&X&X&X&X&X&X#X#X#X#X#X#X#X&X#X#X&X#X#X#X#X&X&X&X#X#X#X#X#X&X&X&X&X#X#XoX}.2.v N N m m m Z N N N m m N N m m m m m m m m m N m m N N C Z m m m N m m m m m m m m m N Z m N N N N N C N m N m m m m N N N N N N N m m m m m m m N m m m m N N N N m m N Z S Z A A A N M 5.H.H.H.H.G.F.F.G.F.F.F.!.F.F.F.F.F.H.H.H.H.3.F.H.H.H.Z.3.3.3.3.3.3.3.1.1.1.1.1.2.<.<.<.<.R R R T T f ;.g.g.j.j.j.j.j.j.j.j.j.j.j.j.j.j.j.j.j.x.x.j.j.j.j.j.j.j.j.j.j.j.x.j.j.j.l.l.j.j.j.j.j.j.j.j.j.j.j.j.j.j.j.j.j.j.l.j.j.j.j.j.j.x.x.x.j.j.j.j.j.j.j.j.x.x.j.b.x.j.j.j.j.j.j.j.j.j.j.j.j.j.j.j.j.j.j.j.j.j.j.j.j.j.j.j.j.j.j.j.j.j.x.c.c.j.j.j.j.j.j.j.j.x.j.j.j.j.j.j.j.j.j.j.j.j.j.j.j.b.j.j.l.x.x.j.x.x.j.j.j.j.j.j.j.j.j.j.j.j.j.j.j.j.j.j.x.j.j.j.j.j.j.j.j.j.j.l.j.j.j.k.j.j.j.j.j.l.z.z.g.t.w.t.T.).+X+X+X#X&X&X&X&X&X#X&X&X#X&X#X+X).y.8.z.d.j.j.j.j.j.j.j.j.j.j.j.j.j.j.j.j.j.j.j.j.j.j.j.j.j.j.j.j.j.j.j.j.j.j.j.j.j.j.j.j.j.j.j.j.j.j.j.j.j.j.l.j.j.j.j.j.j.j.j.j.j.c.x.j.l.j.j.j.j.j.j.j.j.j.d.d.a.a.i.u.e.0.9.6.-.i p 6 0 #.X...........................................................................................................................................................................................................................",
"X X X   X X X     X X X X   . @ , v M n n n n n n n n n n n n n n n n n n n n n n n n n n n n m n m m n M v l , @ o o X X o O o X o o X o O O o o X X X X X X o X X O o o o o O o o o o X o & O X O X X o o X X o O O O o o O o X X o o o X X O X o o X o o O o O O o o O O O O > `.].].].].].#X#X#X.X.X+X#X#X].#X.X].].].].]..X#X].#X.X].#X.X].#XoX].].#X].]..X].].].#X#X#X.X#X#X#X#X.X#X#X#X#X#X#X#XoXoX#X{.}.W v B m m m m m m m m m n m m m m m m N m m n m m m n n m m m m m m m m n m m m m m m m m m m m m N N m m m m m N m m n n n m m n n n m m m m m m n m m m m m m m m A N m n m m M K K.OX#X#X#X$X&X#X#X#X#X#X#X#X#X#X#X#X#X#X#X#X.X#X#X#X#X#X#X#X#X#X#X#X#X&X#X#X#X#X#X#X#X#X#X#X#X#X&X&X&X&X#X&X&X#X#X#X#X#X#X&X&X&X#X#X&X&X&X&X#X&X&X&X&X&X#X#X#X#X#X#X#X#X#X#X#X#X#X#X#X#X#X&X&X&X&X&X&X&X&X&X&X$X#X{.(.R M N N N m N N m m m N N N N m m m m m m m m m m m m N Z m N m m m m m m m m N m N N m m m N N m N N N Z N m N m m N m m m m m m N m m N m m m m m m m m m m m m N N N m m N C C C Z A M ~ 5.H.H.H.G.G.F.H.G.H.Z.Z.H.Q.F.F.F.H.3.3.Z.Z.3.H.F.F.H.H.Z.H.3.3.3.3.3.3.4.3.2.<.,.<.<.<.R R R T T T s g w._.l.j.j.j.j.j.j.j.j.j.j.j.j.j.j.j.j.j.j.j.j.j.j.j.j.j.j.j.j.j.j.j.j.j.j.x.x.j.j.j.j.j.j.j.j.j.j.j.j.j.j.j.j.j.j.j.j.j.j.j.j.c.x.j.j.j.j.j.j.x.x.j.j.b.b.j.j.j.j.j.j.j.j.j.j.j.j.j.j.j.j.j.j.j.j.j.j.j.j.j.j.j.j.j.j.j.j.j.j.x.x.j.j.j.j.j.j.j.j.j.j.j.j.j.j.j.j.j.j.j.c.j.j.j.j.j.j.b.j.x.j.x.c.j.j.j.j.j.j.j.j.j.j.j.j.j.j.x.j.j.j.j.j.j.j.j.j.d.j.d.j.x.l.j.j.j.j.j.l.j.j.j.l.l.l.g.r.w.t.T.).XX+X+X#X#X&X&X&X&X&X&X&X&X&X&X#X#X#X#XXXB.;.g.c.j.j.j.j.j.j.j.j.j.j.j.j.j.j.j.j.j.j.j.j.j.j.j.j.j.j.j.j.j.j.j.j.j.j.j.j.j.j.j.j.j.j.j.j.j.j.j.j.j.j.j.j.j.j.j.j.j.j.j.j.j.j.x.j.j.j.j.j.j.j.j.j.d.d.a.a.a.a.u.e.e.0.9.6.-.i p 6 ] $.o...........................................................................................................................................................................................................................",
"X X X X X X X       X X     . @ 2 v n n n n n n n n n n n n n n z n n n n n n n n n n n n n n n n m n n M v 2 # . + X X X o O o X o O o O : O X X o o X X o o o o X O O o o o O o o o o X o O O O o O o X X X X o X o O O o O o o X o o o o X o X o o o o O O o O O & O o O & O g ].].].]..X].].#X#X#X.X#X.X#X.X#X.X.X.X].#X#X#X].#X#X#X].+X#X.X#X#X#X]..X#X].].#X.X]..X#X#X#X#X].#X#X.X.X#X#X#X+X#X#X#XoXoX{.K.U c N m N m m m m m n n n n n m m m m m m m N n n n n m n n m m m m m n m A N m m m m m m m m m m m m m m m m m m m m m m m m n n n m m m m m m m m n m N m m m m m m m m n n M c U }.OX#X#X#X#X&X#X#X&X&X#X#X#X#X#X#X#X#X#X#X#X#X#X#X#X#X#X#X#X#X#X#X#X#X#X&X#X#X&X#X&X#X#X#X#X#X#X#X#X&X#X#X&X&X#X#X#X&X&X#X#X&X#X&X&X$X&X#X#X&X#X#X&X&X&X&X&X#X#X#X#X#X#X&X&X#X#X#X&X&X&X&X&X#X&X&X&X*X&X&X#X$X#X#X{.K.U M m N N m N m m N N N N m m m N N m m N N m m m m N N m N m m N m m m m m m N N N m m m N N m m m m N m m C C C Z Z Z N m m m N N m N Z A N N m m m N m m m m m m m N m m m m C N N N M ! 5.5.H.H.H.F.F.H.H.H.H.H.H.H.F.F.F.H.H.H.Z.H.H.H.Z.F.H.H.3.3.3.3.3.3.3.3.1.1.2.<.<.<.<.R <.R T T T e e g ;.T.z.l.j.j.j.j.j.j.j.j.j.j.j.j.j.j.j.j.j.j.j.j.j.j.j.j.j.j.j.j.j.j.j.j.j.j.j.j.j.j.j.j.j.j.j.j.j.j.j.j.j.j.j.j.j.j.j.j.j.j.j.j.j.j.j.j.j.j.j.j.j.j.j.j.j.j.j.j.j.j.j.j.j.x.j.j.j.j.j.j.j.j.j.j.j.j.j.l.l.j.j.j.j.j.j.j.j.j.j.j.j.j.j.j.j.j.j.j.j.j.j.j.j.j.j.x.x.j.j.j.j.j.j.j.j.j.j.j.j.j.j.j.j.j.j.j.x.x.x.l.j.j.j.j.j.j.j.j.j.j.j.j.j.j.j.j.j.d.j.j.d.j.j.b.b.j.j.l.j.l.z.l.g.r.q.w.B.).).XX+X+X+X#X&X&X$X&X&X&X&X&X-X&X&X*X*X$X#X#XXX).y.q.v.l.l.j.j.j.j.j.j.j.j.j.j.j.j.j.j.j.j.j.j.j.j.l.j.j.j.j.j.j.j.j.j.j.j.j.j.j.j.j.j.j.j.j.j.j.j.j.j.j.j.j.j.j.j.j.j.j.j.j.j.j.j.j.j.j.j.j.j.j.j.j.d.j.j.d.d.a.a.i.e.e.9.9.8.=.i p 6 [ $.X...........................................................................................................................................................................................................................",
"X X X X X X X X X X         . , l c n z n n n n n n n n n n n n z n n n n n n n n n n n n n n n z n n n n b < @ . o o o X o o O o X X O o X o o o O O o O O o X o o o O O X o o O O O O o X o o o o X o o o o o X X X o o X X o o o o X O o o o o X X o o o o O o o O O O O & : C.].].].]..X#X.X].#X#X.X#X#X|.]..X].].].].].#X#X#X].].#X#X.X#X#X.X.X#X#X.X#X#X]..X#X#X].].#X#X#X#X#X#X.X].#X#X#X#X#X#X#X#X{.}.K.K M m m m m m m n n m m n m m m m m m m m m m m m m m n n n n n n n n m n m A S m m m m m m m n n m m m m m m m m N m m m m m m m m m m m m m m m m m m N N N m m m m m n n n n v 2.OXoX#X#X#X#X&X#X#X#X#X#X&X&X#X#X#X#X#X#X#X#X#X.X].#X#X.X#X#X#X#X#X#X#X&X#X#X#X#X&X#X&X#X#X.X.X#X#X.X#X#X#X#X&X#X#X#X#X#X&X&X#X#X#X#X#X#X#X#X&X&X#X#X#X#X&X&X&X&X#X#X#X#X#X&X#X&X&X&X$X&X#X#X#X#X&X&X&X*X&X&X#X#XoX}.m.v B N m m m m m m Z A N N N N N N N m m m m m m m m m m m m m C Z Z m m m m m m m N N N m m N m m m m N m m m m N Z Z Z Z Z Z m m N m N N N Z N N N N m N N N m m N m N Z Z m m C N N m M ! 5.5.5.H.H.F.H.H.H.F.F.F.H.Z.H.F.F.F.F.F.H.H.Z.H.F.H.3.3.3.3.3.3.4.3.1.2.2.2.2.2.<.R <.R T T T T e e e s g h._.d.j.j.j.j.j.j.j.j.j.j.j.j.j.j.j.j.j.j.j.j.j.j.j.j.j.j.j.j.j.j.j.j.j.j.j.j.j.j.j.j.j.j.j.j.j.j.j.j.j.j.j.j.j.j.j.j.j.j.j.j.x.x.j.j.j.j.j.j.j.j.b.x.j.j.j.x.j.j.j.j.j.j.j.j.d.j.j.j.j.j.j.j.l.j.j.j.j.j.j.j.j.j.x.j.j.j.j.j.j.j.j.j.j.j.j.j.j.j.j.j.j.j.j.c.c.j.j.j.j.x.j.j.j.j.j.j.j.j.j.j.j.j.j.j.j.j.j.j.j.j.j.j.j.j.j.j.j.j.j.j.j.c.j.j.j.j.j.d.d.j.j.j.j.j.l.l.v.z.g.w.w.t.T.).XX+X+X+X#X&X&X&X&X&X&X&X&X&X-X&X&X&X&X*X=X*X&X#X+XXXC.=.g.l.x.j.l.l.j.j.k.j.j.j.j.x.x.j.j.j.j.j.j.j.j.j.j.j.j.j.j.j.j.j.j.j.j.j.j.j.j.j.j.j.j.j.j.l.j.j.l.j.x.j.j.x.c.j.l.j.j.j.j.j.j.j.j.j.j.j.j.j.j.j.d.j.j.d.a.a.i.e.e.e.9.8.6.=.i y 9 | @.X...........................................................................................................................................................................................................................",
"X X X X X X X X X X       . @ , b c n n n n n n n n n n n n n n n n n n n n n n n n n n n n n n n n n n c l , @ . X X o o X X o o o X o O O o o O & & o O & O o o O o o o o o o o O O o o o X X X o o O & O o X X X X X X o o o o o O o o X X O O o o o o o o o o o o o o O = r ~.'.]..X.X]..X#X].oX#X#X].].].].].].]..X#X].]..X#X#X]..X#X#X#X#X#XoXoX#X].].#X.X].#X#X#X]..X#X#X#X#X#X#X.X.XoX#X#X#X#X#X#X{.}.2.b M m m m m m m n n m m m m m m m m m m m m m m m m m m m n n n n n n n m n m N m m N N m m m m m m m m m m m m m Z N m m m m m m m m m m m m m N m n m m m m m m m N m n n M c b K.OXoX#X#X#X#X#X#X#X#X#X#X#X#X#X#X#X#X#X#X#X#X#X#X.X#X#X.X#X#X&X&X&X#X#X#X#X#X#X#X#X#X&X&X#X#X#X#X#X#X.X#X&X#X#X&X#X#X#X#X#X&X&X#X#X&X#X#X#X#X#X&X&X&X&X#X#X&X&X&X&X&X#X#X#X&X&X&X&X&X&X&X&X#X#X#X#X#X&X&X&X&X#XoX{.K.R v N A N m N m m N m m m m N Z Z m N m m m m m N N m m m m m m Z S m m m m m m m m N m Z Z m m m N m m N Z N N N N m Z m N N Z Z m N Z N N m m m N N m m m m N m m N m m Z Z N C C C N n k M U 2.5.5.H.H.H.H.H.H.F.H.H.H.H.H.H.H.H.H.H.H.3.H.H.Z.3.3.Z.3.3.3.4.3.1.2.2.2.<.<.<.R R R T T T e e e e s g y._.v.j.j.j.j.j.j.j.j.j.j.j.b.j.j.j.j.j.j.j.j.j.j.j.j.j.j.j.j.j.j.j.j.j.j.j.j.j.j.j.j.j.j.j.j.j.j.j.j.j.j.j.j.j.j.j.j.j.j.j.j.j.j.j.j.j.j.j.j.j.j.j.j.j.j.j.x.c.j.j.j.j.j.j.j.j.j.j.j.j.j.j.j.j.j.j.j.j.j.j.j.j.j.j.x.j.j.j.j.j.j.j.j.j.j.j.j.j.j.j.j.j.j.j.x.l.j.j.j.j.j.j.j.j.j.j.j.j.j.j.j.j.j.j.j.j.x.j.j.j.j.j.j.j.j.j.j.j.j.j.j.x.l.j.j.j.j.d.j.j.j.j.j.l.z.z.g.r.q.w.B.).XXXX+X+X#X#X#X#X&X*X&X*X&X*X&X&X&X&X&X&X$X&X*X*X$X&X&X#XXX).;.r.z.d.j.j.l.l.x.j.j.j.j.j.j.x.j.j.j.j.j.j.j.j.j.j.j.j.j.j.j.j.j.j.j.j.j.j.l.j.x.j.j.j.j.j.j.j.j.c.x.l.j.j.l.l.j.j.j.j.j.j.j.j.l.j.j.j.j.j.l.j.j.j.d.d.a.a.a.i.e.e.e.9.8.6.i i y q &.@.X...........................................................................................................................................................................................................................",
"X X X X X X X   X X       . @ 2 v n n n n n n n m n n n n n n n n n n n n n n n n n n n n n n n n n n n c 2 # @ o O o o o X o o o O o o o o o o o X X X X O & O O O O o o X o O O o o X o O o o X X o o o O o X X o o X X o o o o X X X o o X X o o o o o O O o O O O O O O O g '.[.'.]..X.X.XoX].].].].].].].#X.X.X].].+X#X].].].].].].].].]..XoX]..X#X.X]..X].].#X.X]..X].#X#X#X#X#X#X#X.X.X.XoX#XoXoX].'.~.U v B m m m m m m n n m m m m m m m m m m m m m m m m m m N N m m n n n n n n m m m m m N A m m m m m m m m m m m m m m m n n n n m m m m m m m m m m m m m m m n m m m m n m M v U }.$XoX#X#X#X#X#X&X&X#X#X#X#X#X#X#X#X#X#X#X#X#X&X#X#X#X#X#X#X#X#X#X#X&X#X&X#X#X#X#X.X#X#X&X&X#X&X#X#X#X#X#X#X#X#X#X#X#X#X.X#X#X#X#X#X#X#X#X#X#X#X#X#X#X#X&X#X&X&X&X&X&X#X#X#X#X#X&X&X&X&X*X&X&X&X&X&X#X#X#X#X#X#X#X{.J.U L A A m m Z N N m N N m m N m N m N N m m m m m m m m m m m m m m m m m m m m m m m N m m m m m N m m m N N N m A N m m m m N C N N N N Z m m m m m m m N m m m m m m m m C m m C N N n h j j c L ! ! 5.5.H.H.H.H.H.H.H.H.H.H.H.H.H.H.Z.3.3.F.Z.Z.3.3.3.3.3.3.1.2.2.2.2.<.<.<.R R R T T P e e e e s s g T.v.j.j.j.j.j.j.j.j.j.j.j.j.j.j.j.j.j.j.x.j.j.j.j.j.j.j.j.j.j.j.j.j.j.j.j.j.j.j.j.j.j.j.j.j.j.j.j.j.j.j.j.x.c.x.j.j.j.j.j.j.j.j.j.j.j.j.j.j.j.j.j.j.j.j.j.j.c.x.j.j.j.j.j.j.j.j.j.j.j.j.j.j.j.j.j.j.x.x.j.j.j.j.j.j.j.j.j.j.j.j.j.l.j.j.j.j.j.j.j.j.j.j.j.j.j.j.j.x.j.x.x.j.j.j.j.j.j.j.j.j.j.j.j.j.j.j.j.j.j.j.j.j.j.j.j.j.j.j.j.j.x.x.j.x.j.x.l.j.j.l.z.g.t.r.w.w.B.T.).XXXX+X+X#X&X&X$X$X#X&X&X&X*X&X*X&X&X&X&X*X*X=X*X*X=X&X&X$X&X+XXXw.;.z.l.j.j.j.j.j.j.j.j.j.j.j.j.j.j.j.j.j.j.j.j.j.j.j.j.j.j.j.j.j.j.j.j.j.j.j.j.l.j.j.j.x.j.l.l.l.j.j.c.c.x.j.j.j.j.j.j.j.j.c.j.j.j.j.j.j.j.j.j.l.j.d.d.d.d.a.i.e.e.0.9.6.=.i i y 0 &.@.............................................................................................................................................................................................................................",
"X X X X X X X   X X     . . , b v n n n n n n n n n m m n n n n n n n n n n n n n n n n n n n n n n n n c < @ @ o o o X X O O o o o X X X o o o X X X X X X O O o O O o o o X O O o o O o O O o o X o o X o o o X X O o X X o o O O o X X X X o o o o o o o o o O : O o & O = C.#X'.].].].].].].].].].].].].].].+X.X.X].#X.X].].].[.].].].].].].#X.X].].#X]..X].].#X.X]..X].].].#X+X#X#X#X#X#X#XoX].#X{.].'.D.K M N m m m m m m n n m m m m n n n m m m m m m m m m m m m m m m N m N N m m m m m m n m N N N n m m n m m m m m m m m m n n m m m m m m m m m m m m m m n m m m n m m m m m M c U m.J.oX*X$X#X#X#X&X&X&X#X&X&X&X#X#X#X#X#X&X&X&X#X#X#X#X#X#X#X#X#X#X#X#X#X&X&X&X#X#X#X#X#X#X&X#X#X&X#X#X&X#X#X&X#X#X&X#X&X#XoX#X&X&X#X#X&X&X&X&X#X#X#X#X#X#X&X#X#X#X&X&X#X#X#X#X#X&X&X&X&X&X&X&X&X&X&X*X$X&X#X#X#X{.'.m.U U S N S N C Z Z N N N m N N m m N N N m m m m m m m m m m m m C Z N m m m m m m m m m m m m m m N m m m N N Z m S A N N m m N C m m m m N m m m m m m N N Z m m m m m m m Z C C C Z N m n c h h h k M L ~ ! ! 5.5.H.H.H.H.H.Z.H.H.H.Z.Z.Z.3.Z.F.Z.3.3.3.3.3.3.4.2.<.<.<.<.<.<.R R R T P P e e e e e s g w.v.l.j.x.x.j.j.j.j.j.j.j.j.c.x.j.j.j.j.j.j.j.j.j.j.j.j.j.j.j.j.j.j.j.j.j.j.j.j.j.j.j.j.j.j.j.j.j.j.j.j.j.j.j.j.j.j.x.b.j.j.j.j.j.j.j.j.j.j.j.j.j.x.j.x.x.b.j.x.x.j.j.j.j.j.j.j.j.j.j.j.j.j.j.j.j.j.l.x.j.j.j.j.j.j.j.j.j.j.j.j.j.x.x.j.x.j.j.j.j.j.j.j.j.j.j.j.j.j.j.j.j.j.j.j.j.j.j.j.j.j.j.j.j.j.j.j.x.j.j.j.j.j.j.j.j.j.j.j.j.j.j.j.j.j.l.l.x.l.l.g.r.r.w.t.T.).XXXXXX+X#X#X#X&X&X&X&X*X*X$X&X$X&X&X&X&X&X&X&X&X$X&X*X*X&X&X&X&X&X+XXXT.;.g.v.l.j.j.j.j.j.l.j.j.j.j.j.j.j.j.j.j.j.j.j.j.j.j.j.j.j.j.j.j.j.j.j.j.j.l.x.l.c.j.j.x.x.j.j.j.j.j.j.l.j.j.j.j.j.j.j.j.j.j.j.j.j.j.j.x.l.j.j.d.d.d.d.d.d.a.a.e.e.0.9.6.=.i p 6 / &.X.............................................................................................................................................................................................................................",
"X X X X X X X           . @ , b c n n n n n n n n n n n n n n n n n n m n n n n n n n n n n n n n n n c l , # @ o X X X X o O O o o o o o o X X X X o O o o X X X X o o O O X o O O O O o o O O o X X X o o o o o X X o o o X o O & O o o X X o o o X o o o O O O & & O O o > ~.].].].oXoX].].].].].].]..X].#X.X].].#X.X].].+X].].[.].].].].].]..X#X#X#X]..X.X#X#X.X.X.X.X].[.]..X#X#X#X#X#X#X#X#X#X].oX'.(.W b M m m m m m m m m m m m m m m m n n m n m n m m m m m m m m m m m n m N N m m m m m m m m m N m n n m n m m N N m m m n n m m m m m m n n m n m m m m m m m m m m m n n m m B b , # > a n.~.].$X*X#X#X&X#X#X#X$X&X#X#X#X#X#X&X$X#X#X#X#X#X#X#X#X#X#X#X#X&X#X&X&X#X&X#X#X&X#X#X#X#X#X&X#X#X&X#X#X#X&X#X&X&X&X#X#X#X#X#X#X#X#X$X&X&X#X#X&X#X#X#X#X&X#X&X#X#X#X#X#X#X&X&X&X&X&X&X&X#X&X&X#X&X&X&X&X#X].`.>.I K L L ~ ~ N S Z N Z m m m m m m Z N m m m m m N A Z m m m m m A A C Z N m m m m N m m N m N m m m m m m m m m m m Z N N m m N N N m m m m m m m m m Z Z N m m m m N m m m C N C C N N m m N m m n n n n M B L ~ ~ ! 5.5.H.H.H.H.Z.H.F.F.H.Z.3.Z.Z.Z.3.3.3.1.3.1.2.2.2.<.<.<.R <.R R T P e e e e e e r a =.g.v.j.j.j.j.j.j.j.x.j.j.j.x.x.j.j.j.j.j.j.j.j.j.j.j.j.j.j.j.j.j.j.j.j.j.j.j.j.j.j.j.j.j.j.j.j.j.j.j.j.j.j.j.j.j.j.j.j.j.j.j.j.j.j.j.j.j.x.x.j.j.x.j.j.j.j.j.j.j.j.j.j.j.j.j.j.j.j.j.j.j.j.j.j.d.j.j.j.j.j.j.j.j.j.j.j.x.j.j.j.j.j.j.j.j.j.j.j.j.j.c.j.j.j.j.j.j.j.j.j.j.x.l.j.j.j.j.j.j.j.j.j.j.l.j.x.j.j.j.j.j.d.j.j.j.j.j.j.x.j.j.l.c.x.v.z.g.g.r.w.t.T.).XXXX+X+X#X#X$X&X&X&X$X*X&X&X&X*X*X&X&X*X*X&X&X&X&X&X&X$X&X*X&X&X&X&X#X#X#X+X).y.q.l.d.j.j.j.j.j.j.j.j.j.j.j.j.j.x.l.x.j.j.j.j.j.j.j.j.j.j.l.j.j.j.j.j.j.l.l.v._.v.l.j.j.j.j.j.j.j.j.j.j.j.j.j.j.j.j.j.j.j.j.j.j.j.j.j.j.j.d.d.d.d.d.a.d.a.i.e.e.9.7.6.=.i p 6 [ @.X.............................................................................................................................................................................................................................",
"X X X X X X             . @ < v c n n n n n n n n n n n n n n n n n n n n n z n n n n n n n n n n n c v 2 # # # o X X X X X o o X o O O o o X X X o o o o o o X X X X X X o o o O o o o O o & O X o X o o O X X X o X X o X X o o o o o o X X X o o o o O o O O & : & O O O a `.].].oX.X.X.X].].].].].].[.].].#X.X#X.X#X#X.X#X#X#X#X].].].].].].].].#X.X#X#X#X#X#X#X#X#X].]..X.X#X]..X#X#X#X#X#X#X#X#X{.}.K.U v M m m m n n m n n m m m m m m m m m n n m m n m m m m m m Z N m m m m m m m Z S A m m m m m m m n n m n m m m N m n n n n m m m m m m n m m n n n m m N Z Z N N N m n m m N M < # # O O O > a f C.'.#X#X#X#X#X#X#X#X#X&X#X#X#X#X#X#X#X#X$X#X#X#X#X#X#X#X&X#X#X&X&X#X#X#X#X&X&X&X&X#X#X#X#X#X#X#X&X#X#X&X&X&X&X&X#X#X#X#X#X&X#X#X$X&X#X#X#X#X#X&X&X&X&X&X&X#XoX#X#X#X#X&X&X&X&X&X&X&X&X&X&X&X&X&X#X].`.N.E I I K K U U ~ ~ A N N m Z Z Z Z Z m m m m m m m Z N Z N m m N Z C Z A N m m m m m m m m m m m m m m m m N m Z m m m N N m m m N Z A N m m m m m N N N Z Z m m m m m m m m Z Z N C Z N N Z N m N N m m m m x x m B B L ! ! 5.5.H.H.H.H.H.H.Z.3.3.3.3.3.3.3.1.1.2.<.2.<.<.<.R <.R R R T P e e e e e r r y u r.d.d.j.j.j.j.j.j.j.j.j.j.j.j.j.j.j.j.j.j.j.j.j.j.j.j.j.j.j.j.j.j.d.j.j.j.j.j.j.j.j.j.j.j.j.j.j.j.j.j.j.j.j.j.j.j.j.j.j.j.j.j.j.j.j.j.j.x.x.j.j.j.j.j.j.j.x.j.j.j.j.j.j.j.j.j.j.j.j.j.j.j.j.j.j.j.j.j.j.j.j.j.j.j.j.j.x.j.j.j.j.j.j.j.j.j.j.j.j.x.x.j.j.j.j.j.j.j.x.j.j.j.j.j.j.j.j.j.j.j.j.x.j.j.j.j.j.j.j.j.j.j.j.j.j.j.j.l.l.j.l.v._.z.g.t.t.t.T.).XXXX+X.X+X#X&X&X&X&X&X&X&X$X&X&X&X&X&X&X&X&X&X*X=X*X&X&X&X&X&X$X&X&X*X=X*X&X&X&X#XXXT.;.z.l.j.j.j.j.j.j.j.j.j.j.j.j.j.j.j.j.j.j.j.j.l.l.j.j.j.j.j.j.j.j.l.l.z.z.g.9.9.v.v.l.j.j.j.j.j.j.j.j.j.j.j.j.j.j.j.j.j.j.j.j.j.j.j.j.j.j.d.d.d.d.d.d.d.a.i.e.e.9.7.6.=.i y 9 | @.X.............................................................................................................................................................................................................................",
"X X X X       X X       . # 4 c n n n n n n n n n m n n m n n n n n n n n m n n n n n n n n n n n n c l , @ . . o o X X o o o o o o o o o o o o X X X X o X X o o X o o X o O O O o o o o o : > O X o O O o O o X o o X X o o o o O O o o o X o X X o o o O O O O & & O O O n.'.].#XoX#X.X.X#X].].].].].].].].].]..X#X].]..X#X#X#X].].].].#X].].].].].].#X#X#X#X#X#X#X#X.X].].].#X#X.X#X#X.X]..X#X.XoX{.}.L.K M N m m n n n m m m m n m m n n n n m m m m n n m m m m n m m N m m m m m m m m Z A N m m m m m m m n n n m m m m m n n n n m m m n m m n m m m m n n m m m m N m N Z N m m B v , # # O & O O O O = > f C.V.[.#X#X#XoX#X#X&X&X&X&X&X#X#X#X#X&X&X#X#X&X&X#X&X#X#X#X&X&X#X#X#X&X&X#X#X#X#X#X#X#X#X#X#X&X#X#X#X&X&X&X&X&X&X#X&X$X#X#X#X#X&X&X&X&X&X#X#X&X&X#X&X&X#X#X#X#X&X#X&X#X#X#X#X#X&X*X&X&X&X&X&X#X'.`.V.N.m.E T I K K L U U U B ~ A A Z Z Z C m m m m m m m m m N m m m N Z m C C N m m m m m m m Z N N N N C C N Z Z N m m m m m m m N N A Z N m m m m m N N m m m m m m m m m m C S Z m N N m N N N m N N m m m N N m N m N B B L L ! ! 5.5.H.H.H.H.5.5.3.3.3.1.1.1.2.2.2.2.<.<.<.R T T T T P e e e e r r w t =.r.d.j.j.j.j.j.j.j.j.j.j.j.j.j.j.j.j.j.j.j.j.j.j.j.j.j.j.j.j.j.j.j.j.j.j.j.j.j.j.j.j.j.j.j.j.j.j.j.j.j.x.x.j.j.j.j.j.j.x.x.j.j.j.j.j.j.j.j.j.j.j.j.j.x.j.j.j.b.x.j.j.j.j.j.j.j.j.l.j.j.j.j.j.j.j.j.j.j.j.j.j.l.j.j.j.j.j.j.j.j.j.j.j.j.j.j.j.j.j.j.j.j.j.j.j.j.j.j.j.j.j.j.j.j.j.j.j.j.j.j.j.j.j.j.j.j.j.j.j.j.j.j.j.j.j.j.j.l.c.l.v.g.t.w.w.B.).XXXX+X+X+X#X&X&X&X&X&X&X*X&X&X&X&X&X&X&X&X&X&X&X=X*X*X=X*X=X&X&X&X&X#X#X&X*X*X*X&X-X&X#X+X).y.r.v.j.j.j.j.j.j.j.j.j.j.j.j.j.j.j.j.j.j.j.j.l.j.j.b.j.j.k.d.d.z.g.g.r.q.q.8.i r._.v.j.j.j.j.j.j.j.j.j.j.j.j.j.j.x.c.x.j.j.j.j.j.j.j.j.j.j.j.d.d.d.d.a.i.e.e.0.9.8.6.=.i y 9  .@.X.............................................................................................................................................................................................................................",
"X X X X X X             @ , v n n n n n z z n n n n n n n n n n n n n n n n n n n n n n n n n n n n c 4 , @ . o o X X X o o o o X X o o X O o o X X X X o o o X O O o o o o o X o O o O O o X O O o o O O o X O O o o X X o X o O O O O o o o X X X X o X o O O O O O O O > V.[.'..X.X#X#X#X#X.X].#X#X].]..X#X#X.X.X#X.X].].]..X.X{.]..X.X#X#X#X].].].].]..X].]..X#X#X.X].].].].].#X#X#X#X#X#X#X+XoX].'.}.2.b M m m m n n n m n n m m m m m m m m m m m m m m m m m N m m m m m m m m m m N N m N m m N m m m m m m m m m m m m m m m N m m m m m m m n n n m m m m m m m m m N m m Z A N M 2 , # O & O O O O O O O o o : > g C.`.].#X#X#X#X#X#X&X&X&X&X#X#X&X#X#X&X&X#X&X&X#X#X#X&X&X#X#X#X&X#X#X#X#X.X#X#X.XoX#X#X#X#X#X#X#X#X&X&X&X#X#X&X#X#X#X#X&X#X#X#X#X&X&X#X&X&X&X&X&X#X#X#X#X#X#X&X#X#X#X#X#X&X&X&X&X&X&X#X#X].[.'.`.V.N.m.E T I I I K U L B L S S Z m m N m m m N N N m m m m m m m m m C m N A m N N m m A N N m m N m m Z A m m m m m N N m m N N m m m m m m m m m m m m m m N Z N m m m m m N N N N m N Z m m m N m m N C m N N m N N m m B M L ~ ! ! 5.5.5.5.5.5.5.3.3.1.1.2.2.2.<.<.<.R R R T P P e e r r r u i q.i.f.d.j.j.l.l.j.j.j.j.j.j.j.j.j.j.j.j.j.j.j.j.j.j.j.j.j.j.j.j.j.j.j.j.j.j.j.j.j.j.j.j.j.j.j.j.j.j.j.j.j.j.j.j.j.j.j.j.j.j.j.j.j.j.j.j.j.j.j.j.j.j.j.j.j.j.j.j.j.j.j.j.j.j.j.j.j.j.j.j.j.j.j.j.j.j.j.j.j.j.l.j.j.j.j.j.j.j.j.j.j.j.j.j.j.j.j.j.j.j.j.j.j.j.j.j.j.j.j.j.j.j.j.j.l.j.j.j.j.j.j.j.j.d.j.j.j.j.j.j.j.j.j.d.j.j.j.l.z.z.r.r.w.B.).).XX+X#X&X-X&X&X&X&X&X&X&X&X&X&X&X&X&X*X*X*X*X=X=X*X*X&X&X&X=X=X*X&X&X&X&X&X&X&X*X=X*X=X=X&X#X+XXXB.8.z.l.j.j.j.l.j.j.j.j.j.j.j.j.j.l.j.j.j.j.l.l.x.j.l.j.l.l.g.g.r.w.w.B.T.).T.8.8.z.l.l.j.b.j.j.j.j.j.j.j.x.c.x.x.j.j.j.j.j.j.j.j.j.j.d.j.d.d.d.d.d.i.i.u.e.e.9.7.6.=.=.i 6 0 &.X...............................................................................................................................................................................................................................",
"X X X X   X           . @ 2 v n n n n n n n n n n V n n n n n n n n n n n n n n n n n n n n n z z c b 2 # . X o X X X X o o X X o X o O o o o X X X X o X o X o o O o o o O o X o o X o o O & O o O X o O O O o o o X o X X X o o o O O X o o X X X X X o O O O O O O & O g '.].'.]..X#X#X#X#X#X].].+X].].].]..X.X].]..X#X#X].].].].#X#X#X.X.X+X#X.X]..X#X.X]..X.X].]..X.X].].].].].].].].].#X#X#X].{.'.K.R v N m m n n n n n m n n m m m m m n m m m m m m m m m m m m m m n m m m m m m m m m m m m m m m m m n m m m m m m m m m m m N m m m m n n n n n m m m m m m N m N Z Z N C C S L < # # & O O O O & O & O O O O X o O : a f V.'.#X#X#X#X#X#X#X#X#X#X#X#X#X#X&X&X&X&X#X#X#X#X#X&X#X#X#X&X&X#X#X.XoX.X#X#X#X#X#X#X#X#X#X&X#X&X&X#X&X&X&X&X#X&X&X&X#X#X#X&X&X&X&X&X&X#X&X#X#X#X#X#X#X&X&X#X#X#X#X#X&X&X&X&X#X#XoX.XoX].'.'.`.J.V.N.m.W E I I K v B U U A A A N m m N m m m Z C N m m m m m m m m N m N N N N N m m m m m m A A Z N N m m m m N N N Z N m m N N m m m m m m m m m m N N m m m m m m m m m m N N N N N m N N m C C N C N N N N C N m m m n M L L ~ ! ! 5.5.5.2.2.2.2.2.2.<.<.<.<.<.<.T T T s s a a g ;.w.h.g.f.d.d.j.j.j.j.j.j.j.j.j.j.j.x.j.j.j.j.j.j.d.j.j.j.j.j.j.j.j.j.j.j.j.j.j.j.x.j.j.j.j.j.j.j.j.j.j.j.j.j.j.j.j.j.j.j.j.j.j.j.j.j.j.j.j.j.j.j.j.j.j.j.j.j.j.j.j.j.j.j.j.j.d.j.j.j.j.j.d.j.d.j.j.j.j.j.j.j.j.j.l.j.j.j.j.j.j.j.j.j.j.j.j.j.j.j.j.j.j.j.j.j.j.j.j.j.j.j.j.j.j.j.j.j.j.j.j.j.j.j.j.j.j.l.j.j.d.d.j.j.j.j.d.d.k.d.g.r.r.w.t.T.).XXXX+X+X#X&X&X=X*X&X&X&X&X$X$X#X&X&X&X&X*X=X=X*X&X&X*X*X=X&X&X&X&X*X=X=X&X&X&X&X&X&X=X=X=X=X=X&X&X#XXX).8.t.v.j.j.j.j.j.j.j.j.j.j.j.j.j.l.l.j.j.j.c.l.l.c.z.g.g.r.q.w.B.).).XXXXXX).B.;.g.l.j.x.j.j.j.j.j.j.x.j.j.j.j.j.j.j.j.j.j.j.j.j.j.j.j.j.j.d.d.d.a.i.u.e.e.0.9.9.6.=.i p 6 / &.X...........................................................................................................................................................................o...................................................",
"X X X     X           . , b n n n n n n n n n n n n n n n n n n n n n n n n n n n n n n n n z n n c b , # O o o X X o o o X X o o o X o O X o o o X X X X X o O o X o O o O O X X X X o X o O O o O O O o O O o X o o X X X X o O o o o o o o o X o o X o o O O O O O O = n..X].].].#X.XoX#X.X.X].].]..X].].].].].#X.X].]..X.X].].].]..X#X.X#X#X#X#X#X#X.X#X#X.X].].].#X].].#X].].].].].].].]..X+XoX].'.L.b M m m n n n n n n n m m n n m n n n m m m m m m n m n m m m m m n m m n n m m m m m m m m m m m m m m n n m n m m m m m m m m m m m m m m n m n m m m m N m m m m m N N C m N v , # # & O & O O & O O o o o o O O O O o o = > f C.`.{.#X#X#XoX#X#X#X#X#X#X#X&X&X&X#X#X#X#X#X#X&X&X#X#X&X#X#X#X#X#X#X#X#X#X#X#X#X#X#X&X#X#X#X#X&X&X&X&X#X&X#X#X&X#X#X.X#X#X&X&X&X#X&X&X#X#X&X&X#X#X&X&X#X#X#X#X#X#X#X&X&X&X#X#X#X#X#XoXoX].'.`.`.J.J.V.m.,.E I I b L U U L L N N m m m m Z C m m m m m m m N m m N N N N m N m m m m m m A Z N Z m m m m m m m m m m m m Z Z N m m n m m m m m m m m m N N N N m m m m m N N N m N m m m m Z C m N N Z N Z m m m N m m n n n M B L ~ ! ! 2.2.2.2.2.2.2.<.<.<.T T s s g :.:.w.h.i.i.f.d.d.d.j.j.j.j.j.j.j.j.j.j.j.j.j.j.j.j.j.j.j.j.j.j.j.j.j.j.j.j.j.j.j.j.j.j.j.b.j.j.j.j.j.j.j.j.j.j.j.j.j.j.j.j.j.j.j.j.j.j.j.j.j.j.l.l.j.l.j.j.x.j.j.j.j.j.j.j.j.j.j.j.j.j.j.j.j.j.j.j.j.j.j.j.j.j.j.j.x.l.l.j.j.j.l.j.j.j.j.j.j.j.j.j.j.j.j.j.x.j.j.j.j.j.j.j.j.j.j.j.j.j.j.j.j.j.j.j.j.j.j.j.j.j.j.j.j.j.d.j.j.j.l.l.l.i.r.q.w.B.).).XX+X+X#X#X#X#X&X&X&X*X*X&X-X-X&X&X&X*X=X*X*X*X=X*X&X*X&X#X&X&X&X&X&X&X*X=X=X*X&X&X*X*X*X*X=X=X=X*X&X#X#X+X).w.8.z.l.j.j.j.j.j.j.j.j.j.j.j.j.x.x.l.l.l.l.v.z.g.r.w.w.B.).).XXXX+X+X+X+XXX).y.q.z.l.j.j.j.j.j.j.j.j.j.j.j.j.j.j.j.j.j.j.j.j.j.j.j.j.j.j.j.d.d.d.i.u.e.e.e.9.8.6.=.i p 6 ] $.X...............................................................................................................................................................................................................................",
"X X X   X X   X       . , v M n n n n n n n n z n n n n n n n n z n n n z z n n n n n n n n n n n c l , @ o X o o X o X o X X X o O o o X o o X X o o X o o o X o o o o o o o X o X X X X o o o O X o O O o O : O X O X o o X o o X X o o o o o X o O o o o o O O O O O : V..X.X].].#X.X]..X]..X].].].#X#X].]..X].#X#X#X].].].].].].].].].].].#X#X#X#X#X#X.X.X#X#X].].#X#X]..X].].].].].#X#X.X].].].'.(.2.b M N m n n m n n m m n m n n n m m m m m m n n m m m n n n m m n m m m m m m n n n m m m m m m n n m m m m m m m m m m m m m m m m m N m m m n n m m m m m m m N m N N m m N B l , # O O O O & & & & O O O O o O O O o O O O O O & > a >.V.'.oX$X#X#XoX#X#X#X#X#X&X#X#X#X#X#X#X#X#X&X&X#X#X#X#X#X#X#X#X#X&X#X#X#X#X#X#X#X#X#X#X#X#X&X&X#X#X#X#X#X#X&X#X#X#X#X#X&X&X&X&X&X#X#X&X&X#X#X&X$X&X&X&X#X#X#X#X&X&X$X#X#X#X#X#X#X#XoXoX].].'.'.`.~.J.m.m.E T I K K L L L B B N N m N N m m m m m m N m m m m m m m m m m m m m m m m N Z N m m m m m Z N N C m N N m m m m m m m m m m m m m m m m m m m m m m m m m m m m m m m m N m m m m m m N N m m m m m m m N n n z n M L ! 2.2.2.<.<.<.<.<.>.>.:.:.:.w.h.h.g.g.f.d.d.d.j.j.j.j.j.j.b.x.x.x.j.j.j.j.j.j.j.j.j.j.j.j.j.j.j.j.j.j.j.j.j.j.j.j.j.j.j.j.j.j.j.j.j.j.x.j.j.j.j.j.j.j.j.j.j.j.j.j.j.j.j.j.l.l.j.x.j.j.l.x.l.j.j.j.j.j.j.j.j.j.j.j.j.j.j.j.j.j.j.j.j.j.j.j.j.j.l.l.j.j.j.j.j.j.j.j.j.j.j.j.j.j.j.j.j.j.j.j.j.l.j.j.j.j.j.j.j.j.j.j.j.j.j.j.j.j.j.j.j.j.j.j.j.j.j.j.j.d.j.k.l.l.g.r.q.q.w.T.).XXXX+X+X#X#X#X#X$X&X&X*X=X*X*X=X=X&X*X*X*X*X=X*X*X*X&X&X&X$X&X&X*X*X*X&X*X*X*X*X*X*X*X*X&X*X*X*X&X*X*X*X&X&X#X#XXXT.8.g.l.j.j.j.j.j.j.j.j.j.j.j.j.l.j.l.l.z.z.t.t.w.B.).).XXXX+X+X+X#X#X#X&X+XXXB.;.z.z.l.j.j.j.j.j.j.j.j.j.j.j.j.j.l.j.j.j.j.j.j.c.l.j.j.j.j.k.d.d.a.i.e.e.0.9.8.6.=.i y 9 | @.X.O.............................................................................................................................................................................................................................",
"X X X X X X         . @ 2 v n n n n n n n n n n n n n n n n n z n n z n n n n n n n n n n n n n n c 2 , # O o X o o o X X X X X X o o o X X X o o o X X o O O o o o X o o o o O o X o o o o O O o o o X O O O & O X o X o X o o o o o o o o X X X X o o o o o O O O O O a [.]..X.X]..XoX.X.X.X.X.X#X#X].#X#X.X].].].].#X#X].].].].].].+X].].].].#X.X#X#X#X#X.X+X#X.X]..X]..X#X].]..X].].].#X#X.X].[.'.K.R v M n m m m m m n m m m n n m n n m n n m m m n m m m n m m n n n n m m m m m m n n n m m n n m n n m m m m m m m m m m n m m n m m m A m m m m m m m m m m m m m N m Z N N m M 2 # # o o O o O O : & O O O O o O o o o o O O O & O O O = : > f n.V.oX#XoX#X#X#X#X#X#X&X&X#X#X&X#X#X#X&X&X&X#X#X#X#X#X#X#X&X&X#X#X#X#X#X&X#X#X#X#X#X&X&X&X&X#X&X&X&X#X#X&X&X&X#X#X#X&X&X&X#X#X#X&X&X#X&X&X&X&X&X&X&X#X#X#X#X#X#X#X#X#X#X#X#X#X#X#X#X.X.X.X].'.[.~.J.N.m.E T I I K b v L L L N N m m m m m m m m m m m m N m m m m m m m m m m N N m m m m m m N N A A N m m m m m m m m m m N N N m m m m m m m m N m m m m m m Z m m N Z Z m m m m m m m m m m m N N N m m m n n n n k l ! 2.2.<.<.,.<.>.>.>.>.C.h.g.g.g.g.g.d.j.j.b.x.j.j.j.j.j.j.b.b.j.j.j.j.j.j.j.j.j.j.j.j.j.j.j.j.j.j.d.j.j.j.j.j.j.j.j.j.x.x.j.j.j.j.j.j.j.j.j.j.j.j.j.j.j.j.j.j.j.j.x.j.j.j.j.j.j.x.j.j.j.j.j.j.j.j.j.j.j.j.j.j.j.j.j.j.j.j.j.j.j.j.j.j.j.j.j.j.j.j.j.j.j.j.j.x.x.j.j.j.j.j.j.j.d.j.j.j.j.j.j.j.j.j.j.j.d.j.j.j.j.j.j.j.j.j.j.j.j.j.x.j.j.j.j.j.j.l.x.c.v.z.r.q.q.t.T.).).XXXX.X+X+X#X#X#X#X$X&X&X&X*X&X*X&X*X=X*X*X*X$X*X$X*X*X&X&X&X&X&X&X*X*X=X*X&X&X&X&X*X=X=X=X*X&X&X&X&X&X&X&X&X&X*X#X#XXX).y.q.l.k.j.j.j.j.j.j.j.j.j.l.l.v.v.z.g.t.w.t.T.).XX+X+X#X#X#X#X#X$X&X&X&X#XXX).8.w.z.k.j.j.j.j.j.j.j.j.d.j.j.j.j.j.j.j.j.x.j.j.j.j.j.j.j.j.j.d.a.a.u.e.e.0.9.6.6.=.i y q &.@.+.O.............................................................................................................................................................................................................................",
"X X X   X X       . . # b M n n n n n n n n n n n n n n n n n n n n n n n n n n n n n n n n n n c l < , # o + o o o o o o o o o o o o O o X X o o o X X X X o o X o o o o o o o O O o X X X X o o o O o o o o o O o o o O X o O o o o o o O O O o o o o o o O O O O O O n..X].]..X.X.X]..X.X.X.X#X#X#X#X.X#X#X#X#X.X]..X.X#X+X].]..X].]..X].].[.]..X]..X].#X#X#X#X#X#X.X.X#X.X#X#X#X.X.X]..X#X.X].{.'.K.I M m n n m m m m m m m m m m m n m n n n n n n n m m m n m m n n n n m m m m m m m m m n n n n n n m m m m m m n m m m n n n m m n m m m m m m m m m m m m m N N m m m m m N B v , # # O O O O O O O O O O & O O O O O O O O O O O O O & & & O O = > a f V.[.#X&X#X#X]..X#X#X#X#X#X#X#X#X#X#X#X#X#X#X#X#X#X#X#X#X#X#X#X#X&X&X#X#X#X#X#X#X&X&X#X#X#X&X#X&X&X#X&X&X#X#X#X#X#X&X#X#X#X#X#X#X&X&X#X&X&X&X&X#X#X#X#X#X#X#X#X#X#X&X#X#X#X#X#XoXoXoXoX].].'.`.~.J.V.m.>.E I I K K L L B N N m m m m m m m m m m N m m m m m N N N m N N N Z N m m m m m N N C Z C N m m m m m m m N Z N Z N m m m m m m m m m m m m m m N N m m N N m m m m m m m m m m m m m m m m m m n n M v L 2.2.<.,.,.,.>.>.C.B.h.g.g.f.d.j.b.b.j.j.j.j.x.b.j.j.j.j.j.j.j.j.j.j.j.l.j.j.j.j.j.j.j.j.j.j.j.j.j.j.j.j.j.j.j.j.j.j.j.j.j.j.j.j.j.j.j.j.j.j.j.j.j.j.j.j.j.j.j.j.x.l.j.j.j.j.j.l.j.j.j.j.j.j.j.j.j.j.j.j.j.j.j.j.j.j.j.j.j.j.j.l.j.j.j.j.j.j.j.j.j.j.j.j.j.j.j.x.j.j.j.j.j.j.j.j.j.j.j.j.j.j.j.j.j.j.j.j.j.j.j.j.j.j.j.j.j.j.j.j.j.j.l.l.x.j.l.l.v.z.g.t.w.w.B.).).XX+X+X+X+X#X#X#X#X#X&X&X$X&X&X&X&X&X&X&X&X&X&X&X&X&X*X&X&X&X&X&X&X&X&X&X&X&X*X&X&X&X&X&X*X=X=X=X&X$X#X$X&X$X#X&X&X&X&X$X#X+XXXB.8.g.k.j.j.j.j.l.l.j.j.k.l.g.g.t.w.w.B.).XXXX+X+X#X&X&X&X&X*X*X&X&X&X$X&X.X).w.=.z.l.l.j.j.j.j.j.j.j.j.d.j.j.j.j.j.j.j.j.j.j.j.j.j.j.j.k.d.d.a.i.i.e.e.9.9.6.=.i u 6 0 #.X...O.............................................................................................................................................................................................................................",
"X X X X X X       . . , b n n n n n n n n n n n n n n n n n n n n z n n n n n n z z n n n n m n n l < , 1 - O O o o o o o o o o o X X o o X X O o o o X X X o O o X O o O o X X X o O o X X o o o o o O O X o o o o o o o o X X o X X X o o o O O O O O O O o O O O O : V.].].].].#X+X].].].#X#X#X].]..X.X#X.X#X#X#X#X.X]..X#X#X#X#X#X].].].].].].].].]..X].]..X#X#X#X.X.X#X].#X#X+X#X#X].].].].{.{.}.m.b M m n n m n m m n m m m m m m m m m m n n n n m m m m m n m n n n n m m n m n n m m m n m m n m n n m m m m m m m m m n n m m m m m n n m m n n m m m m m m m N N m m m m m B l , # O O O O O O o O o O O O O O O O O O O O O O o O O O O O = : O O O O & a f n.V.'.oX#X.XoX#X#X#X#X#X#XoX.X#XoX#X#X#X#X#X#X#X&X#X#X#X#X#X#X#X#X#X#X#X#X#X&X#X#X#X#X#X&X#X#X#X#X#X#X&X#X#X#X&X#X#X#X#X.X#X#X&X#X&X#X&X$X#X#X#X#X#X#X#X#X#X$X&X&X#X#X#X#X#XoXoX#X#X#X].].'.[.`.J.V.N.m.W T I K v M B A Z m m N m m m Z Z N m m m m m m m Z N Z N m Z Z N m m m m m m N Z N m Z m m N m m m C N N Z N m m m m N Z m m m m m m m m m Z C C N N N N m m m m N m m m n m m m m m n n M n c v R 2.,.<.,.>.C.C.T.g.g.f.f.d.d.j.b.b.b.j.j.j.j.j.x.j.j.j.j.j.j.b.j.j.j.j.j.l.j.j.j.j.j.j.j.j.j.j.l.j.j.j.j.j.j.j.j.j.j.j.j.j.j.j.j.j.j.j.j.j.j.j.j.j.j.j.j.j.c.x.j.j.j.j.j.j.j.j.j.j.j.j.j.j.j.j.j.j.j.j.j.j.j.c.j.j.j.j.j.j.j.j.j.j.j.j.j.j.j.j.j.j.j.j.j.j.j.j.j.j.j.j.j.j.j.j.j.j.j.j.j.j.j.x.j.j.j.j.j.j.j.j.j.j.j.j.j.j.j.j.j.j.j.j.j.l.l.l.z.t.t.w.B.).).XXXX+X#X#X#X#X#X#X&X$X$X$X&X&X&X&X&X$X#X$X&X&X$X&X&X&X&X&X-X&X&X*X*X&X&X&X&X$X&X&X&X&X&X&X&X*X&X&X&X*X&X&X#X#X&X*X*X&X&X*X*X&X#X#XXX).8.r.l.k.j.j.j.d.d.d.g.g.q.w.w.B.).).XXXX+X+X#X#X#X&X$X&X&X*X&X&X&X&X$X&X+XXXT.;.r.l.d.j.j.j.j.j.j.j.j.j.j.j.j.j.j.j.j.j.j.x.j.j.j.j.k.k.d.d.d.i.i.e.e.0.9.6.=.i p 6 ] &.+.......................................................................................................................o.........................................................................................................",
"X X X X X         . @ < v n n n n n n n n n n n n n z z n n n n n n n n n n n n n n n n n n n n n c < , # # # # # # & O O O o O o X X X o X X o O o o o o X O O o o o O o o o X X X o O O o o X X o o O O o o O O o o X X X X o o O o X X o o o O o o O & O O O O & o g '.].].].[.[.].].].].]..X.X]..X].+X#X+X].]..X#X.X#X#X.X.X+X#X.X#X#X].#X].].].].].].].].].].#X].].].].]..X.X.XoX#X].].].].].'.}.W c M m m m m m m m n m n n n n m m m m n n n m n n n n n n n n n n n m m n n n n n n n n n m m m m n n m m m m m m m m m m m m m m m m m m m m m m m m m m m m m m m m Z m n M v 2 # . o O o & & O O O O O O O O o o O & = = & & O O O & O O : : = O O O O O o o O : > f V.].#X$X#XoX#X#X#X#X#X.X#X#X#X#X#X#X&X&X&X#X#X#X.X#X#X#X#X&X#X&X&X#X&X#X#X#X#X#X#X#X#X#X].].#X&X#X#X#X&X&X#X#X#X#X#X#X#X#X&X&X&X&X&X&X&X#X&X&X#X&X#X#X$X&X&X&X&X#X#X#X#X#X#X#X.XoX#X.X].].].'.`.J.J.N.,.T v M B S N m N m m m m N Z N m m m m m m m m N m m m N A N N N N m m m m m C A Z m N N N N N m m m m m m m m m N N N N N m N N m m m N m N N m m m m m m N N m m n n m m N m n n n n v K <.,.>.C.C.B.h.h.i.g.g.b.x.x.x.j.b.j.j.j.j.j.j.j.j.j.j.j.j.j.j.j.j.j.j.j.b.c.j.j.j.j.j.j.j.j.l.j.j.j.j.j.j.j.j.j.j.j.j.j.j.j.j.j.j.j.j.j.d.j.j.j.j.j.j.x.x.j.j.j.j.j.j.j.j.j.j.j.j.j.j.j.j.j.j.j.j.j.x.j.j.j.j.j.j.j.j.j.x.x.j.j.j.j.j.j.j.j.j.j.j.j.j.j.d.j.j.j.j.j.j.j.j.j.j.j.j.j.j.j.j.j.j.j.j.j.j.j.j.j.j.j.j.j.j.j.j.j.j.j.j.j.j.j.j.j.d.r.r.t.T.).XX+X+X#X#X#X&X&X&X&X&X&X&X*X*X*X*X&X&X#X#X&X#X&X&X&X*X&X#X#X&X&X&X&X&X*X=X=X*X*X*X&X*X*X*X*X*X*X*X*X&X$X#X&X*X&X&X$X&X*X&X&X&X&X&X&X#X#X+XXXt.8.g.d.j.l.l.v.g.r.q.w.t.T.).XX+X+X+X#X#X#X&X&X&X&X&X$X&X&X&X*X*X&X&X&X#X].).y.;.z.l.j.j.j.j.j.j.j.j.j.l.j.j.j.c.c.x.j.x.l.j.j.j.j.k.d.d.a.a.i.r.e.0.9.7.6.=.i p 6 ] $.+.........................................................................................................................................................................................................................X.X.%.%.",
"X       X       . . , l v M n n n n n n n n n n n n n n n n M n n n n h n n n n n n n n n n n n n c j < , , , # @ # # # - = O O O X X o o X o o O O o o X X X o O O o O o o O o X o o o O o o o O o o O O o o X X X o O o X X o o O o o o o o X o X o o O o o O O O O n.].].].].].[.[.].].].].].].].]..X#X].#X.X.X].].].]..X.X].].#X#X#X].].+X].#X.X].].].]..X].].].].].].].].].]..X#X].oXoX].].{.}.K.b M m m m m m m n n m n n m n n n n n m n n n m n n n m n m n n m m m m m n n n n n n n m m m m m m m n n m m m m m m m m m m m m n n n m n n m m m m m m m m m m m m m n n M M b , # . + o o O O O O O o O O O o O O O O O & O O O o O O O O O O O O O O o O O O o o o o = a f V.`.#X&X#X#X#X#X.X#X#X#X#X#X&X#X#X#X#X#X#X#X#X#X#X#X#X#X#X#X#X&X&X#X&X#X#X#X&X&X#X#X]..X#X#X#X&X&X&X&X&X&X#X&X#X#X&X#X#X&X&X&X&X&X&X#X&X&X#X#X#X#X#X&X#X&X&X&X&X&X#X&X&X#X#X#X#X#X#X#XoXoX].'.'.J.D.U M N N m N m m m m m m m m N m m m m m m m m m m m m m N m m m m m m m m m N Z N m A S m m m m m m m m m m m m N m m m N C m m m m m N m m m m m m m m m m N N N m m m N M M M v b 4 e >.C.B.T.h.h.i.a.d.d.d.j.j.j.j.j.j.j.j.j.j.j.j.j.j.j.j.j.j.j.j.j.j.j.j.j.j.j.j.j.j.j.j.x.j.j.j.j.j.j.j.j.j.j.l.j.j.j.j.j.j.j.j.j.j.j.j.j.d.d.j.j.j.j.j.j.j.j.j.j.j.j.j.j.j.j.j.j.j.j.j.j.j.j.j.j.j.j.x.j.j.j.j.j.j.j.j.j.j.j.j.j.j.j.j.j.j.j.j.j.j.j.j.j.j.j.j.j.j.j.j.j.j.j.j.j.j.j.j.j.j.j.j.j.x.j.j.j.j.j.j.j.j.j.j.j.j.j.j.j.j.j.j.j.j.d.l.g._.).XX+X#X#X&X-X-X-X&X&X=X*X&X*X*X&X&X*X*X&X&X&X&X&X*X=X&X&X&X&X$X&X&X&X&X*X&X&X*X=X=X=X=X*X=X*X*X&X*X*X*X*X*X&X&X*X*X&X&X*X&X#X&X&X&X&X&X#X#X#X+XXXT.8.r.g.z.l.g.r.t.t.T.).).XX+X+X+X#X#X$X&X&X&X&X&X&X&X$X#X&X&X*X&X&X&X#X#X.XXXB.i g.l.j.j.j.j.d.j.j.j.l.l.l.l.j.j.l.j.j.x.l.l.j.j.j.k.d.d.a.a.i.e.e.0.9.8.6.=.i y 9 [ &.o.....................................................................................................................................................................................................................o.@.%.$. .G ",
"X X         X   . @ , b v n n n n n n n n n n n n n n n m m n n n z n V z n n n n n n n n n n n n c c l l 2 < < < , , # # # # # # O O O o o o o o O O o o X X X & : o O o o O X X o O O o X X o o o O O O O o X o O O O O & o X o O O o O o o o o X o o o o o o O O > V.].].].].]..X].].].].].].]..X].].].].].]..X]..X.X].].].].].+X#X#X].].]..X].].#X.X].].].].].].].].].].#X].].#X#X#XoXoX#XoX{.}.m.b M m m m m m m n n n m m n n n n n n n n n m n n n n m m n n m m n n m n n n n m m m m m m m m m m m m n m m n n m m m m m n n m m n m n n n n m m m m m m m m m m m n n n n v 2 , # o o o o O o O o O O O O O O O O O : & O O O O O O O O o O O & & O & & O & O o O O o o o O O > f f V..X&X&X#X.X.X#X#X#X#X&X&X#X#X#X#X#X#X#X#X#X#X#X#X#X#X#X#X#X#X&X&X#X&X&X#X#X#X#X#X#X#X#X&X&X&X&X&X&X&X&X#X&X&X#X#X#X&X&X&X&X&X&X&X&X&X&X#X#X#X&X&X#X#X#X&X&X#X&X&X#X#X&X#X#X#X#X#X#XoX{.'.L.U B A N N N m m m m m m N m m N m m m m m m N m m m m m m m m m m m m m m m m m N Z A Z Z m N N m N m m N N m m m m m m m N m m m m m m m m m m n m m m m m N N N m m N M M v 4 e s :.C.h.h.i.g.f.d.d.j.j.j.j.j.d.j.j.j.j.j.j.j.j.j.j.j.j.j.j.j.j.j.j.j.j.j.j.j.j.j.j.j.j.j.j.b.j.j.j.j.j.j.j.j.j.j.j.j.j.j.j.j.j.j.j.j.j.j.j.j.j.j.j.j.j.j.j.j.j.j.x.c.j.j.j.j.j.j.j.j.j.j.j.j.j.j.j.j.j.j.j.j.l.j.j.j.j.j.j.j.j.j.j.j.j.j.j.j.j.x.x.j.l.j.j.j.j.j.j.j.j.j.j.j.j.j.j.j.j.j.j.j.j.j.j.j.j.j.j.j.j.j.j.j.j.j.j.j.j.j.j.j.j.j.l.j.j.i.i._.@X@X+X#X&X-X-X=X-X=X=X=X=X*X*X&X*X&X*X*X*X*X*X*X*X&X*X&X&X&X&X&X&X&X#X&X$X&X&X&X&X&X&X&X&X&X&X*X&X&X&X&X&X&X&X&X*X=X=X&X*X*X*X&X&X&X&X&X&X#X&X&X#X+X).y.w.t.w.w.w.B.).XXXX+X+X#X#X$X$X$X&X&X&X&X#X$X$X&X$X$X$X#X#X&X*X&X&X&X#X+XXX).;.8.z.l.j.j.d.j.j.j.j.j.j.j.j.j.j.j.j.j.j.j.j.j.j.k.k.j.d.d.a.a.e.e.0.9.6.-.=.i y 9 | @...............................................................................................................................................................................................................X.o.@.%.$.#.' q % . ",
"    X           . @ 2 v c n z z n n n n n n n n n n n n n n m n n n n n n n n n n n n n n n n n n n n c k c c c l j 2 < , , # # # @ # # = O o o o o O o O o O o X = & o o o X X X o X o & O o o X o O o X X o o O O O o o O O o o o O o O O o o o o X o o O O O O O a '.].].]..X]..X+X].].#X#X].].#X.X].].[.[.[.[.[.].].].].].].].].#X#X#X.X].#X#X#X#X#X#X#X].].].].].#X#X#X#X].].#X#X#X#X].{.{.'.(.R M N m m m m N m m m m m m m n n n n n n n n n n n n n m m n n n m n n n n n n n n n n n n m m m n m m m n n n n m m m m n m m m n n n n n m n m n n m m m m m m m m m n n n M v < @ . O O O o o o o O O o O o O & O O O & & & = O & : O O & O & O O O O O & O & O o o O O O O & O O X o > a n.V.`.oX#X#X#X#X.X#X&X#X#X#X#X#X#X#X#X#X&X#X#X#X#X#X#X.X#X#X#X#X#X&X#X#X#X#X#X&X#X#X&X&X&X&X&X&X#X#X#X&X*X*X*X&X#X&X&X&X&X&X&X&X&X&X&X&X#X&X&X&X#X&X&X&X&X#X&X#X#X&X&X#X$X$X&X#X#X{.}.m.M N N N m m m m m m m m m N N N m m N m m m N m m m N m m m m m m m n m m m m m m N N N Z N N m m N N m m m m m m m m m N m m N m m m m m m m m m m m m m m m m N N M M v 4 e f >.B.h.h.i.f.g.d.d.j.j.j.j.d.j.l.x.j.j.j.j.j.j.j.j.j.j.j.x.j.j.j.j.j.j.j.j.j.j.j.j.j.j.j.j.j.j.j.j.j.j.j.j.j.x.j.j.j.x.x.j.j.j.j.j.d.j.j.j.j.j.j.j.j.j.j.j.j.j.j.j.j.b.x.j.j.j.j.j.j.d.j.j.d.j.j.j.j.j.j.j.j.j.d.j.j.j.j.j.j.j.j.j.x.x.j.j.j.j.j.j.j.j.j.j.j.j.j.j.j.j.j.j.j.j.j.j.d.j.j.j.j.j.j.j.j.j.j.j.j.j.j.j.j.j.j.d.j.j.d.d.j.j.j.j.j.j.j.j.d.0._.@X@X-X&X#X-X-X=X&X*X=X*X*X=X=X&X&X*X&X&X&X&X$X$X#X#X&X&X&X&X&X&X&X#X#X#X#X*X*X&X&X&X&X&X#X#X*X*X&X&X*X&X*X&X&X&X&X&X*X&X&X&X&X&X&X*X&X&X&X&X&X&X&X#XXXB.y.w.T.).XXXXXX+X#X#X#X&X&X$X&X&X&X&X&X&X&X$X#X#X#X$X&X&X$X#X$X&X&X&X&X#X].).w.=.g.l.d.d.j.j.j.j.j.j.j.j.j.j.j.j.j.j.j.j.j.j.j.j.d.d.d.d.a.i.e.e.0.9.6.-.i i y 0 &.@.........................................................................................................................................................................................................o.X.X.%.$. .' q % .   .   ",
"        X     . . # b c n n n n c n n n n n n n n n n n n n n n n n n n n n n n n n n n n n n n n n n n n n n n n n c c l 2 < < , # # @ # # # # O O o o O O o o O O & O o o o o X X O o X & O o X X o X X X X o X X o O O O O O o o O O O o O O O o o o o O O o O O n.].].].oX].].]..X.X.X#X.X.X.X#X.X].].].].[.].[.[.].].].].].].].].]..X+X.X#X.X#X.X].].].#X#X].#X].#X#X#X#X#X.X.X.X#X].].{.].}.K.U L A N m m m m m n m n m m m N m n m m n n n n n n n m m m m m n n n n n n n n n n n n m m m m m m n n n n n n m m m m n n n m m m m m m n m m n n n m m m m m m m n n n n n M b , @ . O O O o O O o o o o o : : O O O O O O O O O O O o o o o O o o O O O = & O O O & O O & O O O O & = O O = : > g n.`.].#X&X#X#X#X#X#X#X&X&X&X#X#X#X#X#X#X#X#X#X#X#X#X#X&X&X&X#X&X&X&X&X&X&X&X&X&X&X&X&X&X&X&X&X&X&X&X&X&X&X&X&X#X#X&X&X&X#X&X&X&X&X&X&X&X&X&X&X#X&X#X&X&X&X&X&X&X#X&X#X&X$XoX}.W v N Z N m m m m m m m m m N Z N Z N N N m m N m m m m m m m m m m m m m m m m m m m m m m m m m m N m m m m m m m m m m N N N Z N N N N m m m m n n n m m n M M M v K e s >.C.T.h.r.i.f.d.d.l.l.j.j.j.x.j.j.j.j.j.j.j.x.l.j.j.j.j.j.j.j.x.j.j.j.j.j.j.j.x.j.j.j.j.j.j.j.j.j.j.j.j.j.j.j.j.b.j.j.j.j.x.j.j.d.d.d.j.j.j.j.j.d.d.j.j.j.j.j.j.j.j.j.j.j.j.c.b.b.x.j.j.j.j.j.j.j.j.j.j.j.j.j.j.j.j.j.j.j.j.j.j.l.j.j.j.j.j.j.j.j.j.j.j.j.j.j.d.j.j.j.d.j.j.j.j.j.j.j.j.j.j.j.j.j.j.j.j.j.j.j.j.j.j.j.j.j.j.d.j.j.j.j.j.j.j.j.j.j.j.j.j.j.i.g.@X@X-X-X-X-X-X*X&X=X=X=X=X=X*X&X&X*X&X&X&X&X#X$X&X#X&X&X*X*X&X&X&X#X#X&X#X#X&X&X&X&X$X&X&X&X&X*X&X*X&X&X&X*X&X&X$X$X&X&X&X&X&X&X&X*X&X*X*X&X&X#X#X#X+XXX`.XXXX+X+X+X+X#X#X&X&X&X&X&X&X&X$X$X*X&X$X&X&X$X&X&X&X&X&X&X$X&X&X&X#X#X#XXX).;.r.z.j.l.d.j.j.j.k.k.j.j.j.j.j.j.j.j.j.j.j.j.j.d.d.d.a.d.a.u.e.e.9.9.6.=.i p 6 0 #.X.....................................................................o.............................................................................................................................X.X.%.%.$.#.' q % . .   .       ",
"X X           . @ , b M n z n n c k z z n n n n n n n m m n n n z z n n n n n M n n n n n z n n n n n n n n n n n n n n c c l j < < < , , , # @ # # # # # O O o O o O O o o o O X o o O O X O O o X o X X X X X X o O O O O O O O O O O O o O O O O O o o O O O O > R.'.'.].]..X.X].].]..X.X#X#X#X#X#X#X#X].#X].].].].].#X#X.X].].].].#X.X]..X.X#X].].].].].].].].].#X.X#X#X#X].oX.X#X+X].].'.'.}.,.l k m N N N N m m m m n n m m m m m m m m m m n n n n m n n m m m n n n m m m m n n n n m n m m n n n n n n n n n n m m n n n n m m m m N m m m m n n n n m m n m m m m n m n v 2 # # O = O o O o O O o o O O O & O O O o O O = : = & O O O o O O O O O O o & o O & & & & O & O O O O O O = = O O O O = > a f C.`.#X#X&X#X#X.X#X#X#X#X#X&X&X#X#X#X#X#X#X#X&X&X&X&X#X#X&X&X&X&X#X#X&X#X&X&X&X#X#X&X&X&X&X&X&X#X&X&X#X#X#X#X#X&X#X#X#X#X#X&X#X&X&X&X&X#X#X&X#X&X&X&X&X&X&X#X#X#X#X{.K.U M A m N N m m m m m m m m N N Z Z C N m m m m m m m m m m N N m m m n m m m m m m m m m m N N m m m m m m m m N m m m m N Z S Z N m N N m m m N m M M M M M v b K s >.C.B.T.h.i.g.f.d.j.j.j.j.j.j.j.j.j.j.j.j.j.j.j.j.j.l.x.x.j.v.j.j.j.j.j.j.j.j.j.j.j.j.j.j.j.j.j.j.j.j.j.j.j.j.j.b.c.j.j.j.j.j.j.j.d.d.j.j.s.d.d.d.j.j.d.j.j.j.d.j.j.j.j.b.x.j.j.j.j.x.x.x.b.j.j.j.j.j.j.j.j.j.d.d.j.j.j.j.j.j.j.j.j.j.j.x.j.j.j.x.j.j.j.j.j.j.j.j.j.j.j.j.j.j.d.j.j.j.j.j.l.l.x.c.l.x.x.j.j.l.j.j.j.j.j.j.j.j.j.j.j.j.j.j.j.j.j.j.j.j.j.j.j.j.j.l.r._.@X@X-X-X&X=X=X*X=X=X=X*X&X&X&X&X&X&X&X*X&X&X&X&X&X&X&X&X&X*X*X&X$X#X$X&X$X&X&X#X#X#X#X&X*X&X*X*X*X*X&X&X*X&X&X&X$X&X&X#X#X&X&X&X&X&X&X&X&X&X&X&X&X#X+X+X+X#X#X#X#X&X&X&X*X&X&X&X&X&X*X&X&X&X&X&X*X*X&X&X&X&X&X&X&X*X&X&X#X#X#X#X+X).w.;.z.l.l.j.x.j.j.j.j.j.j.j.j.j.j.j.j.j.j.j.d.j.d.d.d.d.a.i.u.e.e.9.8.-.=.i y 6 ' $.X.............................................................................................................................................................................................X.+.%.%.#.| ] q % .                   ",
"X X           . @ < v n n n n n c k k n n n n n n n n n n n n n n n n n n n n n n n n n k n n n n z n n n n n n n m n n n n c c c l l l 2 < < , , # # @ # - # # O o O O o O O o o o o o O o X O O X X X X X X X o X O o O O O O O o o o O O O O O o o o o o O O O g ].].[.].].].].].[.].].].#X].].]..X#X#X#X#X#X.X].].#X#X#X#X.X].#X]..X#X#X.X]..X.XoX].+X.X].].].].].].]..XoX.X].].#X#X#X{.'.'.K.R b n V V V n n m m S A n m m n m m m m m m m m m n n m n n n n n n n m m m m m n m n n m m n m N m n n n n n n n n n n m m m n m m m m m m m m m m m m m m m m m m m m n n N B v 2 # . O O & O O o o O O o o O O o o O & & O O : & O & O & O O O O O O & o X o O O O & & & & O O O O & O O O O O O O O : = = & : > a n.V.V.#X#X#X#X#X#X#X#X&X&X#X#X#X#X#X#X#X&X#X&X&X#X&X#X#X&X&X#X#X#X#X&X&X#X]..X#X&X&X#X#X#X#X#X#X#X&X&X#X&X#X#X#X#X#X#X#X&X&X&X&X&X#X#X&X#X&X&X&X&X&X&X#X#XoX}.L.v B N N Z A Z N m m m m m m m m m N N m m m m m m m m m m m N m m N m m m m m m m m m m m m Z Z Z N N N N Z m N N N N m m m N A Z Z N m N N Z N N m M M v b K s E n.C.T.h.g.g.g.d.l.l.j.j.j.j.j.j.j.j.j.j.j.j.j.j.j.x.x.j.j.x.j.j.j.j.j.j.j.j.j.j.j.j.j.j.j.j.j.j.j.j.j.j.j.j.j.j.j.j.j.j.j.j.j.j.j.j.j.j.j.j.j.j.j.d.d.d.d.j.j.j.x.x.j.j.j.j.x.c.x.j.j.j.j.j.j.j.j.j.j.j.j.j.j.j.j.j.j.j.j.j.j.j.j.j.j.j.j.j.j.j.j.j.j.j.j.j.j.j.j.j.j.j.j.j.j.j.j.j.j.j.j.j.j.l.j.j.j.j.j.j.j.j.j.d.j.j.j.j.j.j.j.j.j.j.j.j.j.j.j.j.j.j.j.j.j.j.j.d.j.i.T.@X-X-X=X-X&X=X=X*X=X=X=X=X=X=X=X=X*X=X&X&X&X&X&X*X*X&X&X*X&X*X&X$X$X&X*X&X&X#X#X&X&X&X&X&X&X&X*X&X&X&X&X&X&X*X&X&X*X$X#X$X&X&X&X&X&X&X&X&X&X&X&X#X#X#X$X#X$X$X&X&X#X&X&X&X&X=X&X&X&X&X&X$X&X&X&X&X*X&X#X#X#X&X&X&X&X&X$X$X&X$X#X+XXXT.;.t.v.x.c.j.j.j.j.j.j.j.j.j.j.j.j.j.j.j.j.j.j.d.d.a.d.a.u.e.e.0.9.6.-.=.i y 6 [ @.X...................................................................................................................................................................................o.X.X.%.%.$.#.[ 0 5 @ .                         ",
"X         X   . # 2 c n n n n n c n n n n n n n n n n n n n n n n n n n n n n n n n n n n n n n n n n n n n n n n n n n n n c c c c c c c l l l 2 < < , , , # # # = O O o O O O O O o o o o X o O o X X o X X o O O X o o X O O O O O o o o X o X O O O O O O O O n.oX].].].].].].].].].].]..X].]..X.X.X.X#X#X].].]..X#X+X.X+X#X.X#X.X].].#X.X.X].].]..X#X#X#X#X#X].].].].]..X#XoX#X]..X#X'.'.'.L.K v n n n n z V V n n m N m N m m m m m m m n n m m m m n m n n n n n n n m m m m m m m m m n m m m m n n n n n n n n n n m m m m n n m m m m m n n n m m m m m m n m m m n n M b , @ o O O O O O O O O O O O o O O O o o O & O O O O o O O & O O & O O O O O o O O O O O O O O & O O O & & O O O O O : = = O O : O O : : > g n.`.#X#X$X#XoX#X#X#X#X#X#X#X#X#X&X#X#X#X#X#X#X&X#X#X#X#X&X#X#X#X&X#X.X.X#X#X&X&X&X#X#X#X#X#X&X#X#X#X#X#X#X#X#X&X#X&X&X&X=X&X#X#X#X#X#X&X&X&X&X#XoX{.}.2.v B m N A N C A A m m m m m m m m m m m Z N m m m m m m m m m m N m A A m m m m m N m m m m m m m m N Z A Z N N m m N m m m m N Z N m m m m N N B M b 4 e f >.C.B.h.h.g.f.d.j.x.j.j.j.j.j.j.j.j.j.d.d.j.j.j.j.j.j.j.j.x.x.j.j.j.j.j.j.j.j.j.j.j.j.j.x.x.j.j.j.j.j.j.j.j.j.j.j.j.j.j.j.j.j.j.j.j.j.j.j.j.j.j.j.j.j.j.j.j.j.d.d.d.d.j.x.j.j.j.j.j.j.x.j.j.j.j.j.j.j.j.j.j.j.j.j.j.j.j.j.d.j.j.j.j.l.j.j.j.j.j.x.j.j.j.j.j.j.j.x.c.x.j.j.j.j.j.j.j.j.j.j.j.j.j.j.j.j.d.j.j.j.j.j.j.j.j.j.j.j.j.j.j.j.d.j.j.j.j.j.j.j.j.j.j.j.j.j.j.d.j.j.l.d.t.@X@X-X=X=X=X=X=X*X&X*X&X*X=X*X*X=X&X*X*X*X&X&X&X&X*X*X*X&X&X#X#X&X$X$X&X&X&X&X&X&X&X&X$X&X&X$X&X&X&X&X&X$X#X$X#X$X&X*X=X&X#X&X&X&X*X=X=X*X&X#X#X#X#X&X&X&X$X&X&X&X&X&X&X&X*X&X*X*X&X&X$X&X&X&X$X#X#X&X*X&X#X#X$X#X#X#X#X&X&X$X#X#X].).y.8.z.l.j.j.j.j.j.j.j.j.j.j.j.j.j.j.j.d.j.d.d.d.d.a.a.i.e.e.e.9.9.8.=.i p y 9  .@...................................................................................................................................................................................+.%.%.$. .' q % .                                 ",
"X X         X . , b c c z z n n n n n n V n n n n n n n n n n n n n n n n n n n z n n n n n M n n n n n n n z n n n n n n n n n n n n n c n c c c l l l 2 2 < , 1 > : = O O O O O O O X X o o o o o X X X o o X O O O o o X o o O O O O o X o o o o O O O O O O > R.].]..X.X.X].].#X].].]..X].].].].#X#X#X.X#X+X#X#X#X.X].#X]..X.X].#X].].].].].].]..X].oX.X.X].].].]..X.X.X].#X{.oX{.].].].`.~.,.b M n n n n m n n n z z n n m N N N N N m n n n n n n n n m m m m m n n n m m n m m m m m m m m m n n n m m n n n n n n n m m m n m m m m m m m m m m m m m n m m n n m m m n v 2 , . o O O o o O O O O O O O & O O O O o X O O O o O o O X O O O O O O O O O o O : : : : & O O O O O O O O & O O O O : : O O & O O O O & O o = > g >.C.].$X#X#X#X#X#X#X#X&X&X&X&X#X#X#X#X#X&X&X#X&X&X#X&X&X#X#X&X#X#X#X#X#X#X#X#X&X&X#X#X#X#X#X#X#X#X#X#X&X#X#X&X&X&X&X*X&X&X&X&X#X#X&X&X$X#X#X}.K.U M N N m m m m N N N m m m m m m m m m m m m m m m m m m m m m m N A S m m m m m m m m m m m m m m m m m N m m N N N N Z N m m m m m m m N N M K K e s >.C.B.t.h.i.f.l.d.j.l.j.j.b.b.j.j.j.j.d.l.j.d.d.j.j.j.j.j.l.j.j.j.j.j.j.j.j.j.j.j.j.j.j.j.j.j.x.x.x.x.j.j.j.j.j.j.j.j.j.j.j.j.j.j.j.j.c.c.j.j.j.j.j.j.j.j.j.j.j.j.j.j.j.d.d.d.j.j.j.j.j.j.j.j.j.j.j.j.j.j.j.j.j.j.j.j.j.j.j.j.d.j.d.j.j.j.j.j.j.j.j.j.j.x.j.j.j.j.j.j.j.j.j.j.j.j.j.j.j.j.j.j.j.j.j.j.j.j.d.d.d.j.j.j.j.j.j.l.j.x.j.j.j.l.x.l.j.j.j.j.j.j.j.x.j.j.j.j.j.j.j.j.j.j.l.r._.@X-X=X=X=X*X=X*X&X&X&X&X&X*X*X=X*X&X*X*X*X&X&X&X*X*X*X&X&X&X#X&X&X$X$X#X&X&X#X#X#X#X#X$X$X#X&X&X&X$X$X&X&X&X&X&X&X&X#X#X$X$X&X&X&X&X*X&X&X=X*X&X&X&X&X&X&X*X=X=X*X&X&X&X*X*X&X&X$X#X#X&X&X#X&X&X#X&X&X&X$X#X#X#X&X&X#X&X$X&X&X#X.XXXB.;.g.l.j.j.j.j.j.j.x.x.j.j.j.j.j.j.d.j.a.j.d.d.d.d.a.i.e.e.0.0.7.6.-.i u 6 0 &.@...................................o.................................................................................................................................o.o.X.X.%.%.Y.#.[ Y 5 % . . .                                   ",
"X           . @ 2 b c c n n n n c z z z n n n n n n n n n n n n n n n n m m n n n n n n n n n n n n n n n n n n n n n n n n n n n n n n n n n n n c n c c b 4 4 E f a a > : : O O o O & o o o o o o X o o o o O O O O o O O X o o o O : O X o o o o o O O O O O a '.].].].]..X].].].].].].].#X#X#X].].].]..X].].]..X.X#X#X.X.X]..X].].].].].[.].].].].]..X]..X#X].].].]..X.X].#X].].{.#X{.].'.J.U v M n n n n m n n n n n n n V V n n N A N m n n n n m n n n n m m m m m n n n m n n n n n m n n n n n n n m m n n m n n n n n n n n n n n m m m m m m m m m m m m n m m m m M v < @ . o o O O O O O O O O O O & O O & O o o o o O O O O o o O O o o O o O O O O O O & : : & O & > = O & & O O O = & O O O & & = & O O O O O O O O O & : a f V.[.&X&X#X&X&X#X&X&X&X&X$X&X#X#X#X#X#X#X&X&X&X#X#X&X&X#X#X#X#X#X&X#X#X#X#X#X#X#X&X#X#X#X#X#X#X#X&X#X#X#X#X#X#X&X&X&X$X#X#X#X#X#X#X{.}.D.K M N N Z m m m m m m m m m m m m m m m m m m m m m N N m m m m N N N N m m m m m m m m m m N N m m m m m m m m N m m m m N m m m m N B B M v K s E n.B.h.h.i.f.g.d.d.j.l.j.j.j.j.j.b.j.j.j.j.j.j.j.j.j.j.j.j.j.j.j.j.j.j.j.j.j.j.j.j.j.j.j.j.j.j.j.j.j.j.j.j.j.j.j.j.j.j.j.j.j.j.j.j.j.j.j.j.j.x.j.j.j.b.j.d.d.j.j.j.j.j.j.j.j.j.j.j.j.j.j.j.j.j.j.j.j.j.j.j.j.j.j.j.x.j.j.j.j.j.l.j.j.j.j.j.j.j.j.j.d.j.j.j.j.j.j.j.j.j.j.j.j.j.j.j.j.l.l.j.j.j.j.j.j.j.j.d.j.j.j.j.j.j.j.j.j.j.j.j.j.j.j.j.j.j.j.c.x.j.j.j.j.j.j.j.j.j.j.j.j.j.k.j.j.j.j.i.g.@X@X=X=X=X&X*X&X$X&X&X&X*X*X*X=X=X=X*X=X*X*X*X*X*X*X&X&X&X&X&X#X&X#X#X&X&X&X&X$X#X#X#X#X$X&X&X*X*X&X&X&X&X*X*X*X&X&X&X&X$X#X$X$X&X&X&X&X&X&X*X=X&X&X&X&X&X*X&X$X&X&X&X*X*X*X&X&X&X&X&X$X#X#X$X&X&X$X&X#X$X$X#X&X&X&X#X&X&X&X$X#X+XXX).y.q.z.d.x.j.j.c.j.j.j.j.j.j.j.j.j.d.j.d.d.d.d.d.a.a.a.u.e.0.9.7.6.=.i p 6 / #.X.X...............................................................................................................................................................X.X.X.%.$.#. .' 0 5 @ . . .                                         ",
"X           . # 2 c c k k n n n n n n n n n n n n n n n n n n n n n n n n n m n n n n n n n n n z z n n n n n n n n n n n n n n n n M M n n n n n n n n n M l W J.N.C.n.f g a > : : O & & o o o O O X O O o o o O o O O O O X X o o O & O O O o X O o o O O & = n.].].].].]..X.X].[.].].].]..X+X#X#X.X].]..X].].]..X.X].+X#X.X]..X].].#X].].].].].].].#X#X].].#X#X].].].].#XoX].]..X{.{.{.'.~.L.K v M n n n n m m n m n m m n n n n z z n m m N N m m m m m m m n n m m m m m n m m m m m m n n n n n n n m m m m m m m m m m n m n n z V z n n m m m m n m m m m m m m m m n M v , @ O O o O O O O O O O O O O O & O o o o X o O O o o o o o O O o X o o o O O O O O o O & & O O & : O & = O & O : : O O o O O = O = & = : : = & O O & = O O : > f J.&X&X&X&X&X&X&X&X#X#X#X#X#X#X#X#X#X&X&X#X#X#X#X#X&X&X#X&X&X&X&X&X&X&X#X#X#X&X&X&X#X#X#X#X#X&X&X#X#X#X#X&X&X&X$X$X#X&X#X#X#X{.}.W v N N N S A N m m m m m m m m m m m m m m m n m m m m Z m m m m m m m m m m m m m m m m m m m N Z m m m m m N m m m m N m m N m N N M v K I E n.C.T.h.g.i.g.d.d.d.d.d.j.j.j.j.j.j.j.j.j.d.d.d.j.j.j.j.j.j.j.j.j.b.j.j.j.j.j.j.j.j.j.j.j.j.j.j.j.j.j.j.j.j.j.j.j.j.j.j.j.j.j.j.j.j.j.j.j.j.j.j.j.j.j.j.j.j.j.j.j.j.j.b.j.j.x.j.j.j.j.j.j.j.j.j.j.j.j.j.j.j.j.j.l.x.j.j.j.j.j.j.j.j.j.j.x.x.j.j.j.j.j.j.j.j.j.j.j.j.j.j.j.j.j.j.j.d.j.j.j.j.j.j.j.d.j.j.j.j.d.j.d.j.j.j.j.j.j.d.j.j.j.j.j.j.j.j.j.j.j.j.l.x.j.d.j.j.j.j.j.j.j.j.j.l.k.j.j.j.j.d.r._.@X-X=X=X=X&X&X&X&X=X=X=X=X*X*X=X=X*X*X*X=X*X*X*X*X*X*X&X&X&X&X&X#X#X&X*X*X&X$X&X&X$X&X&X&X&X&X&X&X&X&X*X*X*X*X=X&X&X&X&X$X$X*X&X&X&X&X&X&X$X&X&X&X&X#X&X&X&X&X&X&X*X&X&X*X*X*X*X&X&X&X&X#X$X&X&X$X$X$X#X&X&X&X&X#X#X#X&X&X#X$X#X+XXXB.;.g.l.j.l.j.j.j.j.j.j.j.j.j.k.j.j.j.j.d.d.a.a.i.i.i.i.e.0.9.7.6.i i p 6 ] &.X.X.............X.X.............................................................................................................................X.X...o.o.o.X.%.%.%.$. .[ 0 5 % . . . .         X * ; ; o                             ",
"X           . , b c n z k k k k n n n n n n n n M n n n n n n n n z n n n n n n n n n n n n n n n n z n n n n n n n n n n n n n n n M M n n n n n n n n n v b D.~.J.V.V.C.C.n.f g a > > : & & o o o O O O o o X o O O O O O O o X o o O O o o o O O o o O O O > R.].]..X].].].].].].].].].].].].]..X#X].].].].[.].]..X].]..X.X#X.X.X].].#X.X].#X+X].].].].].].].#X#X].]..XoX#X].].+XoXoX{.'.}.m.b M M n m n n n m m m m n n m m m m n n n n n m m m N m N m m m n n n n n m n m m m m m m m m m m n n n m m m m m m n m m m m m m n m m n z n n m m m n n n n m m m m m m m M M l , # O O O & O O O O o o o O o O & & O o X o O O o X o o o O o o O o o o O O O O O O O O O O & O O O O O O O O O & = & & O O O = & & O & = = = : : : O = = & & = & C.*X#X&X&X&X&X&X&X#X#X#X&X#X#X#X&X#X#X&X&X#X#X&X#X#X&X&X&X&X&X&X&X#X#X#X#X#X#X#X&X#X#X#X#X.X#X#X&X&X&X#X&X&X&X$X$X&X&X&X$X#X{.K.U M N N N Z Z Z m m m m m m m m m m m m m m n n n m m m A Z m m m m m N N m m m m m m m m m m m m m m m m m m N m m m m N N B B L v b K T >.C.T.T.h.g.g.d.l.d.d.d.d.d.j.j.j.x.j.j.j.j.j.j.j.d.j.j.j.j.j.j.j.j.j.j.j.j.j.j.j.j.j.j.j.x.j.j.j.j.j.j.j.j.j.j.j.j.j.j.j.j.j.j.j.j.b.b.j.j.j.j.j.j.j.j.j.j.j.j.j.j.j.j.j.j.j.j.j.j.j.j.j.j.j.j.j.j.j.j.j.j.j.j.j.j.j.j.l.j.j.j.c.j.j.j.x.j.j.j.j.j.j.j.j.j.j.j.j.x.j.j.j.j.j.j.j.j.j.j.j.d.j.j.j.d.j.j.d.d.j.j.j.j.j.d.j.d.j.j.j.d.d.j.j.j.j.j.j.j.j.j.j.j.j.j.j.j.j.j.j.j.j.j.j.j.j.j.j.j.j.j.j.l.d.r.z.@X-X-X-X=X=X&X&X=X=X*X*X=X*X=X=X=X*X&X*X*X&X&X&X*X=X*X*X*X&X&X#X&X&X&X&X&X*X&X&X&X&X$X&X$X$X&X&X&X&X&X&X*X=X*X*X*X*X*X*X&X&X&X&X&X&X&X&X&X#X#X#X#X$X#X&X&X&X#X#X&X&X&X&X*X*X*X*X*X*X*X&X$X#X#X&X&X&X&X$X#X#X#X#X&X&X$X&X&X&X#X#X+XXXR.8.r.v.l.j.j.j.j.j.j.j.j.j.j.j.j.j.d.d.d.d.d.a.a.u.e.e.0.9.7.6.-.=.i y 6 | o.o...........................................................................................................................................o.X.X.X.X.%.%.$.#. .[ 0 q % . . .           X * * ; w u u i t                             ",
"X         . @ 2 v n n n n k h k c c k k n n n n n n n n n z z n n n n n n n n n n n n n n n n n n n n n n n n n n n M n n n n n n n n n n n n n n n n n M c U K.'.'.`.`.V.V.V.C.C.n.f f a a > : & O O & : O o o X X o o O O O O o X o o o X X o o X o O X O O a [.].]..X+X].].].].].].].].].].].].].].].].].].].]..X.X].].#X#X#X.X.X].].#X#X].].]..X].].].].].]..X#X#X.X]..X#X#X].]..XoX'.'.K.R b M M m m n n n z n m n n n m n n m n n m m m m n n n n m N N N m n n n n m n m m m m m m m m m n n m m m n n n m m m m N m m m m m m m N m n n m m m m m m m n m m n m m m B M 2 # # O O O O O O O O X X o o o O O O O O O O : & o o o o o o o o o o o O O O O O O O O & O O O & O O O O o O O O O O & O O O O O O O O & O = = = & = = = O O O O > '.#X#X#X#X&X&X&X&X&X#X&X&X&X&X#X&X&X&X#X#X&X#X#X#X#XoX#X#X#X#X&X&X&X&X#X#X#X#X#X#X#X#X&X#X#X#X#X#X#X#X#X#X&X&X&X&X#X#X#X#XoX}.L.v M m m N C N N Z m m m m m m m m m m m m m m m n m m N Z A N N N m m m m m m m m m m m m n m N N m m m m m N m m m m N B M M b e s :.C.B.t.h.g.g.d.j.b.j.l.j.j.j.j.j.j.j.d.j.j.j.j.j.j.j.j.j.d.j.j.j.j.j.j.j.j.j.j.j.j.j.j.j.j.j.j.x.j.j.j.j.j.j.j.j.j.j.j.j.j.j.j.j.j.j.j.j.j.j.j.j.j.j.j.d.j.j.j.j.j.j.j.j.j.j.j.j.j.j.j.j.j.j.j.j.j.j.j.j.j.j.j.j.j.j.d.j.j.l.j.x.x.j.j.j.j.j.j.j.j.j.j.j.j.j.j.j.j.j.j.j.j.j.j.j.j.j.j.j.d.d.j.j.j.j.j.j.j.j.j.j.j.j.j.j.d.d.j.j.d.j.j.j.j.j.j.j.j.j.j.j.j.j.j.j.j.j.j.j.j.j.j.j.j.j.j.j.j.j.j.j.j.j.j.j.j.a.r._.@X-X-X-X*X&X-X&X&X$X&X&X*X*X*X&X*X=X*X&X&X&X&X&X&X&X&X*X*X&X*X*X&X*X*X&X&X&X&X&X&X&X&X$X#X&X*X&X#X&X&X&X&X&X&X&X&X&X&X$X#X#X#X$X&X&X&X&X#X#X$X&X&X&X&X&X&X#X#X#X#X$X*X*X*X*X*X*X&X&X#X#X#X#X#X$X&X$X#X#X#X#X&X*X*X&X&X#X#X#X#X#X.X).w.8.z.l.j.j.j.d.j.j.d.d.j.j.d.d.j.d.d.d.d.d.a.i.i.i.e.0.9.9.7.-.i u y 9 } o.................................................................................................................................X.X.X.X.@.%.%.%.$.$. .[ G q % # . .                 X * ; t u u i =.=.;.i *                           ",
"  X       . # 2 c n n n n n n n h h h h c n z n n n n n n n n n n n n n n n n z n n n n n n n n n n n n n n M n n n n n n n n n n n n n n n n n n n n n M b W }.'.'.[.[.`.`.`.V.V.V.V.C.n.n.f g a a > : : : & O o X o O O O o O O O O o o o o o O O o O o O O n.].].].].#X#X].[.[.].].[.[.].].].].].].].]..X]..X]..X#X.X].].].#X#X.X#X.X.X#X#X.X.X.X].#X.X.X.X.X.X].]..XoX.XoX#X#X].oX].'.'.S.K v M n n m n n n n n n n n n n n n n n n m m m n m m n z n z n m m N N m n m m n m m m m m m m m m m m m n n m n m m m m m m m m m m m m n m m m m m m m n n n n m m m m m m M v , # O O O o O O o o o o o O o o o o O o O O o O = O o O o O O X X o o o o O O O O O O O O O = : : = : O o O O O O O O : : & O o O O & O O O & = O O O O O = O O X a #X#X&X#X#X&X&X&X&X&X#X#X#X#X&X&X#X&X&X&X#X#X#X#X#X&X#XoX#X&X#X#X#X#X#X#X#X#X#X#X&X&X&X&X&X#X#X#X#X#X#X#X#X&X&X&X&X&X#X#X#X{.(.W M N N Z C m N Z N m m m m m m m m m m m m m m m m m m m N N m m N m m m m m m m m m m m m m m m N m m m m m m N m N M v b K e f >.C.h.h.g.g.d.d.j.b.j.j.j.j.j.j.j.j.j.j.j.j.j.j.j.j.j.b.j.d.d.j.d.d.j.j.j.j.j.j.j.j.j.j.j.j.j.j.j.j.j.j.j.j.j.j.j.j.j.d.j.j.j.j.j.j.j.j.j.j.j.d.j.j.j.j.j.j.b.b.j.j.j.j.j.j.j.j.j.j.j.j.j.j.j.j.j.j.j.j.j.j.j.j.j.j.j.j.j.j.j.j.l.j.x.x.x.j.j.j.j.j.j.j.j.j.d.j.j.d.j.j.j.j.j.j.j.j.j.j.j.j.j.j.j.d.j.j.j.j.j.j.j.b.b.d.j.j.j.j.j.j.j.j.d.j.j.j.j.j.j.j.j.j.j.j.j.j.j.l.j.j.j.j.j.j.j.j.j.j.j.j.j.j.j.j.j.j.j.j.l.g._.@X-X-X&X*X&X&X&X&X&X&X&X&X&X&X&X#X&X&X&X*X&X$X&X&X&X&X&X*X=X=X*X&X=X=X*X&X&X&X*X*X&X&X#X#X#X&X&X&X&X$X&X#X#X#X&X&X&X&X&X&X&X#X#X#X&X&X&X*X*X*X&X&X*X*X*X*X&X#X#X#X#X&X&X&X*X*X&X#X#X#X#X#X&X#X#X#X#X&X&X&X$X$X#X#X#X#X#X#X#X$X#X+XXXT.;.t.l.j.j.j.j.d.j.j.d.d.d.d.d.d.d.d.d.d.d.d.i.i.i.e.0.9.9.6.-.i u y d #.@.......................................................................................................................o.X.+.@.%.%.%.$.#. .| [ G q 5 % @ .                     X * ; w y i =.-.-.-.8.8.6.8.t                           ",
"          . , b n n n n n n n n z n k c n n n n n n n n n n n n M n n n n n n z z n n n n n n n n z z n n n n n n n n n n N n n n n n n n n n z n n n n v b L.}.'.].[.[.[.[.[.[.`.`.V.V.V.V.C.C.n.n.f g a a > : : & o o O O O o o O o O o o o o O O O O O O : V.].[..X]..X#X#X].].].].].].].].].].].]..X.X.X#X#X#X].].#X.X].].]..X.X+X#X#X#X#X#X#X.X.X+X]..X.X].].#X.X]..X.X#X#X#X#X.X].'.(.2.v M n n n m m n n m n n n n n n m n n n m m m n n m m n n n n n n n n n M N N N N m m m n m m m m m m m m n n n m m m m m m m m m m m m n m n m m m m m n n n n n m m m m m m M l , # O & O O O O O o o X o X o o o X o o o O o X O O o O O o o O o O o o o O O O O O O O O O & & : > : : & O O O O o O = > > & O O O O O & O & = & & = = : = O O o n.oXoX#X&X#X#X#X#X&X&X#X#X#X#X#X#X&X&X&X&X&X#X#X#X&X&X&X#X#X#X#X&X#X#X#X&X#X#X#X#X#X#X#X#X&X&X&X#X#X#X#X#X#X&X&X&X&X$X#X#XoX{.K.U M N N m Z C N Z N m m m m m m m m m m m m N m m m m m Z N m m m N m m m m N N Z N m m m m m m m m m m m m m m N N M b e s >.C.B.t.g.f.g.d.d.d.j.x.j.j.j.j.j.j.j.j.j.j.j.j.j.j.d.j.j.j.d.j.j.d.j.j.j.j.j.j.j.j.j.j.j.j.j.j.j.j.j.j.j.j.j.j.d.j.j.j.j.j.j.j.j.j.j.j.j.d.j.j.j.j.j.j.j.j.j.b.j.b.j.j.j.j.j.j.j.j.j.j.j.j.j.j.j.j.j.j.j.d.d.d.d.j.j.j.j.j.j.j.j.j.j.j.x.j.j.j.j.j.j.j.d.j.j.j.j.j.j.j.l.j.j.j.j.j.j.x.j.j.j.j.d.d.j.j.j.j.j.j.j.j.j.j.d.j.j.d.j.j.d.j.j.l.j.j.j.j.d.j.d.d.j.j.j.j.j.j.j.j.j.j.j.j.j.j.j.j.x.j.j.j.j.j.j.j.j.j.j.j.j.j.g.g.@X@X-X-X&X&X&X&X&X&X$X&X&X$X&X&X#X#X$X&X*X*X*X&X&X&X&X&X&X&X&X&X*X*X=X*X*X*X*X&X&X$X#X&X#X#X#X&X&X&X&X&X#X&X&X&X&X&X&X&X&X&X#X#X#X#X&X&X&X&X*X&X&X*X*X*X&X&X&X&X&X&X&X$X&X&X#X#X#X&X&X&X&X#X#X#X#X#X#X&X&X&X#X#X#X#X#X#X#X&X&X$X#X.X).y.8.z.l.j.j.d.d.j.j.j.d.j.j.j.j.d.j.d.d.a.a.a.i.u.e.0.9.9.6.=.i i 6 / &.+.+.O.O.............................................O.O.......................O.X.....................O.X.X.X.o.X.@.%.%.%.$.#. .} ] 0 q 5 % @ . . . . .                     X * ; t u i =.-.-.-.7.7.9.9.9.8.;.*                         ",
"        . @ < c z n n n z n n n n n n n n n n n n n n n n z n n n n n n n z n n z n n n n n n n n n z z n n n n n n n n n N n n n n z n n n n n n n n M c U K.'.'.].[.[.[.[.[.].[.`.`.`.`.`.R.R.V.V.V.C.n.n.f g a > > : : O O O O O o o X O o o o o O O & O 9 `.[.[.].]..X].#X+X#X.X].#X.X].].].].]..X.X.X+X.X.X.X.X].].#X#X].].].].#X+X.X#X].#X#X#X#X.X].]..X.X].].].#X#X#X#X#X#X#X#X[.'.K.U c M n m m n n m n n n n n n n n n n n n n m m n n n m N m n m m m n n n n z n N N N m m n n n n n m m m n m n n m n m m n m m m m n m n n m m n n n n m n m m n n n n m m m M M 2 # # O o o O O & O & & O X o o o o O o o O o O o o O O o O o X o O o o o O O O O O O O O O O O & & : = : : & O O o X O & = & O O O O O O O O & & O = = = : : = O : ~.#X.X#X#X#X#X#X#X&X#X#X#X#X#X#X#X#X&X&X#X#X&X&X&X&X&X&X#X#X#X#X#X#X#X#X#X#X#X#X#X#X#X&X&X#X#X#X&X#X#X#X&X&X#X&X&X&X&X&X#XoX}.L.v B N m m m m Z N m m m m m m m m m m m m m m m m m m m N N m m N Z m m m N N N m N N m m m m N m n m m m m n m m M v T n.B.t.h.g.f.d.d.d.j.j.c.x.j.j.j.j.j.j.j.j.j.j.j.j.j.j.j.j.j.j.j.d.j.j.j.j.d.j.d.j.j.j.j.d.j.j.d.j.j.j.j.j.j.j.j.j.j.j.j.d.j.j.j.j.j.d.j.j.j.j.j.j.j.j.x.j.j.j.j.j.j.j.j.j.j.j.j.j.j.j.j.s.j.j.j.j.j.j.j.j.j.j.d.j.j.j.j.j.j.j.d.j.j.d.j.j.j.j.j.j.j.j.j.j.j.j.j.j.j.j.j.j.j.x.j.x.x.j.j.j.x.x.j.j.j.j.j.d.j.j.j.j.j.j.j.j.j.j.j.j.d.j.j.j.j.j.j.j.j.j.j.x.j.d.j.j.j.j.j.j.j.j.j.j.j.j.j.j.j.j.j.x.x.x.j.j.j.j.j.j.j.j.j.j.j.l.i._.@X-X-X-X&X&X&X*X*X$X&X&X&X#X&X&X$X&X&X&X*X&X&X&X&X&X&X&X&X$X&X*X*X*X*X*X*X*X&X&X#X$X&X$X$X$X&X&X$X&X$X#X$X&X&X&X#X$X&X#X&X&X#X&X&X&X&X#X$X&X&X&X&X&X&X&X&X&X&X*X*X&X#X#X#X#X#X#X#X&X*X&X#X#X&X#X#X#X&X&X&X&X#X#X&X#X&X&X$X$X#X#X+XXXB.8.g.l.l.l.j.d.j.d.j.j.j.j.j.j.d.d.d.j.d.d.a.i.u.e.0.9.9.-.=.i u y | #.@.+.+.O.........................................................................o...o.o.o.X.X.X.@.%.%.%.$.$.$.#.&.| | ] 0 q % # . . . . .                             X * * ; y u =.-.-.-.6.7.7.9.9.9.9.0.9.8.w                         ",
"        . # b M n n n n n n n n n n n n n k c h k n c n n n z n n n n n n n n n n n n n n n n n n n n n n n n n n n n n n n n n n n n z n n n n n n n M l ,.}.'.'.[.[.[.].].].].].[.[.`.[.[.`.`.`.`.R.V.V.V.V.C.n.f f a a > : : O O O o o o o X o o X o O o f '.'.].].].].]..X.X].#X].].#X#X#X.X#X+X.X].].+X.X.X#X#X.X#X].].]..X.X].]..X].].].].].#X#X#X].].].]..X].].].].]..X#X#X#X#X{.}.L.K M N m m m n m m m m m n n z n n m m n n n n m n n m n m n n m n n n n m m n n n z n z n n n m m n m m m n m m n n n m m m m m m n n m m m m n n n n n m m m m m m m m m m m M v , @ # O O & O O O O O O O O O o o o o O O o o O o o o O O o O o X X o O O O O o O & O o & O O & & O O O O O O & o o o O O O O O O O O O O O O O O = = : : = = : = a ]..X#X#X#X#X#X#X#X#X#X#X#X&X#X#X&X#X#X#X&X#X#X#X&X&X&X&X&X#X#X#X#X#X&X#X#X#X#X#X#X#X&X&X&X&X&X#X#X&X&X#X#X&X&X&X&X&X&X$X$X{.}.W v B N Z N m N m m m m m m m m m m m m m N m m m m m m m N Z m N N m m m m m m m m m m m m m N m m m m m m m m m n n b m.B.h.g.d.x.j.l.j.x.d.j.j.j.j.j.j.j.j.j.d.j.j.d.j.j.d.j.j.d.j.j.j.j.j.j.j.j.j.j.d.j.j.j.j.j.j.j.j.j.j.j.j.j.j.j.j.j.j.j.b.j.j.j.j.j.j.j.j.j.j.j.j.j.j.j.j.j.j.j.j.j.j.j.j.j.j.j.j.j.j.j.b.j.j.d.j.j.d.j.j.j.j.j.j.j.j.j.j.j.j.d.j.j.j.j.j.j.j.j.j.j.j.x.j.j.j.j.j.j.j.j.j.j.x.j.j.j.j.j.j.j.j.j.j.j.j.j.j.j.j.j.j.j.d.j.j.j.j.j.d.j.j.d.j.j.j.j.j.d.j.j.j.j.j.j.j.j.j.j.j.j.j.j.j.j.j.j.j.j.j.j.j.j.j.j.x.c.x.j.j.j.j.j.j.j.j.j.a.g.@X@X-X=X*X*X&X*X*X&X$X&X$X#X&X&X$X&X&X&X&X*X&X#X#X#X#X#X#X#X#X*X*X*X*X*X*X*X&X#X&X&X&X$X&X&X*X&X#X#X#X#X#X#X&X&X&X#X#X$X&X&X$X#X#X#X$X$X&X&X&X&X*X*X*X*X&X&X&X&X&X&X#X#X#X#X#X#X#X#X&X*X&X#X#X#X#X#X#X#X&X&X&X&X&X&X&X$X&X&X&X#X#XXX).8.q.v.l.d.k.j.j.j.j.j.j.j.d.d.d.d.j.d.d.d.a.i.u.0.0.9.7.-.-.i u p } Y.$.%.%.%.%.%.%.%.%.%.%.@.@.X.X.X.+.+.+.@.X.X.+.+.+.+.+.+.+.+.+.@.@.@.@.@.@.@.%.%.%.%.%.%.%.$.#.&.&.| | ] G q q 5 % % % +                                         X * * w t u i =.-.-.-.7.8.9.7.7.7.9.9.0.0.9.8.i X X                     ",
"        @ , b n n n z z n n n n n n n n n n n n h n n n n n n n n n n n n n n n n z z n n n n n n n n n n n z k z n n n n n n n n n m M n n n n n n M v b D.}.'.'.].].'.].].].].].].[.[.`.[.[.[.`.[.`.`.`.`.`.R.V.V.V.n.n.f g a > : : : O o o o O o o O O O V.].[.].].].].].].].].].].]..X].].].].].].].]..X].].].].]..X.X].].].#X#X].].]..X].].].].#X+X#X.X].].]..X].].].].].].#X#X#X{.}.2.b M n m m m m m n n m m n m n n n n n n n n n n n m n n n n n m n n n m m m m n m n n m z z z n m N N m n n n m m n m n m n m m n n m n n m m m m m m n n n n n n m m m m m m M 2 , # o O o X o o O O O O o o o X X X o o O o O o o o O O o o o O O o o O O O O o O & O O O O O O O O O O O O o o X O O O O O O O O O O O O O O O & = = = = : = : O n.#X].].#X#X#X#X#X#X&X&X#X.X#X#X#X#X#X#X#X#X#X&X#X&X&X&X&X#X&X#X#X#X#X#X&X&X&X#X&X&X#X#X&X&X&X&X&X#X#X#X#X#X#X&X&X#X#X#X$X#X{.K.U M N N m N N N m m m m m N m m m m Z m m m m m m m N m Z N N m C C m m m N m m m m m m m m m m m m m m m m n n m m M 4 f T.z.j.j.d.d.d.j.l.j.j.j.j.j.j.j.j.j.d.j.d.d.j.j.d.d.j.j.j.j.j.j.j.j.j.j.j.j.j.d.j.j.j.d.d.j.j.j.j.j.j.j.j.j.j.j.j.j.b.j.j.b.j.j.j.j.d.d.j.j.j.j.d.d.j.j.j.j.j.j.j.j.j.d.j.j.j.j.j.j.d.j.j.j.j.j.d.j.j.j.j.j.j.j.j.j.d.j.j.j.d.d.d.d.j.j.j.j.j.j.j.j.j.x.j.j.j.j.j.j.j.j.d.j.j.d.d.j.j.j.j.j.j.j.j.j.d.j.j.j.l.c.x.j.j.j.j.j.j.j.j.j.j.j.d.j.j.j.j.j.j.j.d.j.d.d.d.j.j.j.j.j.d.j.j.j.j.j.j.d.j.j.j.j.j.j.j.j.j.j.j.j.j.j.j.j.j.d.i._.@X-X-X=X&X&X&X&X*X*X*X&X*X*X=X*X*X&X&X&X&X&X#X&X*X$X#X$X$X#X&X&X&X*X*X*X&X&X&X&X&X&X&X&X&X$X#X#X#X#X#X&X$X#X#X#X&X#X#X&X*X&X&X&X&X$X#X$X$X#X&X*X&X&X$X&X&X&X&X*X&X#X#X$X#X#X#X$X&X&X&X$X$X#X#X#X#X#X$X&X&X$X$X&X&X&X$X&X&X&X#X#X].).w.=.g.l.l.l.j.j.j.j.j.d.d.j.a.d.d.j.d.a.a.i.u.u.0.0.9.6.-.=.i u y 9 d 0 0 / / ' ' [ [ [ |  .&.#.#.#.#.&.&.#.#.#.#.#.$.#.#.$.$.#.#.#.#.#.#.#.#.#.} [ ' ' _ _ 0 0 q 5 % % $ $ $ $ + $ $ $ $ $ +                                   X * * w y u =.=.-.-.6.-.7.7.7.9.7.9.9.9.9.e.0.0.0.q.8.; X                     ",
"      . @ 2 v n n n n n h h n n n n n n n n n n n n n n n n n n n n n n n n n n n n n n n n n n n n n n n n k k n n n n n n n n n n n n m n n n n n n c U (.'.'.[.[.].].[.[.].].].].].[.[.[.[.[.[.[.[.[.`.[.`.`.[.`.V.V.V.C.n.n.f g a > : & O O O o O O o > ~.].].].].].].[.].].[.].[.].]..X.X+X.X#X.X.X].].].].].].].].].#X]..X.X#X#X.X]..X].].]..X].#X.X.X.X]..X].].]..X#X#X.X].{.{.{.(.R c M m n n m m n m n n m m m m n n n n n n n n n n m m n n n n n m m m m n n n n n n n n m n n z z z n m m m m m m m m m n m m n n n n n m m m m m m m m n n n n n m m m m m n M < @ # O o O O o o O o O = O o O O O X o o O O O O o o O O O o o X O O o O O O O O O O O O o & & O O O O O O & & O X o o o O O O O O O O O O O & O O = = = = = : O > ~.]..X.X.X#X&X#X#XoX#X#X#X#X#X#X#X#X#X#X.X#XoX#X#X#X#X&X&X&X&X&X&X#X#X#X&X&X&X&X&X&X&X&X&X&X&X&X&X#X&X&X#X&X&X#X$X$X#X#X#X{.}.D.v B N m m m m m m m m m m m m m m N N Z m N A m m m N m N A N N m N m m m N m m m m m m m m m m m N A N m m m n n n M b s B._.l.d.d.j.j.j.j.j.j.j.j.j.j.j.j.j.j.j.j.j.j.j.j.j.j.j.j.j.l.j.j.j.j.j.j.j.j.d.d.j.j.j.j.j.c.c.j.j.j.j.j.j.j.j.j.j.j.j.j.j.j.b.d.j.j.j.j.d.d.j.j.j.j.j.d.d.d.j.d.d.d.j.j.j.j.j.j.j.j.d.j.j.j.j.d.j.j.j.j.j.j.j.j.j.j.d.j.j.j.j.j.d.j.j.j.j.j.j.j.j.j.j.j.j.j.j.j.j.j.j.j.d.d.j.j.d.j.d.j.j.b.b.b.j.j.j.j.j.j.j.x.l.j.j.j.j.j.j.j.j.j.j.j.j.j.j.j.j.j.j.j.d.j.d.j.j.j.j.d.j.j.j.d.j.j.j.j.j.j.j.j.j.j.j.j.j.j.j.j.j.j.l.j.j.j.l.i.T.@X-X=X=X=X*X*X*X*X*X*X*X*X&X&X*X&X&X&X&X&X&X#X#X*X*X&X&X&X&X&X&X&X&X&X&X&X&X&X&X$X&X&X#X#X#X#X&X&X&X&X&X#X#X#X#X&X&X#X#X&X*X*X*X*X*X&X&X&X&X&X&X&X&X&X$X$X#X&X&X&X&X&X#X$X&X&X&X&X&X&X&X$X#X#X#X#X&X&X*X*X&X&X#X#X#X$X&X&X&X&X#X#XXXT.;.q.l.l.d.d.j.j.d.j.d.d.d.d.d.d.d.d.d.d.i.u.e.0.9.9.6.-.-.i u y w ; $ $ $ $ $ $ % $ % % % % % % % % % % % % % 5 5 5 5 5 q q 5 % % % % % % % % % % $ $ $ $ + + $ $ $ $ $ $ ; ; ; ; ; ; ; ; ;                               X * ; t u i -.-.-.6.7.9.7.7.7.7.9.9.9.9.0.0.0.e.e.e.e.r.q.u X X X X               ",
"      . # 4 v n n n n n n n n z n n n n n n n n n n n n n n n n n n n n n n n n n n n n n n z n n n n n n n c n n n n n n n n n z n n n n n n n n n n l W }.'.[.[.[.'.'.'.[.].].'.[.].[.[.`.[.].[.[.[.[.[.[.[.`.[.[.`.`.R.V.V.V.C.C.n.f g a a > : & O O o f ].'.]..X.X].].].[.[.[.].].].].].#X#X].#X#X#X+X.X]..X.X.X+X.X].]..X.X.X.X]..X.X].].[.].#X#X].#X#X.X.X#X#X].].+X.X#X#X.X].{.}.K.b M N m m n n n n m m m m m m m m m m n n n z n n n m m n n n n n n n n n n n n n n n n n n n n n n n z z z n n N N N N m m m m m m m m m m m m m m m m m n n n n n n m m m n M b , @ . O O O O O o O O O O O o O O O o o o X O O O o O O O O O O O X o o O O O O O O O O O O o O O = O O & O O O O O O o o o o o O O O O O O = = & & O & = = = : O g #X#XoX#X#X#X#X#X#X&X#X#X#X#X#X#X#X#X#X#X].]..X.X.X#X#X#X#X&X&X&X&X&X&X&X&X&X&X&X&X&X&X&X&X&X&X&X#X&X&X&X&X#X&X#X#X#X&X#XoX{.}.W v B m m m m m m m m n m m m m m m N m m N m N N N m m m m m m N m N N m m N N m N m N N Z Z N Z N m m N m n m n n n c b 4 :.T.g.j.j.j.j.j.j.j.j.j.j.j.j.j.j.d.j.j.d.j.j.j.j.j.j.j.j.j.j.j.j.j.j.j.j.j.d.j.d.d.d.j.j.j.j.x.j.j.j.j.j.j.j.j.j.j.j.j.j.j.j.j.j.j.j.j.j.j.d.j.j.j.j.j.d.j.j.j.d.j.j.j.d.j.j.j.j.j.j.j.j.j.j.j.j.j.j.j.j.j.j.j.j.j.j.j.j.j.j.j.j.j.j.j.j.j.d.d.d.j.j.j.j.j.j.j.j.j.j.j.j.j.j.j.j.j.d.j.j.d.j.j.j.j.j.j.x.j.j.j.j.j.j.j.j.j.j.j.j.j.j.j.j.d.j.j.j.j.j.j.j.j.d.j.j.j.j.j.j.j.j.j.j.j.j.j.j.j.j.j.j.j.j.j.j.j.j.j.j.j.j.j.j.j.j.l.d.t.@X@X-X&X&X&X&X&X&X&X*X*X*X&X&X&X&X&X&X*X&X&X&X$X&X&X&X&X*X&X&X&X&X&X$X&X&X*X#X#X#X#X$X#X&X&X*X&X#X#X#X#X#X#X#X#X$X&X$X#X#X#X#X#X$X&X&X&X&X&X&X&X&X#X#X#X&X&X&X&X&X&X&X&X&X&X&X&X&X#X&X#X#X#X#X#X#X&X&X*X&X&X$X$X$X#X#X#X&X&X#X#X.X].).w.=.g.d.j.d.d.j.j.j.d.d.d.d.d.d.d.d.a.i.u.u.e.0.9.9.6.-.-.i u t t t ; ; ; $ ; $ $ $ $ $ $ $ $ $ $ $ $ $ $ $ $ $ $ $ $ $ $ $ $ $ $ $ $ $ $ $ $ $ $ $ ; ; ; ; ; ; ; ; ; ; ; ; ; w t t t t t t ;                       X * ; t u i =.-.-.-.6.8.8.9.9.9.9.9.0.0.0.e.0.0.e.0.e.e.u.u.r.r.;.* X X X               ",
"      . , l c n n n n n n n n n n z h k c k n n n n n n n n n n n z n z n n n n n n n n n n n z z n n n n n n n n n n k n n n n n n n n n n n n n M v b D.}.'.'.[.[.[.].].].[.].[.[.].[.[.[.[.[.[.[.[.[.[.[.[.[.[.[.[.[.`.`.`.R.V.V.V.V.C.n.n.f g a > > > C..X].]..X]..X].].].].].].].].].]..X#XoX#X#X#X+X#X].].].]..X.X]..X.X#X#X].].[.].].].].].#X#X].].].].]..X#X.X.X.X].+X#XoX].{.}.m.b M m m n m n m n n m m m m n n m m m m m n n z n n n n n n n n m n n n n n n n n n n n m n n m m m m m m m n n z z m N N N N m m m m m m m m n n n n n m m n n n n m n n m n M 4 # # = O & O O O o o o o O O o O O o O o o X o o o o O O O O O O O o X O o O O O O o O O O O O o O : & o O & = = & O o O O O O O o o O O O O O O & = O O O O = = & C.#X].oX#X#X#X&X#X#X#X#X#X#X#X#X#X.X#X#X#X#X.X.X.X.X.X#X#X#X#X#X#X#X#X&X&X&X&X&X&X&X&X#X&X&X&X&X&X&X#X&X&X&X&X&X&X&X#X#X#XoX{.K.U M N m m n n m n m m n m m m m m m m m N m m m m m m m m m m m m m m m m m m m m N m N m N N m m Z Z A m m n n n n z c c 4 s B.g.j.j.j.j.j.l.j.j.j.j.j.j.j.j.j.d.d.d.j.j.j.j.j.j.j.j.j.j.j.j.j.j.d.j.j.j.j.j.j.j.d.d.j.j.j.j.j.d.j.j.j.j.j.j.b.j.j.j.j.j.j.j.j.d.j.d.j.d.j.d.j.j.j.j.j.j.j.j.j.j.j.j.j.j.j.j.j.j.j.d.j.j.j.j.j.j.j.j.j.j.j.j.j.j.j.j.j.j.j.j.j.j.j.j.j.j.d.j.j.d.j.j.j.j.j.j.j.j.j.j.j.j.j.j.j.j.j.j.j.j.j.j.j.j.x.x.j.j.j.j.j.j.j.j.j.j.j.j.j.j.j.j.j.j.j.d.j.d.j.j.j.j.j.j.j.j.j.j.j.j.j.j.j.j.j.j.j.j.j.j.j.j.j.j.j.j.j.j.j.j.j.j.j.l.l.l.i._.@X-X-X-X&X&X&X&X&X&X&X&X&X&X&X&X&X&X&X*X*X&X&X&X$X&X&X*X&X&X&X&X&X&X&X&X&X&X#X&X#X#X#X&X*X*X&X&X#X#X&X#X#X#X$X&X#X#X&X#X#X#X#X#X#X&X&X&X&X&X#X#X#X#X#X#X&X$X&X&X&X*X*X&X#X#X#X$X#X#X$X&X&X#X#X&X#X#X$X#X#X#X#X#X$X#X#X#X#X#X#X.X].).B.;.r.z.x.j.j.d.j.j.d.d.d.d.d.d.d.d.a.i.u.u.u.0.0.9.-.-.-.i u u t t w ; ; ; ; ; ; ; ; ; ; ; ; ; ; ; ; ; ; ; ; ; ; ; ; ; ; ; ; ; ; ; ; ; ; ; ; ; ; ; ; ; ; ; ; ; w w w t t t t t t t u u u u w                   X * w y i -.-.-.-.7.9.7.7.0.9.9.9.0.9.0.0.0.0.e.e.e.e.e.e.e.u.i.i.r.q.t X   X X       X X X ",
"    . @ 2 b c n n n n n n n n n n n k k k k n n n n n n n n n n n n n k k n n n n n n n n n n n z n n n n n n n n n n n n n n n n n n n n n n n n n l I K.}.'.[.[.[.].].].].].].].].].].[.[.].].[.].].].[.[.[.`.[.[.[.[.[.[.`.`.`.`.R.R.V.V.V.V.n.n.>.n.V.[.].].].].]..X].].].].].]..X.X].].].+X#XoXoX.X#X#X{.].].].].].].].].].#X].oX].'.'.].].].].]..X].].].].].oX#X#X#X.X].].{.{.'.K.U v B m n m m n m n n m m m m n n m m n m m n n n n z n n z n n n m m n n n n n n n n n n n n n n n n m m m m m m n n n z n n m N N N m m n n m m m m m m n m m n m n n n n n n c 2 @ @ O o X o o X o o O O o o O o O O O O o O O o o o O O o O O O O O O O O O O O O O O O O O O o O O O O o O O O O O O O & O & & & & O & O o O O & & & & = O = = > `.oX].#X#X#X&X&X&X&X&X#X#X#X#X#X&X#X#X#X&X&X&X#X#X#X#X#X#X#X#X#X#X#X#X#X#X#X#X&X&X&X&X#XoX#X&X&X&X&X#X#X#X&X&X&X&X&X&X#X#XoX}.L.K B N N m m m m m m m m m m m m m m m m m m m m m m m m m m m m m m m m m m m m m N m m m m m N m A Z m m m m n n M k k l 4 r C.z.l.x.j.j.j.j.j.j.j.j.j.d.j.j.j.j.j.j.j.j.j.j.j.j.j.j.j.j.j.j.j.j.d.j.j.j.j.j.j.j.j.j.j.j.j.j.j.j.j.j.j.j.j.j.j.j.j.j.j.d.d.d.j.j.j.j.j.j.j.j.j.j.j.j.d.j.j.j.j.j.j.j.j.j.j.j.j.j.j.j.j.j.j.j.j.j.j.j.j.j.j.x.j.j.j.j.j.j.j.j.j.j.j.j.j.j.j.j.j.j.j.j.d.j.j.j.j.j.j.d.j.j.j.j.j.j.j.d.j.j.j.j.d.j.d.d.j.d.j.j.j.x.x.x.j.j.j.d.j.j.j.j.j.d.j.j.j.j.j.j.j.j.j.j.j.j.j.j.j.j.j.j.j.j.j.j.j.j.j.j.j.j.j.j.j.b.j.j.j.x.j.j.j.j.l.l.k.g.@X-X-X-X-X&X&X&X&X&X&X&X#X#X&X&X&X*X&X&X&X&X&X&X*X&X&X&X&X&X&X&X&X*X&X&X&X&X&X&X#X#X$X#X#X&X&X&X#X#X#X#X$X&X#X#X#X#X#X#X#X#X#X#X#X#X#X$X&X#X#X#X#X#X#X#X$X#X$X&X$X&X&X$X$X$X&X&X&X&X&X&X&X&X&X$X#X#X#X#X#X&X#X#X#X#X#X#X#X#X#X#X.XXX).y.8.z.l.j.d.d.d.k.a.d.d.d.d.d.d.d.a.i.u.e.e.0.9.7.7.-.-.=.u u t t t w w w ; ; ; ; ; ; ; ; ; ; ; ; ; ; ; ; ; ; ; ; ; ; ; ; w w ; w ; ; t t w w t t t t t t t t t t t y u u u u u u u u i u p *           X * ; t u i =.-.-.6.8.9.9.9.9.9.0.0.0.0.0.e.e.0.e.e.e.e.e.u.u.i.i.i.i.i.i.r.;.*     X         X X ",
"    . @ 4 c c n n n n n n n n n n n n n k k k n z n n n n z n n z n n k k k k z V n n n n n n n n k z z z n n n n n n M n n n n n n n M n n n n n M l W }.'.'.'.[.[.'.'.].].].].].].].[.[.[.].].].[.].].[.[.[.[.[.[.[.[.[.[.[.[.`.[.`.`.`.`.`.R.V.V.V.V.[.]..X].].].].]..X[.].].].].].].]..X+X.X+X.X#XoX#XoX].oX#X{.].].{.].].].].#XoXoXoX].].].].].#X#X.X.X].].].]..X#X#X.X].].[.'.'.L.K c m m m m m m n m m n m n n n n n n m m N N m m n n n n n n n n n n n n m m n n n n n z n n n n m n n n n n n m m n n n n z n z n m m N N m m m m m m m m n n m m m m n n n v b , # .   o o o o o X o o O o O O O o o o o o o O o X o O O O o O O O o o o O o X O O O O O O o O O O O o O O O O O O O O O O O O O & & O O O O O & & & & O O O = O g .X#X].#X#X#X#X#X#X&X&X&X&X&X&X#X#X#X#X#X#X#X&X&X&X&X#X#X#X#X#X#X#X#X#X#X#XoX#X#X&X#X#X&X#X#X#X#X&X&X#X#X#X#X#X&X&X&X*X&X$X{.}.2.v B m m m m m m m m m m m m m m m m m m n m m m m m m m m m m m m m m N N N m m m m m m N N m N N N m m n n n n c M c l l 4 3 :.T.z.d.j.j.j.j.j.j.d.d.j.d.j.j.d.j.j.j.j.d.d.j.j.j.j.j.j.j.j.d.j.j.j.j.j.j.j.j.d.j.j.j.j.j.j.j.j.d.d.j.j.d.d.j.d.d.j.j.j.j.j.j.j.j.d.j.d.j.j.j.j.j.j.j.j.d.j.j.j.j.j.j.j.j.j.j.x.j.j.j.j.j.j.j.j.j.j.j.j.j.j.j.j.j.j.d.j.j.j.j.j.j.j.j.d.d.j.j.d.j.d.j.j.j.j.j.x.j.j.j.j.j.j.j.j.j.j.j.j.j.j.j.j.j.j.j.j.j.j.j.j.j.j.j.j.j.j.j.j.j.j.j.d.j.j.j.j.j.j.j.j.j.j.j.j.j.d.j.x.c.j.d.j.j.x.x.d.j.j.d.j.j.j.j.j.j.j.j.j.j.x.x.j.j.j.j.k.g._.@X-X-X&X*X*X*X&X&X&X&X&X&X&X#X&X&X&X#X$X&X$X#X$X$X&X&X&X*X*X&X&X&X&X&X&X#X&X&X#X#X$X$X&X$X&X&X&X&X&X&X&X#X$X#X#X#X&X#X#X#X#X#X#X#X&X&X&X&X&X#X#X#X#X#X$X$X#X#X#X#X#X#X$X$X&X&X&X&X$X$X$X&X&X$X#X#X#X#X#X&X&X$X$X#X#X$X&X$X#X#X+X+X).B.;.g.d.d.d.d.j.k.d.d.d.d.d.d.d.d.a.i.i.u.e.0.9.9.7.-.-.=.i u u t t t t t t t t t t t t t t t t t t t t t t t t t t t t t t t t t t t t t t t t t t t t u u u u u u u u u u i i i =.=.i i i w       * ; w u i =.-.-.6.7.9.9.9.9.9.0.0.0.0.0.0.0.e.e.e.e.e.e.e.e.e.u.i.u.i.i.i.a.u.e.q.; X X X X   X X X X ",
"    . , 4 c c n n n n z z n n n n n n n c c c c k n n n n h h n n n n z n n n n n n n n n n n n n z z n n n n n n n n n n n n n n n n n n n m n n c b D.}.'.].'.].[.[.'.`.[.[.].].].].].[.[.[.[.].[.].].].].[.[.[.[.[.[.[.[.[.[.[.[.[.[.[.[.[.[.[.`.`.`.[.].].].].].].].+X].].].].[.'.].].].]..X+X#XoX#X#X#X#X#X#X#X#X#X#X#X#X#X].oX#XoX#XoX.X].].].].].]..X].].].].].#X#X#X{.].].'.}.W b M n m n N m N N m n n n n n n n m n n m m m m m m n n n n n n m m n n n n m n n n n n n n n n n n n n n n m m m m n n n n n n n n n n n m N m m N N m m n m m m n n m n n M v 4 # @ O o o O O o o X o X X X O o O O O O O O O O X o O o o o o O O O o O X o o o O O O O O O O O o O O o O O & & = = O O O o o O O O O O O O O O O O O O O & O = = C.&X.X#X].#X#X#X#X#X#X#X#X#X#X#X#X#X&X&X#X#X#X#X&X&X#X#X#X#X#X#X#X#X#X#X#XoX.X#X#X#X#X#X#X#X#X#X#X#X&X#X#X#X#X#X#X&X#X#X&X$X{.(.U M N Z N m m m m m m m m m m m m m m m m n n n m m m m m m m m m m m m m N Z Z Z m m m m N N N m m n m n n n n k k c k j l l 2 a B.z.l.j.j.j.j.j.j.j.d.d.d.j.j.j.d.j.j.j.j.d.d.j.j.j.j.j.j.d.j.j.j.j.d.j.j.j.j.j.j.j.j.j.j.j.j.d.d.d.d.d.j.j.j.j.d.j.j.j.j.j.j.j.j.j.d.d.d.j.j.j.j.j.b.x.j.d.j.d.j.j.j.j.j.j.j.x.x.j.j.j.j.j.j.j.d.j.j.j.j.j.j.j.j.j.j.j.j.j.j.j.j.j.j.j.j.j.j.d.d.d.d.j.j.j.j.j.l.j.j.j.j.j.c.j.j.j.j.j.j.j.j.j.j.j.j.j.j.j.j.j.x.j.j.j.j.j.j.j.j.d.d.d.d.j.j.j.j.j.j.j.j.j.j.j.j.j.l.j.j.j.j.j.j.j.x.j.d.j.j.j.l.j.j.j.j.j.j.j.j.j.j.j.j.j.j.j.g.g.@X-X=X*X*X*X&X&X&X&X&X&X&X&X&X&X&X&X&X&X$X#X$X&X&X&X&X&X&X&X&X&X$X#X#X$X#X#X&X&X&X#X#X&X#X&X&X&X&X$X$X#X#X#X#X#X#X#X#X#X#X#X#X#X#X&X&X&X*X&X#X#X#X#X#X#X&X#X#X&X$X#X#X#X&X&X&X$X&X&X&X#X#X$X#X#X&X&X&X&X&X$X#X#X#X$X#X&X&X#X&X#X.XXX).y.q.l.d.j.d.d.k.d.d.d.d.d.d.a.a.a.i.i.u.u.0.0.0.7.6.-.-.=.i u u u u u u t t y t t t t t t y t u u u t t t t t t u t u u u u u u u u u u u u u u u u u u u u i u i i i =.=.=.=.=.-.-.-.-.=.i * * ; y i =.-.-.6.7.9.9.9.7.9.9.9.0.0.0.0.0.0.0.e.0.e.u.u.i.u.u.u.u.u.u.p.p.a.i.a.u.e.q.u X X X     X X X   ",
"  . @ 2 b c c n n n n n n h h n n n n z z c k c c n n c c h h n n n n n n n n n n n n n n n n n n n n n n n n n n n n n n n n n n n n n n n n n M v U (.}.{..X'.].].'.'.[.[.[.[.].].].].[.[.[.[.[.[.[.].].].].].[.[.[.].[.[.'.[.[.[.[.[.[.].].[.[.[.[.].[.].].].].#X].].].].].].].].].].].].].]..X.X.X.XoX#X#X#X#X#X#X#XoX#X#X#X#XoX#X#X#XoXoX].].].].].].].].].].].].].].].].].].'.K.U c M n n m m m m N N m m m n n n n m m m m n n n n n n n n n n m n n m m m m n n n n n n n n n n n n n n m m m m n n n n n n n n n n n n n n n n m m m N B N m n n n m m m n M b 2 @ . o o O o O O o o X X X X o X O O O & & O O O o o o o X o X X O o o O o O O O o o O O o o O o o O O O O O O O & : : & O O O O O O O O O & O O & = & O O & O = > ~.#X#X#X#X#X#X#X#X#X#X#X&X#X#X#X#X#X#X&X#X&X&X#X&X&X&X&X&X#X#X#X#X#X#X#X#X#X#X#X#X#X#X#X.X.X.X#X#X#X&X#X#X#X#X#X#X&X&X#X#X{.}.K.v B N N N N N N m m m m m m m m m m m m m m m n m m m m m m m m m m m m m m N N N N m m m m m m m m n m n n n k k h h l j j j 2 1 y.g.l.j.j.j.j.j.j.j.j.j.j.d.d.j.j.d.j.j.j.j.d.d.j.j.j.j.d.d.j.j.j.j.j.d.j.j.j.j.j.j.j.j.j.j.j.j.j.d.j.j.j.j.j.j.d.j.j.j.j.j.j.j.j.d.j.x.j.j.j.j.j.j.d.j.j.j.j.j.d.j.j.j.j.j.j.j.d.j.j.j.j.j.j.j.j.j.j.j.j.j.j.j.j.j.j.j.j.j.j.j.j.j.j.j.j.d.j.j.d.j.j.j.j.j.j.j.j.j.j.j.x.j.l.j.j.j.j.j.d.j.j.j.j.j.j.j.j.j.j.j.j.j.j.j.j.j.j.j.j.j.d.d.d.j.j.j.j.j.d.j.j.j.j.j.j.j.j.j.j.j.j.j.j.j.j.j.j.j.j.j.j.j.d.j.j.j.j.j.j.j.x.j.j.j.j.j.d.g._.-X=X*X=X-X&X&X&X&X&X&X&X&X#X&X&X&X&X#X#X$X&X&X&X#X#X$X&X&X$X&X&X#X#X&X&X#X$X&X&X&X&X&X#X#X#X#X#X#X#X#X&X&X&X&X&X&X#X#X#X#X#X#X#X$X#X#X#X#X$X#X#X#X#X#X&X#X#X#X#X#X#X&X&X&X&X&X&X&X#X#X#X#X$X&X&X&X$X$X$X#X#X$X#X&X#X&X&X$X#X#X+X].`.B.8.g.d.j.j.j.j.j.d.d.d.d.d.d.a.i.u.i.u.e.0.0.9.7.6.6.-.-.=.i i i u u u u u u u u u u u u u u u u u u u u u u u u u u u u u u u u u u i i i i i i i i =.=.=.=.=.=.=.-.-.-.-.-.-.-.-.-.6.-.=.t u =.;.-.7.7.7.9.9.9.9.0.9.0.0.0.0.0.e.e.e.e.u.u.u.u.u.i.i.u.i.i.i.p.i.i.a.a.a.a.p.u.0.8.; X   X X         ",
"  . @ 4 v c k n n n n n n n z n n n n n n n c c c c n c h h c n n n n n n n z z n n n n n n n n n n n n z n n n n n h h z n n n n n n n n n n n M b W }.{.{..X.X].].].].].[.].].[.[.[.].[.[.[.[.[.[.].].[.].[.].].].[.[.[.[.[.'.[.[.[.[.[.[.].].].].].].].].].].].].].].].].].].].]..X]..XoX].].]..X.X.XoX#X#X#X#X#XoXoXoXoXoX#XoX.X#X.X#X#X#X.X].].].].].]..X.X].].].].].].].].'.'.S.K v n n n n m m n m m m m m m n n n n n n m n n n n n n n n n m m n m m m m n n n n n n n n n n n n n n n n n m n n n n n n n n n n n n n n n n n n z z z n m N N m M m m m n n b , @ O o X o o O = & O o o X o o o o o o o O & O O O O O O O o o o o o o X o O O o o o o o o o O O & o O O O o & O O & & & O O O O O O O O O & & & & : & O = O = & 9 '..X#X#X#X#X#X#X#X#X#X#X#X#X#X#X#X#X#X#X#X#X#X#X&X&X&X#X&X#X#X#X#X#X#X&X&X#X&X#X#X#X#X#X#X#X#X#X#X#X#X#X&X#X#X#X#X&X&X#X#X{.}.W v N N N m N Z N Z m m m m m m m m m m m m N m m m m m m m m m m m m m m m m m N m m m N N m N m m m m n m n n c k h l l l j < 2 1 g T.g.j.j.j.j.j.j.j.j.j.j.j.j.j.j.j.j.j.j.j.j.d.j.j.j.j.d.d.d.j.d.j.j.j.j.j.j.j.j.j.j.j.d.j.d.j.j.j.j.j.j.j.j.j.j.j.j.j.j.j.j.j.j.j.j.j.x.j.j.d.j.j.j.j.j.j.j.d.d.j.j.j.j.j.j.j.j.d.j.j.j.j.j.d.j.j.j.j.j.j.j.d.j.j.j.j.j.j.j.j.j.j.j.j.j.j.j.j.d.j.d.j.j.j.j.j.j.j.j.j.j.j.d.j.j.j.j.j.j.j.j.j.j.j.j.x.j.j.j.j.j.j.j.j.j.j.j.j.d.d.j.j.j.d.d.j.j.j.j.d.d.j.j.j.j.j.j.j.j.j.j.j.d.j.j.j.j.d.j.j.j.j.j.j.j.j.j.j.j.j.x.x.j.j.j.j.j.i._.@X-X=X=X=X=X&X&X&X&X&X&X&X&X&X&X&X&X#X#X#X#X#X#X#X#X&X#X$X&X$X&X$X#X#X#X&X&X&X&X&X&X&X&X&X#X#X#X#X$X$X&X&X#X#X&X&X#X#X#X#X#X#X#X#X#X#X$X&X&X&X&X#X#X#X#X#X#X#X#X#X#X$X&X$X&X&X#X&X&X#X#X#X#X#X#X#X#X#X#X&X&X&X$X#X#X&X&X#X$X#X#X.XXXR.8.r.l.j.j.d.j.d.a.d.d.d.a.d.d.a.u.u.e.e.0.9.9.9.9.7.6.-.-.-.-.=.=.i i i i i i i i =.i i i i i i i i i i i i i i i i i i i i i i =.i i =.=.=.=.=.-.-.-.-.-.-.-.-.-.-.-.-.-.-.6.6.6.7.9.8.=.u =.8.7.9.9.9.0.9.9.9.9.0.0.0.0.0.0.e.e.u.u.i.u.u.u.i.i.i.i.i.i.i.i.p.i.i.a.a.a.a.p.p.u.r.u X X   X X X     ",
". . , b c c n n n n n n n n n z k n n n z n n n k k c c c c n n n n n n n n n n k k z n n n n n n n n n n n n n n n c h c n n n n n n z n n n z M b S.}.{.]..X].].].].].].].].].].].[.[.[.[.[.[.].].[.[.].].].].].].].[.[.[.[.].[.[.[.].].[.[.[.[.[.].].].].].].].].].].]..X].].].].].].]..XoX.X.X.X].{.{.{.{.#XoXoXoX].].].].].oXoX]..X]..X].].].].].].].].].]..X.X].].{.{.].].'.~.2.v M n n n m m m n m m m m N m n m m m n n n n n n n n n n n n n n n m m m m n n n n n n n m n n m n n m n n m m n n n m n m m m m m n n n n n n n m n n n z n z n m N N N N M M b , @ O X X X o o o o O o o o O O o O X X X O O O O & O O O O O & & O X X o o o O X X o X o O O O O O O O O O O O O O O O O O O O O O O O O o & = O & O O & & & : = n.#X.X#X#X#X#X#X#X#X#X#X#X#X#X#X#X#X#X#X#X#X#X#X#X#X#X&X&X#X&X#X#X#X#X#X#X&X&X&X#X&X&X#X&X&X&X&X#X&X#X#X#X#X#X#X#X#X&X&X&X#X}.K.U M N N N m m N m m m m m m m m m N N m m m m m N m m m m m m N m m m m m m m m m m m m m m m m m m n n m n n n c k k l l j 2 2 2 1 > t.z.l.j.j.j.j.j.j.j.j.j.j.j.d.j.j.j.j.j.j.j.j.j.j.j.j.j.j.j.j.j.d.j.j.d.j.j.j.j.d.j.j.j.j.j.j.j.j.j.j.j.j.j.d.j.d.d.j.j.j.j.j.j.j.j.j.j.j.j.j.j.j.d.d.j.j.j.j.j.j.j.j.j.j.j.j.j.j.j.j.j.j.j.j.j.j.j.j.j.j.j.j.j.j.j.j.j.j.j.j.j.j.j.j.j.j.j.j.j.j.j.j.j.j.j.j.j.d.d.j.j.d.j.j.j.j.j.d.d.j.j.j.j.j.d.d.j.j.j.j.j.j.j.d.d.j.j.j.j.d.j.j.d.j.j.j.j.j.j.j.j.j.j.j.j.j.j.j.j.j.j.j.j.j.j.j.j.j.j.j.j.x.j.d.j.j.j.j.j.j.d.d.j.d.j.j.d.a.t.@X-X-X-X-X=X=X&X&X&X&X&X&X&X&X&X&X#X#X&X&X#X&X&X$X#X$X&X&X#X#X$X#X#X#X&X&X&X&X&X&X&X$X#X#X$X$X$X#X#X#X#X#X&X&X#X#X#X#X#X#X#X$X#X#X#X&X&X&X#X#X#X#X#X#X#X#X#X#X$X#X#X#X&X&X$X&X&X&X#X#X#X#X#X#X#X#X#X#X#X&X&X&X$X&X&X&X&X#X#X#X#X#X.X).w.8.z.d.j.j.d.j.j.d.d.d.d.a.d.i.u.u.u.e.0.0.9.9.9.7.7.-.-.-.-.-.-.=.=.=.=.-.-.-.-.-.-.=.-.=.=.=.=.=.=.-.-.=.-.-.-.-.-.-.-.-.-.=.-.-.-.-.-.-.-.-.-.-.-.-.-.6.-.-.7.7.7.7.7.7.7.7.7.7.7.9.7.u -.9.0.0.0.0.0.9.0.0.0.e.0.e.u.u.u.u.u.i.u.u.u.u.i.i.u.u.u.i.a.i.a.a.a.a.d.d.a.d.d.p.i.r.8.* X       X     ",
". @ < v c n n n n n n n n z n n z n z k n n n z k k n n n c h k n n n M n n n z k z z z n n n n z z n n n n n n n n n n z n n n n n n n z n n n v U (.}.{.].].].].]..X].].].].[.].].].].[.[.].[.].].].].].].].].[.[.[.[.[.[.[.].].[.].].[.].[.[.].[.[.].].].].].[.[.].].]..X].].].].].].].]..X.X#X#X{.{.OX}.OXOX}.{.{.{.].].].].].oX].{.{.].].].].].]..XoXoXoX#X.X#XoX].].].].'.'.K.U v M n n n m m m m n m m n m n n m m m n n n n n n n n n n n m m n n n m m m m n n n n n n n m n n n n m m m m n n n n n m m m m m m m n n n n n n m n n n n n n n V n n n N B M 2 @ . X X o X O O o X o o X O O O O O o X o o O O O o o O O O = O : : & & O o o O O X o o o o o o o O O o o o O O O O o O O O O O O O = = O o O O O & & O = = : : : R.#X#X.X.X#X#X#X.X#X#X#X#X#X#X#X#X#X&X#X#X#X#X#X#X#X#X#X#X&X#X#X#X#X&X&X#X#X#X&X&X&X#X#X#X#X&X&X&X&X#X&X&X#X&X#X#X#X#X#X&X#X}.L.L B N m m m m m m m m m m m n m m m m m m m m m m m m m m m N Z N m m m N m m m m m m m m m m m n m m n n n n c c k l l j < < < < 2 - :._.l.j.j.j.j.j.j.j.j.j.j.j.j.j.d.d.j.j.j.j.j.j.j.j.j.j.j.j.j.j.j.j.j.j.j.j.j.d.j.j.j.j.j.j.j.j.j.j.j.j.j.j.d.d.d.j.j.j.j.d.j.j.j.j.j.j.j.j.j.j.j.j.d.d.d.d.j.d.j.j.j.j.j.j.j.j.j.j.j.j.j.j.j.j.j.j.j.d.j.j.j.j.j.j.j.x.j.j.j.j.j.j.j.j.d.j.d.j.j.d.j.j.d.j.d.j.d.j.l.j.j.j.j.j.j.j.j.j.d.d.j.j.j.d.j.j.d.j.j.j.j.d.j.j.d.j.j.j.j.j.d.d.d.d.j.j.d.j.j.j.d.d.d.d.j.j.j.j.j.j.j.j.d.j.j.j.j.d.j.j.j.j.j.j.j.j.j.d.j.j.j.d.d.d.d.d.z.t._.-X=X&X*X-X&X&X#X&X&X*X&X&X&X&X&X&X&X#X#X#X#X$X#X#X&X&X#X#X$X#X#X#X#X#X&X&X&X&X&X*X&X$X#X&X&X&X&X#X#X#X&X&X&X$X$X#X$X#X#X#X$X&X&X&X#X#X#X#X#X#X&X&X&X&X$X#X#X#X#X#X#X&X&X$X#X#X#X#X#X#X#X#X#X#X#X#X#X#X#X#X$X$X$X&X&X&X#X#X#X#X#X+XXXB.;.g.d.j.j.j.j.j.j.d.d.d.a.a.a.i.i.i.u.u.e.0.0.9.9.7.7.6.6.-.-.-.-.-.-.-.-.-.-.-.-.-.-.-.-.-.-.-.-.-.-.-.-.-.-.-.-.-.-.-.-.-.-.-.-.-.-.-.-.6.6.7.7.7.9.7.7.9.7.7.7.7.7.7.9.9.0.0.0.9.9.7.7.9.0.0.0.0.0.0.0.e.e.e.e.e.u.e.u.u.u.u.i.u.u.u.p.u.p.i.i.i.a.a.a.a.a.a.a.d.a.a.d.d.a.a.i.q.t X X   X X   X ",
". # 4 c n n n n n n n n n n k k n n n n n n n n n k n n n z k n n n n n n n n n k k k k n n n n n n z n z n n n n n n n z n n n n z n n z z n M v 2.}.}.].].].[.].'.].]..X.X].].].].[.].].[.[.].].[.].].].].].].].[.[.`.[.[.].[.[.[.[.[.[.[.[.[.[.].[.[.[.].]..X].].].].].]..X].]..X.X]..X].]..X.X].{.}.m.m.S.(.}.}.}.OX{.{.{.{.{.{.'.{.oX{.{.oX].].oX#X#XoX.X#X#X#XoX].].].].'.(.D.b c m m m m m m m n n n n n m m m n n n n m n n n n n n n n n n n m m m m m m m m n n n n n n m m n n n n n m N m n n m n n m m m m m m m m m n n n m m m n n n n n n n n z z n b , @ o o X O o o o o o X X o o X O O O o X o o o O O O & & O O O O O : : > : O O O & O X o o o o o o O = O O O O O O O = O O O O O O O O O O O O O O O O O O O & O a ].oX#X#X#X.X#X#X#X#X#X#X#X#X#X#X#X.X#X&X#X#X#X#X#X#X#X#X#X#X#X#X#X#X#X.X#X&X&X&X&X&X&X&X&X#X#X#X&X&X&X&X#X#X#X#X#X#X#X#X#XoX}.2.v N Z Z N N m m m m m m m m n n m n n m m m N m m m m m m m Z Z A Z m m m m n m m m n m m m m m m n n n z k c c c l j j < < < < < 2 1 a T.z.d.j.j.d.j.j.d.j.j.j.j.j.d.j.j.j.j.j.j.j.j.j.j.j.j.j.j.j.j.j.j.j.j.d.j.j.j.j.j.d.d.d.j.j.d.j.j.j.j.j.j.d.d.d.d.j.j.j.j.j.j.j.j.j.j.j.d.d.d.d.d.j.j.j.d.j.j.d.d.j.j.j.j.j.j.j.j.j.j.j.j.j.j.j.d.j.d.j.j.d.j.j.j.j.j.l.j.j.d.j.j.d.d.s.s.j.d.d.d.d.d.d.d.d.j.j.j.d.j.j.j.j.j.l.j.j.j.j.j.j.j.j.d.j.d.j.j.j.j.j.j.j.j.j.j.j.j.j.d.j.j.d.j.d.d.j.j.d.j.d.d.j.d.j.j.j.j.j.j.j.d.j.j.j.j.j.d.d.d.j.j.l.j.j.d.j.j.j.j.d.d.l.l.g.g.t.T.XX-X=X$X$X&X&X&X#X&X&X&X&X&X&X*X&X&X#X#X#X#X#X#X#X#X&X&X$X#X#X#X#X#X#X#X#X#X#X&X&X&X&X&X$X#X$X#X#X#X&X&X&X&X#X#X#X#X#X&X#X#X$X&X&X#X#X#X#X#X&X#X#X&X&X$X#X#X#X#X#X$X&X&X$X#X#X#X#X$X#X#X#X#X#X&X&X#X#X#X&X#X#X#X#X&X#X$X&X&X&X&X#X+XXX).8.q.z.d.j.j.d.d.d.a.a.a.a.d.i.i.u.u.u.i.e.e.0.0.0.9.9.7.7.7.7.6.7.7.7.7.6.6.6.6.6.6.-.6.-.-.-.-.-.-.6.-.-.-.6.-.6.6.-.6.6.6.7.7.7.7.7.7.7.7.7.7.7.7.9.7.7.7.9.9.9.9.9.9.0.0.0.9.0.0.0.0.0.0.0.0.e.e.e.e.e.e.u.u.u.u.u.e.u.u.u.u.i.a.i.i.i.i.i.a.a.i.i.i.d.d.a.a.a.a.a.d.d.d.d.d.i.r.;.*   X X     X ",
". , b c n n n n n n n n n n c k n n n n n n n n n n n n n n n n n n n n n n n n n z n n n n z n n n n n n n n n z z n n n n n n n n n n n n n n v Z.}.}.{.].{.'.'.'.'.[.]..X.X].].].+X].]..X[.].].].].].].].].].].#X].[.].].].].].].].].].[.[.[.[.].].].].].].].].]..X].].].].].]..X].]..X].].].].].'.K.K 4 b U R 2.K.(.}.}.}.}.}.'.{.{.{.{.{.{.].oXoX].#X#XoX.X#X#X#X#XoXoX{.'.(.W l M n n m n m m n n n n z n m m m n n n n n n n m m n m m n n n n m m m n n m m m m n n n n n n m n n n n n n m m n n m m m n m m m n n n n m m n n m m n n n n n n m n m m n n l , @ X o o X X o o o O o o o o X X o O o O o o O o O O O & & O O o O O O & & O & O O O o X O o o o O o = O & O O O O O = : = O O O & O O & O o O O O O O & O O = o :.#X].#X&X&X#X#X#X#X#X#X#X#X#X#X#X#X#X#X#X#X#X#X&X#X#X#X#X#X#X#X#X#X#X#X#X#X#X#X#X#X#X&X#X&X&X&X#X#X&X&X&X#X#X#X#X#X#X&X&X#X{.K.U M N N Z N m m m N m m m m m m m m n n m m m m m m m m m m m m m m N m m m N m m m m m m m m m m m n z n n c c k k j j j < < < < < < 1 - w.z.x.j.j.j.j.j.d.d.j.j.j.j.j.j.j.j.j.j.j.j.j.j.d.j.j.j.j.j.j.j.j.j.j.j.j.j.j.d.j.d.j.j.j.j.j.j.j.j.j.j.j.x.j.d.d.j.j.j.j.d.j.j.j.j.j.j.j.j.j.j.d.j.j.j.j.j.j.j.j.j.j.j.j.j.d.j.j.j.d.j.j.j.j.j.j.j.j.j.j.j.j.j.j.j.j.j.j.j.j.d.j.j.j.d.j.j.d.j.j.j.j.j.d.j.j.j.d.j.j.j.k.j.j.j.j.j.j.j.d.j.j.j.j.j.d.d.j.d.j.j.j.j.j.j.d.j.j.j.j.j.j.j.d.d.j.j.d.d.j.j.j.j.j.j.j.j.j.d.d.j.j.j.d.j.j.d.j.j.j.x.l.j.j.j.d.d.d.d.d.d.v.g.r.q.w.T.XX@X#X&X$X$X#X$X#X#X#X&X&X&X&X&X&X&X#X#X&X#X#X$X&X#X#X$X#X&X#X#X#X#X#X#X#X#X#X#X#X#X#X&X&X&X&X&X#X#X#X&X&X$X$X#X#X#X$X$X$X#X#X#X#X$X&X&X&X&X#X#X&X$X&X#X#X#X#X#X#X#X#X#X#X#X].#X#X#X#X#X#X#X#X&X&X&X#X#X#X$X&X#X$X$X&X&X$X&X&X&X#X#X#X].).w.;.g.l.j.d.d.d.d.a.d.d.a.a.i.i.u.u.u.u.u.u.0.0.0.0.0.9.9.7.7.7.7.9.9.9.9.9.7.7.7.7.7.7.7.7.7.7.7.7.7.7.7.7.7.7.7.7.7.7.7.7.7.7.7.7.9.9.9.9.7.7.9.9.9.7.7.7.9.0.0.e.e.0.0.7.7.9.0.0.0.0.e.0.0.e.e.e.e.e.u.u.u.i.i.u.u.i.u.u.i.u.i.i.i.i.i.i.a.i.a.i.u.i.i.a.d.a.a.a.a.a.a.d.a.a.a.e.8.; X           ",
"@ , l c c c n n n n n z h n n n k h n n n n z n n n n n n n n n n n n n n n n n n n n n n n n n n n n n n n n n n k n n n n z n n n n n n n n k U K.}.}.}.{.].oX].].].[.].'.].].].].].].'.].].].].].].].].].].[.[.].].].].].].].].[.[.[.].].[.`.[.[.[.[.[.].].].].].].]..X].].].].]..X.X].+X].].].'.'.L.b b c l l b v U W L.K.(.}.}.}.}.}.{.{.{.{.{.].].].#X#XoXoX#XoXoXoX#X].'.K.U c M n n n m m m m m m m n n n m n n n n n n n n n m n m m m m m m m n n n n n n n n n n n n n n n n n m m n n n n n n n n n n n m n n n n n n n n n n n n n n n m m m n m m m M 2 @ . O O o O o o X o o O O O o X o O O o O O X o X O O O O & O O o X O o o o o O O O O O O o o o O o O & & O o O & O O = & : O = & O o O O O O O & O O O O O = = > ~..X].#X#X#X#X#X#X#X#X#X#X#X#X#X#X#X&X&X#X#X#X#X&X#X#X#X#X#X#X#X#X#X#X#X#X#X#X#X#X#X#X#X#X#X#X&X&X#X&X#X#X&X&X&X#X#X&X#X#X#X}.K.v M N A m N m m m m m N m m m m m m m m m m m m N m m m m N N m m m m m m m N Z N N m m m m m m n m n n n n n c c c l j j < < < < < < , # g T.l.j.j.j.j.d.j.d.d.d.j.j.j.j.j.j.j.j.j.j.d.d.d.d.d.j.j.j.j.j.d.d.j.j.d.d.d.d.d.d.j.j.j.j.j.j.j.j.j.j.d.d.j.j.j.j.j.j.j.j.d.d.d.d.j.j.j.j.j.j.d.j.j.d.d.j.j.j.d.j.d.j.d.d.j.j.j.d.j.j.j.j.j.j.j.j.j.j.j.j.j.d.j.j.d.j.j.j.d.d.j.j.j.j.d.d.j.d.d.d.d.j.j.j.j.d.d.d.j.j.j.j.l.j.j.j.j.j.j.j.j.d.j.j.j.d.d.j.j.d.d.d.j.j.j.k.d.d.j.j.j.j.j.j.j.d.j.j.d.j.j.j.j.j.j.j.d.j.j.j.j.j.j.j.d.d.j.j.j.j.j.d.j.d.d.j.l.l.g.r.t.t.t.T.).XXXX#X&X#X#X#X$X&X&X$X&X&X&X&X#X#X#X#X$X#X#X$X$X&X&X&X#X#X#X#X#X#X#X#X#X#X#X#X#X#X#X#X#X#X$X&X&X&X$X#X&X#X&X#X#X#X#X#X#X$X$X$X#X#X#X#X&X&X&X&X#X#X&X$X#X#X&X&X&X#X#X#X#X#X#X#X#X#X#X#X#X&X&X#X#X#X#X#X#X$X$X#X#X#X&X&X&X&X&X#X&X#X#X#X#X].).T.;.q.z.l.j.j.d.d.d.d.d.f.a.p.i.u.u.u.u.u.e.e.e.e.e.0.9.9.9.9.9.9.9.9.9.9.9.9.9.9.9.9.9.9.7.9.9.9.9.7.7.9.7.7.9.9.9.9.9.9.9.9.7.9.9.9.9.9.9.9.0.0.9.0.0.0.0.e.e.e.0.0.0.0.0.0.0.e.e.e.e.0.e.e.u.u.u.u.u.u.u.u.u.u.u.i.i.i.i.i.a.i.i.a.a.p.a.p.a.a.a.a.a.a.a.a.a.d.a.a.d.d.a.d.d.d.e.q.u X X       X ",
"@ , b n n c c n n n n n n z k n n n h h n n z n n n n n n n n n k z z z n n n n n n n n n n n n n n n n z z z n n k k k k z z n n z z n c c n n ! (.}.}.}.}.{.].{.'.{.].].'.'.].].].].].].[.[.[.].].].].[.].].].[.].].].].]..X.X].].[.[.[.[.].].[.[.[.[.[.[.[.].].].[.[.].#X].].].].].].].].].].'.'.K.W b M n n c k c l b b K W L.K.K.K.}.}.}.{.{.oXoX{.'.].{.#XoX#XoX{.{.oX{.}.L.b M n n n n n n m m n m m m m m n n n n n n m n m n n m n m m m m m m n n n n n n n m n n n n n n n n n m m N m n n n n n n m m n n n n n n n n m m m n z n n m m m m m m m N N v , @ . o o o o o o X O o O O O o X X O O O o o o o o o o o o O o o o X o O O o X O O O O O O O O o o O O O O O o O O O O & O : = & O O O & & : O O O O O O = & = O a oX.X.X.X.X+X#X#X#X#X#X#X#X#X#X#X&X#X#X#X&X&X&X&X&X&X#X#X#X#X#X#X&X#X&X#X#X#X#X#X#X#X#X#X&X#X#X#X&X&X&X&X#X#X&X&X#X#X#X#X#XoX}.2.v N m N m m m m m m m m m m m m m m m m m m m m m m n n n n m m m m m m m m m m m m m m N m N N N m n n n n k k k c l l j < < < < < , , , > t.g.l.d.j.j.j.j.j.j.j.j.d.j.j.j.j.j.j.j.j.j.j.j.j.j.d.j.j.j.d.d.d.j.j.j.j.j.j.j.j.j.j.j.j.j.l.x.j.j.j.j.d.d.j.j.d.d.d.d.d.d.j.d.j.j.j.j.j.j.j.d.j.j.j.d.d.j.j.d.j.j.j.j.j.j.j.j.j.j.j.j.j.j.j.j.j.j.j.j.j.j.j.j.d.j.j.j.j.j.j.d.j.j.d.j.j.d.j.j.d.d.d.j.d.j.j.l.l.j.l.j.j.j.j.d.d.d.d.d.j.j.j.j.d.j.j.d.j.j.j.j.j.j.j.k.j.j.j.j.j.j.j.j.d.j.j.d.d.d.j.j.d.j.j.j.d.d.d.d.d.j.j.j.j.j.j.j.j.j.j.j.d.d.l.l.g.i.r.w.t.T.).).XXXX+X#X#X#X#X$X&X&X&X&X&X&X&X&X&X$X&X&X&X#X#X$X#X#X#X$X&X&X#X#X#X$X$X#X#X#X&X#X#X#X#X#X#X#X#X&X&X&X#X$X#X$X&X$X#X#X$X#X#X#X$X$X#X#X#X#X&X&X&X&X&X&X&X$X#X#X$X$X&X&X#X#X#X#X#X#X#X&X#X#X#X#X$X#X#X#X#X#X#X#X&X$X#X#X#X$X#X#X$X#X#X#X#X#X#X].].XX).w.;.g.l.j.j.j.d.d.d.a.a.a.f.f.f.i.u.i.i.i.u.u.u.u.e.0.0.0.0.9.9.9.9.0.0.0.0.9.0.0.0.9.9.9.9.9.0.0.9.7.9.9.0.0.0.9.0.0.9.0.0.0.0.0.9.9.0.0.0.0.0.0.0.e.e.e.e.0.0.0.e.e.u.u.u.u.u.u.u.u.u.u.u.u.u.u.u.u.u.i.i.i.i.i.i.i.i.i.a.a.a.p.a.a.p.p.a.a.a.d.d.a.a.a.d.a.a.d.a.d.d.d.d.d.a.a.r.8.* X X X X X ",
", 2 v c n c c z z n n n n n n n n n n k k k z n n n n n n n n c n n n n n n n n n n n n n n n n n n n n n z z k k n n n n n n n n n n n c c k U U W H.K.}.}.}.}.}.'.'.'.'.'.[.].].].].].].].].].].].].].].].]..X].[.].].].].].].].].].].].[.[.].].[.[.[.[.[.[.].].].].].].].].].].].].].].].].].].~.J.I v M n n n n n n k k l l b L U ! L.K.}.}.}.}.{.{.{.'.{.{.oXoX#XoX{.{.}.}.W b n n n n n n m m n n n n m m m n n n n n m m m m n m n n n n n m m m n n n n n n n n n n n n m m n n m m m m m n n n n m m m m m n n n n n n m m m n n n m m m m n m n m m m M l , @ O O O X o o o o o O o X X X X o o O o X X o o o o o O O X X X o o o O o o X o O & O O O O O O o o o o O O O O O O = & & O O O O o & & O O O o O O = : = = : O n.#XoX#X#X.X].].].#X#X#X#X#X#X#X#X&X&X#X#X#X&X&X&X&X&X&X#X#X#X#X&X#X#X#X&X#X#X#X#X#X#X#X#X#X#X#X#X#X#X#X&X#X#X#X#X&X&X#X#X#X{.}.U M N m m m m m m m m m m m m m m m m m m m m m m m m m m m n n m m m m m m m m n n m m m m m m m m N N n n n n c k k l j j < < < < < , , , = ;.T.l.l.j.j.j.j.j.j.j.j.j.j.j.j.j.j.j.d.j.j.j.j.j.j.d.j.j.j.d.j.j.j.j.j.j.j.j.j.j.j.j.j.d.j.j.j.j.j.d.j.j.d.j.j.d.d.d.j.j.d.d.j.j.j.j.j.d.j.j.j.j.j.j.d.j.j.j.j.j.j.j.j.j.j.j.j.j.j.j.j.j.d.j.j.j.j.j.j.j.j.j.j.j.j.j.j.d.d.j.j.j.j.j.j.d.j.j.j.d.j.d.d.d.d.d.j.l.j.j.j.j.j.j.j.j.d.d.d.d.d.d.d.j.j.d.d.j.j.j.j.d.d.j.j.d.j.j.j.j.j.j.j.d.d.d.d.j.d.j.j.j.j.j.j.d.j.j.j.j.j.j.j.j.j.j.j.j.l.l.l.l.l.g.r.r.w.B.R.).XXXX.X.X#X#X#X#X#X#X#X#X#X$X&X&X#X&X&X&X&X&X&X&X&X&X&X&X$X$X#X&X$X&X#X#X#X#X#X&X&X$X#X#X#X&X#X#X#X&X&X&X&X#X&X&X#X&X&X$X$X&X$X#X#X#X#X#X#X#X&X#X#X&X$X#X#X#X&X&X&X*X&X&X#X#X#X&X&X#X#X#X#X#X#X#X$X#X#X#X#X#X#X#X#X#X#X&X&X&X&X&X#X#X#X#X#X#X#X#X#X#X.XXXT.;.r.g.d.d.d.d.d.d.d.d.f.f.a.a.a.i.i.i.i.u.u.u.u.e.e.e.e.e.0.0.0.0.0.0.0.0.0.0.e.0.0.0.0.0.0.0.0.0.0.0.0.0.0.0.0.0.0.0.0.0.0.0.0.0.0.0.e.e.e.e.u.u.e.e.e.e.e.u.u.u.u.u.u.u.u.u.u.u.u.u.u.i.u.u.u.i.u.u.i.i.i.i.i.i.a.a.a.a.a.a.a.d.d.a.a.a.a.a.a.a.a.a.d.d.d.d.d.d.d.d.d.d.d.d.d.i.r.t X X X X   ",
"< b c k c c c n k n n n n n n z n n n n n k z z n n n n n k h k n n n n n n n n n z z n n n n n z n n n n n n n n k n n n n n n n n n n n k h c c v v U W L.K.(.}.}.}.'.'.'.'.[.].].].].].].].].].]..X.X].]..X.X].].'.[.'.].].].].].].].].].].].].].].].].[.[.].].].].[.[.[.].]..X].].{.].].].'.'.(.L.b v n n n M n n n n c c c k h k c v U W L.K.}.}.}.}.}.}.{.{.].{.oXoX{.}.K.U c n n n n n n n m n n n n n m m n n n n n n m m m m m m n n n n n n n n n n n n n m n n n n n m m m m n n n n n n n n n n m m m m n n n n n n n n n n n n m n n n n n n m m m M 2 # # O O O X o X o o o o o o o o X X X o O o X X X X O O o O O O o O o O O O o o o o o O o O o O O O O O O & = O & & & & O O O O O O O O O O O O O O & O : = : = : `.#X#X#X#X#X#X#X#X].].#X#X#X#X#X#X#X&X&X&X#X&X#X#X#X#X#X&X&X#X#X#X&X#X#X#X#X#X#X#X#X#X#X#X#X#X#X#X#X#X#X#X#X&X#X#X#X#X#X].{.}.K.L M N m m m m m m m m m m m m m m m m m m m m m m m m m m m m m m m m m m m N m m m m m m n n n m m m n n n n n c k k l j < < < < < , , , , # w t.z.l.j.j.j.j.j.j.j.j.j.j.j.j.j.j.j.j.l.j.j.j.j.j.j.j.j.j.j.j.j.j.j.d.d.d.d.d.d.j.j.j.j.d.j.j.j.d.j.j.j.j.j.d.j.j.d.j.j.j.d.j.j.j.j.j.j.d.j.d.d.d.j.j.d.j.j.d.j.j.j.j.j.j.j.j.j.j.j.j.j.d.j.j.d.j.d.j.d.d.j.j.j.j.j.j.j.j.d.j.j.j.j.j.d.d.d.j.j.j.j.d.d.d.d.d.d.j.d.j.j.j.j.d.j.j.d.d.d.j.d.d.j.j.j.d.j.j.d.d.j.j.j.d.j.j.j.j.d.j.j.j.d.d.d.j.d.j.d.j.d.j.j.j.j.j.j.j.j.d.j.d.d.j.d.d.l.v.z.g.g.t.t.B.).).XXXX.X.X#X#X#X#X#X#X#X#X#X#X#X#X$X&X&X#X#X&X&X&X&X&X$X&X&X&X&X$X&X#X#X#X#X&X#X#X#X#X#X#X#X&X#X#X#X#X&X#X#X&X&X$X#X#X&X$X&X&X&X&X&X&X#X#X#X#X#X#X#X&X#X#X#X#X#X#X#X#X#X#X#X#X#X#X#X#X#X#X#X#X#X#X#X$X#X$X&X#X#X#X#X#X#X#X#X$X$X#X#X#X#X#X#X#X#X#X#X#X#X&X#X.X].).y.8.g.d.j.d.d.d.d.d.d.d.d.d.f.a.a.a.u.u.u.u.u.u.u.u.u.e.e.e.e.e.e.e.e.e.e.e.e.e.e.e.e.0.0.e.e.e.0.e.e.0.0.e.e.0.0.e.e.e.e.e.e.e.e.e.e.u.u.u.e.e.e.e.e.u.u.u.u.u.u.u.u.u.u.u.u.u.i.i.u.i.i.i.i.u.i.i.i.i.i.i.i.p.p.i.a.a.a.a.a.d.d.a.a.a.d.d.d.d.d.d.d.d.d.d.d.d.d.d.d.d.d.d.d.f.a.i.;.* X X X X ",
"l c k z k c c c k c n z z z n n z n n n n n n n n n n n n n n c k k k n n n n n n z z n n n n n n n z n n n n n n n c n n n n n n n n n z k h h k k c c c v L U W L.K.(.}.}.}.'.'.'.'.].].].].]..X]..X.X].].].oX{.].].].].].].].].].].].].].].].].].].].].].[.[.[.].].].[.[.'.[.]..XoX].].].].'.'.(.W b M n n n n n n n n n n n n n n c c c b b U U 2.K.(.}.}.}.}.{.{.].{.'.}.L.b n n n n V n n n n n n n n n n n m n n n n n n n n N m m m n n n n n n n m n n n n n n n n n m m m m m n n n n n n n n n m m m m m N n n n n n n n n n n n n n n n m m m m N M v , @ O o O O o X o o o o O O o O O o o o O O O o o o X o O o o o o o o O O O O o o O o o O o o O o O O O O O O = : & & O O o o o O O O O o O O O o O O : & & : = o a ]..X#X#X#X#X].].].]..X.X#X#X#X#X#X#X#X#X#X#X&X&X#X#X#X#X#X#X#X#X#X.X#X#X#X#X#X#X#X#X#X#X#X#X#X#X&X#X&X#X#X&X#X#X#X#X#X#X].'.}.2.v N N m m m m m m m m m m m m m m m m m m m m m m m m n m N m m m m m m N m m m m m m m n m m m m m n n n n n c c k l l j < < < < , , , , , - O ;.z.l.j.j.j.j.j.d.j.j.j.j.j.j.j.j.j.j.j.j.j.j.j.d.d.d.j.j.j.j.j.d.d.d.d.j.j.j.d.j.j.d.j.j.j.d.j.d.d.d.j.j.j.d.j.j.j.j.j.j.j.j.j.j.j.j.j.j.j.j.j.d.j.j.j.j.j.d.j.j.j.j.j.j.j.j.j.j.j.j.j.j.d.d.j.j.j.j.j.d.j.j.d.j.j.j.j.j.j.j.j.j.j.j.d.d.j.d.j.j.j.j.d.d.d.j.d.d.j.d.j.j.j.j.j.j.j.d.d.j.j.j.l.j.j.j.d.d.j.l.d.d.j.j.j.j.j.j.j.j.j.j.j.j.j.d.d.d.d.j.d.j.j.j.j.j.d.j.j.j.d.d.d.d.d.l.z.g.t.w.B.T.).XXXX+X+X+X#X#X#X#X#X#X#X#X#X#X&X&X&X&X#X#X&X&X&X#X#X$X#X$X#X$X&X#X#X#X#X#X#X#X&X#X$X&X#X#X#X#X#X#X#X#X#X&X$X#X#X$X$X&X&X#X#X&X&X&X&X&X$X#X#X#X#X#X#X#X#X#X#X#X$X#X#X#X#X#X#X#X#X#X#X#X#X#X#X$X$X#X#X#X#X#X#X#X#X#X#X#X#X#X#X#X#X#X#X#X#X#X#X#X#X#X#X#X#X#X#X&X#X#X].`.B.;.r.l.j.d.d.d.d.d.d.d.d.d.d.d.a.a.i.u.u.u.u.u.i.u.u.u.u.u.e.u.e.u.u.u.e.e.u.u.e.e.u.e.e.u.e.e.e.e.e.e.e.e.e.e.e.e.u.e.u.u.e.e.u.u.u.u.u.e.e.e.u.u.u.u.u.u.u.u.u.u.u.u.u.u.u.u.u.u.i.u.i.i.a.a.i.a.a.a.d.d.d.a.a.a.a.a.a.a.d.a.a.d.d.a.a.d.d.d.d.d.d.a.a.a.a.a.d.d.d.d.d.d.d.f.f.i.r.w X X X X ",
"c n z z n c c k k c k z k z n n n n n z k k n n n n n n n n n n n z k z n n n n n n n n n n n n n z z n n n n n n n n c z n n n n n n n n c k k k n n n n n k c v v U W 2.K.(.}.}.}.'.'.{.].].].].].].].].].].].].].].].].].].].].].].].].].].].].].].].].[.[.[.[.].].].[.[.[.[.[.].].].].].].'.}.K.I c n n n n n n n n n n n n n n n n n n n M c c v K U W L.K.}.}.}.}.}.(.K.W v M n n n n n n n n n n n n n n n n n m n n n n n n n m m n m m m n n n n m m n n n n n n n n n m n m n n n n m n n n n n n m m m m N m n n n n n n n n n n n n n n m m m m m M b , @ o O O O o o O O o o O O o o O O O O O o O O O O O o o O O O o o o o O O O o o o o O O O O o O o O O o O O : : : : : = O & O O o O O O O O O O O O O O O = = o n.oX].oX#X#X#X.X].].].]..X#X#X#X#X#X#X#X#X#X#X&X&X&X&X#X#X#X#X#X&X#X#X#X#X#X#X#X#X#X].#X#X#X#X#X#X#X&X#X#X#X#X&X#X#X#X#XoX{.'.K.U v N m m m m m m n m m m m m m m m m m m m m m m m m m m m m m m m m m m N N m m m m m m m n m m n n n n n n c c k k l l j < < < < , , , , , # # w g.z.j.j.j.j.j.d.j.j.j.j.j.j.j.j.j.j.j.j.j.j.d.d.j.j.d.d.d.j.j.j.j.j.j.j.j.j.j.d.j.j.j.j.j.j.d.j.j.d.j.j.j.j.j.j.j.j.j.j.j.j.j.j.j.j.j.j.j.j.j.j.j.j.j.j.j.j.j.j.j.j.j.j.j.d.j.j.j.j.d.j.j.d.j.j.j.j.j.j.j.j.j.j.x.d.d.d.j.j.j.j.j.d.d.d.j.j.j.j.j.j.j.j.d.j.j.j.j.j.j.j.j.d.j.j.j.j.j.j.j.j.j.j.j.j.j.j.j.j.j.j.d.j.j.j.j.d.j.j.j.j.j.j.j.j.j.d.d.d.d.d.d.d.j.j.j.j.d.d.d.d.l.z.g.t.w.w.B.).XXXX+X#X+X#X#X#X#X#X#X&X&X&X&X&X&X&X&X&X&X&X#X#X&X&X&X#X$X$X$X&X#X#X#X#X#X#X&X#X#X#X&X#X#X#X#X#X#X#X$X#X$X#X#X#X&X#X#X#X#X#X#X#X#X$X$X$X$X$X&X&X&X&X#X#X#X#X#X#X#X&X&X&X&X#X#X#X#X#X#X#X#X#X#X#X#X#X#X&X&X$X#X#X#X#X#X#X#X#X#X&X$X#X#X#X#X#X#X#X#X#X#X#X#X#X#X#X#X&X#X#X+XXX).y.q.g.d.d.j.d.d.d.d.d.d.d.d.d.f.a.i.i.i.u.p.i.i.u.u.u.u.u.u.u.u.i.i.i.i.u.u.u.u.u.u.u.u.u.u.u.u.u.u.u.u.u.u.u.u.u.u.u.u.u.u.i.i.u.u.e.e.u.u.u.u.u.u.u.u.p.u.u.u.p.p.u.u.u.u.u.u.p.p.p.i.i.i.a.a.a.a.d.d.d.d.d.a.d.d.d.d.d.d.f.a.a.a.d.d.d.d.d.d.d.d.d.d.d.d.d.d.d.a.d.d.d.d.d.d.i.r.i X X X X ",
"n n z z n k k k k k c z z n n n n n k k k c c z k z n n n n c n n n z z z n n n n n n n n n n n n h z n n n n n n n n n n z k n n n n n n n n n n n n n n c c c c k c l b K U 2.L.K.(.}.}.}.'.'.[.].].].].].[.].].].].'.].].].].].].].].].].].]..X].].].].].[.'.].'.[.].[.].].].].].].].[.].].'.}.W b M n n n n n n n n n n n n n n n n n n n n n n M n c c v U W L.K.(.}.(.L.v v M n n n n n n n n n n n n n n n n n n n n n n n m m m m n n m m n n n m n n n n n n n n m m m n m n n n n n n m m n n n n m n n m m m m m m m n n m m n n n n n n n m n n n v 2 # # O o o O o o o O O O O O O O o o o O O O o o o o O o o O & O O & O O O O O o O o X O O O O O O O O O o O O O & = O O = : : : : = O O = O O O O & O O & O & O > R.oX.X].#X#X#X#XoX.X.X.X].#X#X#X#X#X#X.X#X#X#X#X#X#X#X#X&X&X&X&X&X&X&X&X#X#X#X#X#X#X#X].#X#X#X&X#X#X#X#X#X#X#X#X#X#X#X#XoX{.}.D.v M m m m N m n n m m m m m m m m m m N m m m m m m m m n m m m m m m m m m m m m m m m m m m m m n n n n n c c k h l l j < < < < < , , , , , , # & y.z.l.j.j.j.j.d.j.j.j.j.j.j.j.d.j.j.j.j.j.d.j.j.j.j.j.d.j.j.j.d.j.j.j.j.j.j.j.j.j.j.j.j.j.j.j.j.j.j.j.l.j.j.j.j.j.j.j.j.j.j.j.d.j.j.d.d.j.d.d.j.j.j.j.j.j.j.d.d.d.d.j.j.j.d.j.j.j.j.j.j.j.j.j.j.j.j.j.j.d.j.j.d.j.j.j.j.d.d.j.j.j.j.j.j.j.j.j.j.j.d.j.j.j.d.j.j.j.j.j.j.j.d.d.j.j.d.d.j.j.j.j.j.j.j.j.j.j.j.x.j.d.d.j.j.j.j.j.j.j.j.j.j.j.j.d.j.j.j.j.j.j.d.j.j.j.j.l.l.z.g.r.w.w.B.).).XXXX.X+X#X#X#X&X&X#X#X#X&X$X&X&X*X&X&X&X&X&X&X&X&X#X&X&X&X&X&X&X#X$X#X#X#X#X&X&X&X&X&X$X&X#X#X#X#X#X#X&X#X#X#X#X#X#X#X#X#X#X#X#X#X#X#X#X#X#X#X$X#X#X&X#X$X#X#X#X#X#X#X#X#X$X#X#X#X&X#X#X#X#X#X#X#X#X#X#X&X#X#X&X&X#X$X#X#X#X&X&X&X&X#X#X#X#X#X&X$X#X#X#X#X#X#X#X#X#X#X#X&X#X#X].).B.;.g.d.d.d.d.d.d.d.d.d.d.d.a.a.a.a.a.a.u.i.i.u.u.u.u.u.u.u.i.i.u.u.u.u.u.u.u.u.u.u.u.u.u.u.u.u.u.u.u.u.u.u.u.u.u.u.u.i.i.i.u.u.e.u.u.u.u.u.u.i.u.u.u.u.u.u.p.p.i.p.p.p.i.p.a.f.a.a.p.i.a.i.i.a.a.a.a.a.d.a.d.d.d.a.d.d.d.d.d.d.d.d.d.d.d.d.d.d.d.d.d.d.d.d.d.d.d.d.d.d.d.a.a.a.a.r.8.* X X X ",
"n n n c c c k k c c c n n n n c n n c c n n c k k n n n n c c n n n n n k k n n n n n n n n n k k n n n n n z n n n n n z k h z n n n n n n n n n n n n n c c n n n n c c k c l v U W L.K.(.}.}.}.}.}.{.{.].[.'.[.'.].].'.].].].].].].].].].].]..X].].].].].].].[.].].].].].]..X].].].].].].].'.K.U v B m n n n n n n n n n n z h n z n n n n n n n n n M n n c c v L U ! L.U c M n n n m n n n n n n n n n n n n n n n n n n n n n m n n n n n n n n n m n n n n n n n n n m m m m n n n n n n m m m m n n n n n m m n m m m m m m m m n n m n n m m m m n c b , @ O O O o o O O O o O O O O & & & O O O o O o o o o o o o o o O o O O & O O O O O O X O O O O o O O O O O & O O o O & & & O O : : = : O & O O & O O & & O O & O a #XoX#X#X#X#X#X#X#X#X#X.X#X#X#X#X&X&X&X#X.X#X.X#X#X#X#X#X&X&X&X&X&X&X&X&X&X&X#X#X#X#X#X].#X#X#X&X&X#X#X#X#X#X#X#X#X#X#X#X{.'.~.W v N N m m N m n n m m m m m m N m m m m m m m m m m m m m n m m m N m m m N m m n m m m m m N N N N n n n n n c c c k l j < < < < < < , , , , , # O p T.z.l.j.j.x.j.d.j.j.d.j.j.j.j.j.j.j.d.j.j.j.j.j.j.d.d.d.j.d.d.d.d.d.j.j.j.d.d.x.x.d.j.j.j.j.j.j.j.j.j.j.j.j.j.j.j.j.j.j.j.j.j.j.j.j.j.j.d.d.d.j.j.j.j.j.j.j.j.j.j.j.j.d.j.d.d.j.j.j.j.j.j.j.j.j.d.d.j.d.j.d.j.j.j.j.d.j.x.j.d.d.d.j.d.j.j.j.j.d.j.d.j.j.j.j.j.j.j.j.j.j.d.j.j.j.d.d.d.d.j.j.d.j.j.d.j.d.j.j.j.j.d.j.j.j.j.j.j.j.j.j.j.d.d.j.j.j.j.j.j.j.d.d.j.d.x.v.g.q.w.t.T.).XXXX+X+X#X#X&X&X&X&X&X&X&X#X#X$X$X$X&X&X&X&X&X&X&X&X&X&X#X&X&X&X&X#X$X&X$X$X#X#X&X&X&X*X&X&X#X#X#X#X#X#X&X&X#X&X$X&X#X#X#X#X#X#X#X#X#X#X#X#X#X#X#X#X#X&X*X&X&X$X&X#X#X#X#X#X#X#X#X#X#X&X&X#X#X#X#X#X#X#X#X#X#X&X&X&X&X&X&X&X#X#X#X#X#X#X#X#X#X&X&X#X#X#X#X#X#X#X#X#X#X&X#X#X#X#X&X#X+XXX).8.q.g.a.d.d.d.d.d.d.d.d.d.d.d.d.a.a.a.u.i.i.i.u.u.i.a.i.a.i.u.i.u.i.i.u.u.u.u.u.u.u.u.u.u.u.u.u.u.u.u.u.u.u.u.i.i.u.u.u.u.e.u.u.u.u.u.p.p.p.p.u.u.u.p.p.p.p.a.p.p.a.a.a.a.a.a.a.a.a.a.a.a.a.a.a.a.a.a.d.a.d.d.d.d.d.d.d.d.a.d.d.d.d.d.d.d.d.d.d.d.a.d.d.d.d.d.d.d.d.d.d.d.d.d.a.i.r.y X X X ",
"n n c c k k k k c n n c n n c k k k k k c c c c n n n n h h h n n n n n n n z n n n n n k z n n k n z n n n z n n n n n n n n n n k c n n n z z n n n n n n n n n n n n n n n c c c c b K W L.K.K.(.}.}.}.}.{.{.].].].].].].].].'.'.'.'.].].].].]..X].].].].].].].].].].]..X.X.X].].[.].#XoX{.}.K.b v n n n n n n n n m n n n n n n n n n n n n m n n n n n n n n n c c c c k n m n n n n n n n n z n m m n m m m m n n n n n n n n n n m n n n n n n n n n m m n n n n n n n m m m m m m m m n m m n n m n n n m m m m n m n m m m n n n n m m m m m m n n v 2 , # o o o o o o o o o o o o O O O O O O O o X o O O o X o o O X X O O o & : O O = & O o O O O O o o o : & O O & O O O O O & = & : & O & & : : : : & O o O O O O o n.#X].#X#X#X#X#X#X#X#X#X#X#X#X#X#X#X#X#X#X#X.X#X].#X#X#X#X#X#X#X&X&X&X&X&X&X&X&X#X#X#X#X#X#X#X#X#X&X#X#X#X#X#X#X#X#X#X#X{.{.'.J.U M N m m m m m n n m m m N m m m n n m m m m m m m m m m m m m m m m N m m m N N m m m m m m m m N m n n n n n c c c k l l j j < < < < < , , , , # # : t.z.d.j.j.j.j.j.j.j.j.j.j.j.j.j.j.j.j.j.d.j.j.j.j.j.j.j.d.d.j.j.d.d.d.d.d.d.d.j.x.j.d.j.j.j.j.j.j.j.j.j.j.j.j.j.j.j.d.d.d.j.j.d.d.j.j.j.j.d.d.j.d.j.j.j.j.j.j.j.j.j.j.j.d.j.j.j.j.d.j.j.d.d.d.d.d.j.j.j.j.d.j.j.d.d.d.d.j.j.j.j.j.j.d.j.d.j.j.j.j.j.j.l.j.j.j.d.d.j.j.d.d.d.d.j.d.d.j.j.j.j.d.j.j.d.j.j.j.d.d.d.d.j.j.j.j.j.j.j.j.j.j.d.d.d.d.j.d.j.j.j.k.j.d.d.g.i.t.T.).XXXX+X+X#X#X#X&X&X&X#X*X&X$X&X&X#X#X#X#X#X#X$X$X$X$X#X#X#X$X&X&X&X&X&X#X&X&X&X$X&X#X$X&X$X&X*X&X$X#X&X&X#X#X&X&X&X#X#X#X#X#X#X#X#X#X#X#X#X#X#X#X#X#X|.$X$X#X`.V.$X&X&X&X#X#X#X#X#X#X#X#X$X&X&X#X&X&X#X&X&X&X&X&X&X#X&X&X#X$X&X&X&X$X#X#X#X#X#X$X$X&X#X#X#X#X#X#X#X$X#X#X#X#X#X#X#X#X#X#X#X#XXX).w.;.g.d.d.d.d.d.d.d.d.d.d.d.d.d.d.a.a.i.i.i.a.i.i.a.a.a.a.p.i.a.p.p.p.p.a.i.p.u.u.u.u.u.u.u.u.u.u.u.u.u.i.i.a.i.u.u.e.u.u.u.u.u.p.u.p.p.p.i.a.a.a.p.p.p.p.a.a.a.a.a.a.a.a.a.a.a.a.a.a.a.a.d.d.d.d.a.d.d.d.d.d.a.d.d.d.d.d.d.a.d.d.d.d.d.d.d.d.d.d.d.d.a.d.d.d.d.d.a.a.d.l.j.d.f.a.r.;.* X X ",
"n n n c n k k c z z n n n n k k k k h k c k k n n n z n k c k k z n n n n n n z n n n k n n n n n n k n n k n n n n n n n n n n n k k k n n z z n n n n n n n z n n z n n n n n n n n k k l v v U W L.K.}.}.}.}.}.}.{.{.].{.{.].].[.'.'.'.'.].'.]..X].].]..X].].].].].].].].].].].].].].].].].}.m.b M n n n n n n n n n n n n n n n n n n m m n n n n n n n n n n n n M n B n z n n n n n z n n n n n n n m n n n m m n n n n n n n n n m m n n n n n n n n n m m n n n n n n n n n n m m N m n n n n n n n n n n m A A m n m m m m m m m m n m m n n m n n b < # # O O O o o o X X o o O o o o o o o O o O o X X O O O X X X o o o o O O O : & O O o O O & O o O o O > : O & O & : = O O O O = & & & & : & & & = : O o O O O & : V..X.X#X#X#X#X#X#X#X#X#X#X#X#X#X].].#X#X#X#X#X#X#X#X#X#X#X&X#X#X#X#X&X&X#X&X&X&X&X#X#X#X#X#X#X&X#X#X&X#X#X#X#X$X#X#X&X#X{.{.}.L.v B N m m N m m n n n m Z ~ S m m m n n m m m m m m m m m m m m m m m m m m m N Z m m m m n n n n n z n n M n n c k c k l l j j < < < < , , , , , # # o i z.l.l.j.j.d.d.d.j.j.j.j.j.c.c.j.j.j.j.d.j.j.j.j.j.j.j.d.d.j.j.j.j.j.d.j.d.j.d.j.j.d.d.d.j.d.j.d.d.j.d.j.d.d.j.j.j.d.d.j.j.d.d.d.d.d.j.j.j.j.j.d.d.j.j.d.j.j.d.j.d.d.j.j.j.d.j.j.d.d.d.d.j.d.d.j.d.d.d.d.d.d.j.j.j.d.d.d.j.j.d.d.j.j.d.j.j.j.j.j.j.j.j.j.d.j.j.j.j.j.j.d.d.d.d.a.a.d.d.d.d.j.j.j.j.j.j.j.d.d.j.d.d.j.j.j.j.j.j.j.d.d.j.j.d.j.j.d.j.j.j.d.d.d.d.f._._.XX+X+X+X#X#X#X&X&X&X&X&X#X#X$X$X#X&X&X#X#X&X$X$X$X#X#X&X#X#X#X#X&X&X#X#X#X#X#X#X&X$X&X#X#X&X$X#X#X$X#X#X$X&X#X$X$X&X&X&X#X#X$X&X#X#X#X#X#X#X#X#X#X#X#X#X#XV.f a > > P.*X#X#X#X#X#X#X#X#X#X&X#X#X&X&X&X&X#X&X=X*X&X&X&X&X$X$X$X&X&X$X#X#X#X#X#X#X#X#X#X#X#X#X#X#X#X#X&X&X$X#X#X#X#X#X#X#X#X#X#X#X+XXXB.;.q.d.d.d.d.d.d.d.d.d.d.d.a.a.a.d.a.a.a.a.a.a.a.a.a.a.a.p.i.p.p.i.p.p.p.p.p.p.u.u.u.p.p.u.u.u.u.u.p.i.i.p.u.u.u.u.u.u.u.u.p.i.p.p.p.a.a.a.a.a.a.p.a.a.p.p.p.a.a.a.a.a.a.a.a.d.d.a.d.d.a.d.d.d.d.d.d.d.d.d.d.d.d.a.d.d.d.d.d.d.d.d.d.d.d.d.d.d.d.d.j.d.d.d.a.a.d.d.d.d.d.j.l.f.a.i.q.t X X ",
"n n n n z k z n n z z n n n k c c k k h h k k n n n z n c c c k k k n n n n n n n n n n n z z n n n n n n c c n c c c n n n n n n z n n z z z n n n n n n n n n n n z n n n n n n z n n n n c k k c b K R L.K.K.(.}.}.}.}.{.{.].{.].].].].'.].'.].].].]..X.X.X].].].].].].].].[.].#X].].].'.'.K.U c n n M M n n n n n n n n n n n B n n n n m n n n n m m n n n n n n n n m m n n n n n n n n n n n m n n n n n n n m m m m n n n n n n n n n n n n n n n m n n m n n n n n n n n n n n n n n n m n n n n n m m m n m N m m m m m m m m n n n n m n n n n n b , @ O O o o o X o o O o o o o O o o O o O O X o O O X o O o o o O o O o O o X o o o o o O O o O O O O O O O & & O O & > : : O O = = & O & & & O : = & = O & O = O a [.].]..X#X#X#X#X#X#X#X+X+X.X.X#X#X#X#X#X#X#X#X#X&X#X#X#X#X#X&X#X#X#X#X#X&X&X&X*X&X#X#X#X#X#X#X&X&X#X&X&X#X#X#X#X$X#X#X#X#X{.(.W M B A m m m m m m m m m m m N m m m m m m m m m m m m m m m m m m m m m N N m m m m m m m n n n n n n n n n n n k k l k l l j j < < < < , , , , # # # O w g.l.j.j.j.d.j.d.d.j.j.j.j.j.j.j.x.j.j.j.j.d.j.j.j.j.j.j.d.j.d.j.j.j.j.j.j.j.j.j.d.j.d.d.d.d.d.d.j.j.d.d.d.d.d.d.j.d.d.d.d.d.d.d.j.j.d.d.d.j.j.d.j.d.j.d.j.d.j.d.d.j.j.j.d.j.j.j.j.d.j.j.d.j.j.j.j.d.d.j.j.j.j.j.d.j.j.j.j.j.j.j.j.j.d.j.d.j.j.j.j.j.j.j.j.d.j.j.j.j.j.d.j.d.j.j.j.d.j.j.d.j.d.j.j.j.j.j.j.j.j.d.d.j.j.j.j.j.j.j.j.j.j.l.j.j.j.j.d.j.j.d.d.d.j.d.T.@X@X+X#X#X#X#X&X#X#X#X&X&X&X&X&X&X&X&X&X&X&X&X#X#X#X#X#X#X#X#X#X#X&X$X#X#X$X$X#X#X#X#X#X#X#X#X#X#X#X#X#X#X#X#X#X#X#X#X$X&X&X#X#X&X&X&X#X#X#X#X#X#X*X].`.V.g : + O O X n.=X#X&X#X#X#X#X#X&X$X$X#X#X#X#X#X$X&X&X$X#X#X#X#X#X#X#X#X#X#X#X#X#X$X#X#X#X#X#X#X#X#X#X#X#X#X#X#X#X#X#X#X#X#X#X#X#X#X#X#X#X.X[.).y.;.g.d.d.d.d.d.d.d.d.d.d.d.a.a.a.p.a.a.a.d.a.a.a.a.a.a.i.a.i.p.p.i.i.p.p.p.i.u.u.p.p.p.p.p.p.a.a.i.u.u.u.u.p.p.p.p.u.p.p.p.p.p.p.p.a.p.p.p.p.p.p.p.p.p.p.p.p.p.a.a.d.a.d.a.a.a.a.a.a.a.a.a.d.d.a.d.d.d.d.d.d.d.a.a.d.d.d.d.d.d.d.d.d.d.d.d.d.a.a.d.d.d.d.d.j.d.d.d.d.d.d.a.a.a.u.r.i * o ",
"n n n n k k k n M n k c n c k c c c k h k c n n n n n n c c c c k k z k n n n n n n n n n n z k k n n n k k k c n n n n n n n z n n n n n n z z n n n n n n n n n n n z z n n n n z n n n n n n n n k l l b U U R L.K.}.}.}.}.}.'.{.{.].].{.].].].].].].].oX.X].].].].].].].].].].].].].].[.~.L.b v n n M n n n n n n n n n n n n n m M n n n n n n m n n n n n n n n n n n n n n n n n n m m m n n n m n n n n n n n n m m n n n n n n n n n n n n n n n n n n n n n m n n m m n n n n n m n n n n n n n n m n m n n n n m m m n m n m m n m n n m n n n v 2 @ # O O o o o O X o o o o X O O X X o o O O o o O O O O o O O O O X o o o X X X o o o O O O o O O O O O O o O O O O O : > = O O & O & > > & O & & & : = = = & O = n.+X].+X+X#X#X+X#X]..X#X#X#X+X]..X#X#X#X#X#X#X&X#X#X#X#X#X#X#X#X#X#X#X#X#X#X#X&X&X&X&X&X&X#X#X#X#X#X#X#X&X&X#X#X$X#X#X#X#X{.'.K.U M N A A N m m m m m m m m m m m m m m m m m m m m m m m m m N n m m m N N m m m m n m m m n m n n n n n n n n n k h h l l l l j < < < < , , , , # # O * w q.l.j.j.j.j.j.j.x.j.j.j.j.j.d.j.x.j.j.j.j.j.j.j.d.j.j.j.j.j.j.j.j.j.j.j.j.j.j.j.j.j.j.j.j.d.d.d.j.d.j.d.j.j.d.j.j.d.j.d.d.d.d.d.d.j.d.j.j.j.j.j.d.d.d.d.d.d.j.j.j.d.j.j.d.j.j.j.j.d.d.j.j.j.j.j.d.d.d.d.j.j.j.j.j.j.j.d.j.j.j.j.d.j.l.j.j.j.j.j.j.j.j.j.j.j.j.d.d.j.j.j.j.j.x.x.j.j.j.j.d.j.d.j.d.d.j.j.j.j.j.d.d.d.j.j.j.j.j.j.j.j.j.j.j.j.d.d.d.j.j.d.j.k.j.d.g._.@X#X&X&X&X&X&X#X#X#X&X#X#X&X#X#X&X&X&X&X#X#X#X#X#X#X&X#X#X$X#X#X#X$X#X#X#X&X&X#X#X#X#X#X#X#X#X$X$X$X&X&X#X#X#X#X#X$X#X#X&X&X&X&X&X&X#X#X#X&X#X`.n.g : O O O O O O X a #X#X#X#X#X#X#X$X&X&X$X#X#X#X#X#X#X#X#X#X#X#X#X#X#X#X#X#X#X#X#X#X#X#X#X#X#X#X#X#X&X$X#X#X#X#X#X#X#X#X#X#X#X#X#X$X&X#X#X#X#X].].`.B.;.r.l.d.d.d.d.d.d.d.d.d.a.d.d.d.a.p.a.a.a.a.a.a.a.a.i.a.a.a.a.p.p.p.u.p.a.a.a.a.a.p.a.a.a.a.a.u.u.u.p.p.i.p.p.a.i.p.a.a.a.p.p.a.a.p.p.p.p.p.p.p.p.a.i.p.p.p.a.a.d.d.d.d.a.a.a.a.a.a.d.d.d.d.a.a.d.d.d.d.d.d.d.d.a.d.a.a.d.d.d.d.d.d.d.a.a.d.d.d.d.d.d.d.d.d.d.d.d.d.d.d.d.d.d.i.0.q.; * ",
"z n n c n c k k k k k c c c k c c c k k c c c c n n n n V k c c n n n n n k z n z n n n n n n n n k z n n n c h c n n n n k n n z z k n n n n n n n n n n n n n n n n n n n n n n n z z n n n n n n M n c c c c c v L R 2.H.K.}.}.}.}.'.'.{.'.'.].[.].].'.'.].].].].{.].].].].].].]..X].'.'.(.W l M n n n n n n n n n n n n n n n n n n z n n n n n n n n n n n n n n n n n n n n m n n n n n m m m m n n n n n n n n n m n n n m m m n n n m n n n n n n n z n n n n n n n n n n n n n m m m m m n n n n n n n m m n n n n m m m m m n m m m m m m n n M v < @ @ o o X o o O X o o O o o O O O & O o X o o o X O O O O O O o X o O O X X o o o O O o & & & & O O O O O o O O O O & O : : & O O O o : : & & & : & O & : & : = > R..X#X#X#X#X#X#X#X#X.X]..X].+X#X.X.X#X#X#X#X#X&X#X#X#X#X#X.X.X#X#X#X#X#X#X#X#X#X&X&X#X&X&X&X#X#X#X#X#X.X#X#X#X#X#X#X#X#X#X{.}.D.b B N m N m m m m m m m m m m m N N m m m m m m m m n m n m m m m n n m n n m m m n m m m m m n n n n n n n n n n n k h l l j j j < < < < , , , # O = y i q.g.d.j.x.j.j.j.j.j.j.d.j.j.j.j.d.d.d.d.j.j.j.d.d.j.d.d.d.j.j.j.j.j.d.d.j.d.d.d.d.d.j.j.d.j.j.j.j.j.j.j.j.j.j.j.j.j.j.j.j.d.d.d.d.j.j.j.j.d.j.j.j.j.d.d.d.d.d.d.j.j.l.j.j.j.j.j.d.j.d.d.j.j.d.d.j.d.j.d.d.d.j.j.d.j.j.j.j.j.j.d.j.j.l.l.j.d.j.j.j.j.j.d.d.j.j.d.d.d.d.j.j.j.j.j.x.x.l.j.j.j.j.j.d.j.j.d.d.d.j.j.d.d.d.j.d.j.j.j.j.j.j.j.j.j.d.d.d.d.j.j.j.j.j.j.j.i._.@X-X-X*X&X&X&X&X&X&X&X$X#X&X&X#X#X#X#X#X#X&X#X&X&X&X&X&X#X#X#X#X#X#X#X#X#X#X#X#X#X#X#X#X#X#X#X&X&X#X$X#X#X#X#X#X#X$X#X#X#X#X#X#X#X#X&X&X[.C.g > & O O O O O o o o O O V.$X#X#X$X&X#X&X&X&X$X#X#X&X&X$X$X$X#X#X#X#X#X#X#X#X#X#X#X#X#X#X#X#X#X#X&X#X#X#X#X&X&X#X$X#X#X&X*X#X#X#X#X#X#X#X#X#X#X#X#X#X+X[.).y.8.l.j.d.d.d.d.d.d.d.d.a.a.d.d.d.a.a.a.a.a.a.a.a.a.a.a.a.a.a.a.a.p.p.p.a.i.a.a.a.a.a.p.p.u.p.u.u.p.p.p.p.p.p.a.a.a.a.p.p.p.p.p.p.p.a.a.a.p.p.a.a.a.d.d.a.a.a.a.a.d.a.a.a.d.d.d.d.d.d.d.d.d.d.d.a.d.d.d.d.d.d.d.a.a.d.d.j.j.j.j.d.d.d.d.a.d.d.d.d.d.d.d.d.d.a.a.d.d.d.d.d.d.d.a.e.r.y * ",
"k k k c c c c c k k k k k k c c c c k k c c c c c c c n n n n n n n k n k k n z n n z k h k k k n n n n n n n c c h h n n k n k k n k n n z n n n n n n n n n n n n n n z n n z z n c z n n n n n n n n n n n k c c k l b v U W L.K.K.}.}.}.}.{.{.{.].].].].].].].].].].].].]..X].].'.{.'.'.K.U l n n n n n n n n n n n n n n n n n n z n n n m m n n n n n n n n n n n n n n n n n n n n n n n n n n n n n n n n n n n m m n n n n n n n n n n n n n n n n n n n n n n n n m m n n n n n n n n m n n n n n n n m m m n n n n m n n m m m m m m m n m m M b , # O O o X o o o o o o o O O O O O : : O O O O o o o o O O O O O o O O O o X o o X X o X o o & O O O = O O O O O & O O O : : O o o o O o O O & & : : O O & O & O a ].].#X#X#X#X#X#X#X#X#X#X].].].#X#X.X#X+X#X#X#X#X#X#X#X#X#X#X#X#X.X#X#X#X#X#X#X#X#X#X#X#X#X#X#X#X&X#X#X#X#X#X#X#X#X#X#X#X#X{.}.W v B A Z m m n n m m m m m m m m m m m m m m m m m m m m m m m m m n n m n n m m m m n m m m m m m m n n n n n n z n c c k l j l < < < < 2 1 - - w g w.t.h.r.f.l.x.x.j.d.j.j.j.j.j.d.j.j.j.j.d.d.d.d.d.j.d.d.d.d.j.j.d.d.j.d.j.j.d.j.j.j.d.d.d.d.j.j.j.j.j.j.j.j.j.d.j.j.d.j.j.j.j.j.j.j.j.j.j.d.j.j.j.d.d.j.d.d.j.d.d.d.j.d.d.j.d.j.j.j.j.j.d.d.j.j.j.j.j.j.j.j.d.d.d.d.j.j.j.j.j.j.j.d.j.j.d.j.d.d.j.d.j.d.d.j.d.j.j.d.d.d.d.d.d.j.j.j.j.j.j.j.j.j.d.d.d.d.j.j.j.j.j.d.d.j.d.d.d.d.d.d.j.j.j.j.d.j.j.d.d.d.d.d.j.d.j.j.j.l.i.T.@X@X-X*X*X&X&X&X&X&X&X&X&X&X&X#X#X#X#X#X#X&X#X#X&X&X&X#X#X#X#X#X#X#X#X#X#X#X&X#X#X#X#X#X#X#X#X#X#X#X#X#X#X#X&X#X#X#X#X#X#X#X#X$X&X&X[.n.a O O O = : = & O O O O O = o g $X#X#X$X#X#X#X#X#X#X#X#X#X#X#X#X#X#X#X#X#X#X#X#X#X#X#X#X#X#X#X#X#X#X#X#X&X#X#X#X#X#X#X#X#X#X$X&X&X#X#X#X&X#X#X#X#X#X#X#X#X#X].).B.=.r.l.d.j.d.d.d.d.d.d.a.a.d.d.d.d.d.f.d.d.f.a.a.a.p.a.a.a.a.a.a.p.p.p.p.a.d.a.p.p.u.u.u.p.p.p.p.p.p.p.p.p.p.p.p.p.p.p.a.p.p.a.a.a.a.a.a.p.p.a.a.a.a.a.a.a.a.a.a.a.a.a.d.a.a.a.a.a.a.d.d.d.d.a.a.d.d.d.d.d.d.d.d.d.d.d.d.d.d.d.d.d.d.d.d.d.d.d.d.d.d.d.d.d.d.d.d.d.j.j.d.d.d.d.a.r.8.* ",
"k c c k c c c c k k c c k h k k h c c k c c c c c c c n n n n n n n n k k n z z n n n k k k n n n n n n n n n n n n n n n z z k k n n n n n n n n n n n n n n n n n n n n n n z z n n z n n n n n n n n n n n n n n n z k k l v v K U 2.H.(.}.}.}.}.{.{.{.{.oXoX{.oX].].].].].oXoX{.].'.'.'.L.b v M n n n n n n n n n n n n n n n n n n n n n n n n n n n n n n n n n n n n n n n n n n n n n n n n n n n n n n n n n m m m m n n n n n n n n n n n n n n n n n n n n n n n m n n n n n n n m n n n n n n n n n n n n n n m m n n n n n n m n n n n m M M 2 , - O o o X o o o o X o o o o O O O O & O o O & O O o o o X o X o O O O O O O O o o o o o X X o O O O O O O O O O O & O O O = O O O o o O O O O & = : : O O O O o n.#X].#X#X#X#X#X#X#X#X#X#X#X].].#X#X]..X#X#X].+X+X#X#X#X#X#X#X#X#X+X#X].#X#X#X#X#X#X#X&X&X#X#X#X#X#X#X#X#X#X#X#X#X{.{.#X#X#X}.K.U M N m N m m n n n n n n m m m m m m m m m n n n n n n m m m m n m m n n m m m m m n m n n m m m m m N N n n n n n c n n k l j l 2 2 2 1 - > g :.t.h.g.f.a.d.d.j.j.j.j.j.j.d.j.j.j.d.d.d.d.j.d.d.d.d.d.d.d.j.j.j.j.d.d.d.d.d.d.j.j.j.j.j.d.d.j.j.d.j.j.j.j.j.j.d.j.d.d.j.d.j.j.j.j.j.j.j.j.j.j.d.d.j.d.d.d.j.d.d.d.d.d.d.d.d.j.d.d.a.d.j.j.j.d.d.j.j.j.j.j.d.j.j.j.j.d.d.d.j.j.j.d.d.j.j.d.d.d.j.j.j.d.j.d.d.d.d.d.j.d.j.d.j.j.d.d.j.j.j.j.j.j.d.j.j.d.d.d.j.j.j.j.d.j.d.j.d.j.j.j.j.d.d.j.j.j.j.j.j.j.d.d.d.d.d.d.j.d.j.j.d.d.t.@X@X-X=X*X$X&X#X&X&X#X#X#X#X#X&X&X&X&X&X&X&X#X#X#X#X#X#X#X&X#X#X#X#X#X#X#X#X#X#X#X#X#X#X#X#X#X#X#X#X#X#X#X&X&X&X&X&X$X#X#X&X$XV.V.f > O O O O O O : : : & = & & O & O : `.$X#X$X$X#X#X#X#X#X#X#X#X#X#X#X#X#X#X#X#X#X#X#X#X#X#X#X$X#X#X#X#X#X#X#X#X#X#X#X#X#X#X#X#X#X$X$X#X#X#X$X&X#X#X#X#X#X#X#X#X#X+X[.R.8.8.l.l.d.d.d.d.d.d.a.a.d.d.d.d.d.d.d.d.d.f.f.d.a.p.a.a.a.a.a.a.a.a.a.a.a.p.u.u.u.p.p.p.p.p.p.p.p.p.p.p.p.p.p.p.p.p.p.a.a.a.a.a.p.p.a.p.p.a.a.a.a.a.a.a.a.a.a.a.a.a.a.a.a.a.a.d.d.d.a.a.a.a.d.a.d.d.d.d.d.d.d.j.d.d.d.d.d.d.d.d.d.d.d.d.d.d.d.d.d.d.d.d.d.d.d.d.d.d.d.d.d.d.d.d.r.t.u ",
"k k c c n c c c k h c h h h h k c c k k c k c c c n n c h h z z c n n n c n k k z n n n n n n n n n n n n n n n n n n n n n n n k k z z n n n n z z h h n n n n n n n n n z z n n n n n n n n n n n n n n n n n n n n n z z n c k k c c v U W K.(.}.}.}.}.{.{.{.{.{.oX{.oX].].].].].{.'.[.J.,.b M n n n n n n n n n n n n n n n n n n n n n n n n n n n n n n n n n n z z n n n n n n n n n n n n m n n n n n n n m m n n n n n n n n n n n n n n n n n n n n n n n n n n n n n n n n n n n n m m n n n n n n n m n n n n n n n n n n n n n n n n m m M v < # - & O o o o o o o o o o o o o o o O O O O O O O O O O O O o o o o o o O O & & O O o o o o o O o O O O O O O o O O & o O o O O O O O o o O o O O O & = & O O O : ~.#X#X#X&X#X#X#X#X#X#X#X#X#X.X].#X#X#X.X#X#X.X+X#X.X#X#X#X#X#X#X#X#X#X#X].#X#X#X#X#X#X#X$X&X#X#X#X].#X#X#X#X#X#X#X#X#X#X#X{.}.L.v B N N m m m n n n m n n m m m m m m n n m m n m n n n n m m m m m n m m m m m m m n n n n n m m n n n n n n n n n c k k k l l 4 2 1 r g :.w.t.r.i.f.a.d.j.d.j.j.j.j.j.j.d.j.j.j.j.j.d.d.d.j.j.j.d.j.j.j.j.j.d.j.d.d.d.d.d.d.d.j.j.j.d.d.d.j.d.j.j.j.j.j.j.d.j.d.j.j.d.d.d.d.j.j.j.j.j.j.d.d.j.d.d.d.j.d.j.c.j.j.d.d.d.d.j.j.j.j.j.j.d.j.d.d.d.d.j.j.d.d.d.d.d.j.j.j.j.d.d.d.d.d.j.j.j.j.d.d.j.j.j.j.j.d.d.d.d.j.j.j.d.d.j.j.d.d.d.d.j.j.j.j.j.j.d.d.d.d.d.j.j.d.d.d.d.d.d.j.d.j.d.j.d.d.d.j.j.j.j.j.j.j.j.j.d.d.d.d.d.j.j.j.d.i._.@X-X=X&X$X#X&X&X&X#X#X#X#X#X#X#X#X#X&X#X#X#X#X#X#X#X#X#X#X#X#X#X#X#X#X#X#X#X#X&X&X&X#X#X#X#X#X#X#X#X#X#X#X#X#X#X#X$X&X.X`.n.> = O O O O O O & & : = : & = = = = = = X E *X#X#X$X#X#X#X#X#X#X#X#X#X#X#X#X#X#X#X#X#X#X#X#X#X#X#X$X#X#X#X#X#X#X#X#X#X#X#X#X&X&X#X#X#X#X#X#X#X#X#X#X&X#X#X#X#X#X#X#X#X.X].).w.=.g.d.j.j.d.d.d.d.a.a.a.d.d.d.d.a.a.a.a.a.d.a.a.a.a.a.a.a.d.d.d.d.a.p.p.p.p.p.p.p.p.a.p.p.p.p.p.p.p.p.p.p.p.p.p.p.p.a.a.a.s.s.p.p.a.p.s.a.a.p.s.s.s.s.a.p.a.a.a.a.a.a.a.d.a.d.d.d.d.d.a.d.d.d.d.d.d.a.d.d.d.d.d.d.d.d.d.d.d.d.d.d.d.d.d.d.d.d.d.d.d.d.d.d.d.d.d.d.d.d.d.d.d.d.a.g.;.",
"n c k c c c c k k k k k k h k n n n n z z k c c h h h h h c n n n c c n c n n n n n z n n n n n n n c k n c n n n k n c c c n c k c n n n z n n n k k n z n n z n n n n n n n n n n n n n n n n n n n n n n n n n n n n n n n n n n c k l l l K U W L.K.K.}.}.}.}.}.{.{.{.].].].[.].].'.`.J.I c M n n n m n n n n n n n n n n n N m n n n n n n n n m n n n n n n n n n n n n n n n n n n m n n n n m m n n n n n n m m n n n n n n n n m n n n n n n n n n z z n n n n n n n n n n n n n n n m m m m n n n n n n m m n n n n n n n n n n n n m m m m M b , # = = O O o o O O o O o o o o o o O O O O O O O O O O O O o O O o O o O O O & & & & O O o O o O O O O o o O O O O O O o O & & O O O o O O O O O O O O O O = & o g oX#X#X#X&X&X&X&X#X#X#X#X#X#X#X#X.X#X#X#X#X#X#X#X#X#X#X#X#X#X#X#X#X#X#X#X#X].|.#X#X#X#X#X#X$X#X#X#X#X#X#X#X$X#X#X&X$X&X&X#X{.}.W v N N N m m m m n n n n n n m m m m m m m m m n n m N m m m n m m m m m m m m m m m m m n m m m m n m n n n n n M n n c c b 4 4 r s :.w.t.t.i.i.i.d.d.d.j.j.j.j.j.j.j.j.j.d.d.j.j.j.j.d.d.j.j.j.j.j.j.d.d.j.j.d.d.d.j.d.d.j.d.d.d.d.j.j.d.d.d.d.j.j.j.j.j.j.j.d.d.j.d.d.a.d.j.j.j.j.j.j.d.d.j.d.d.j.d.d.j.j.j.d.d.d.d.j.j.j.j.j.j.l.j.j.j.j.j.d.d.j.d.d.d.d.d.j.j.j.d.j.d.d.d.j.d.j.j.j.j.j.j.j.j.j.j.j.j.d.d.j.j.d.j.j.j.j.j.j.d.d.d.j.j.j.l.j.j.j.j.j.d.d.d.d.d.d.d.d.j.d.d.d.d.d.d.d.j.d.j.j.j.d.d.j.j.j.d.d.d.j.j.j.j.j.j.j.d.g.@X@X-X&X&X#X&X&X&X#X#X#X#X#X&X&X#X#X#X#X#X#X#X#X#X#X#X&X$X#X&X&X$X#X#X#X#X#X#X#X#X$X#X#X#X#X#X#X#X#X#X].#X#X&X&X#X].n.a > & = = O O O : O & & = : : : & & & & = O O o 3 #X#X#X#X#X#X#X#X#X#X#X#X#X#X#X#X#X#X#X#X#X#X#X#X&X#X#X#X#X#X#X#X#X#X#X#X#X#X#X#X#X#X#X#X#X#X#X#X#X#X#X#X#X#X#X#X#X#X#X#X#X.X.XXXB.;.q.z.d.j.d.d.d.d.d.d.d.d.d.d.a.a.a.a.a.a.a.d.d.d.d.d.d.d.d.a.a.u.u.p.p.p.p.p.a.a.a.a.p.p.p.p.p.p.p.p.p.p.a.a.a.p.p.p.s.a.p.p.p.p.s.s.s.s.s.s.s.s.s.p.s.p.a.a.a.a.a.a.d.d.d.d.d.d.d.d.d.a.d.d.d.d.d.d.d.d.d.d.d.d.d.d.d.d.d.d.d.d.d.d.d.a.d.d.d.d.d.d.d.d.d.d.d.d.d.d.d.d.d.d.d.i.r.",
"n n c k k c c k k k k c c c c n n n n n k c n n n h h c c c c n n n c k k n n n n n n n n n n n n n c k k n n n n n n c c n n k h c n n n n n n n n n n n n n n z n n n n n n n n n n n n n k h c n n n n n n c c n n n n n n n n n n n c c c k c c v U U W L.K.(.}.}.}.}.{.{.{.].[.'.'.J.L.b c n n n M m n m n n n n n n n n n m m m n n n n n n n m m n n n n n n n m m m m n n n n n n n n n n n n n n n n n n n n m n m n n n n n n m n n n n n n n n n m n z n n n n n n n z n n n n n n n n m m n n n n n n n m m n n n n n n n n n m m m m m m M 2 , # O O O o o o o o o O O O o o O O O O O o X o O o O O O O o o o X o o o o O O O & O O : O O O O O o o O O O o o O O O o O O O & O O O O O = & O O O O O O & & o n.#X#X#X#X&X&X&X#X#X#X#X#X#X#X#X#X#X#X#X#X#X#X#X+X#X#X#X#X#X#X#X#X#X#X].].#X#X].#X#X#X#X#X#X#X&X#X#X#X#X#X#X#X#X#X&X&X$X#X#XOXK.U M N N m m m N N m m n n n n n m m m m m m m m n n n n n n n m m n m m m m m m m m m m m m N N m m m n n M M n M c v v b 4 4 e f y.B.h.h.g.f.f.a.d.d.j.d.j.d.j.j.j.j.j.j.j.d.j.d.j.j.d.d.d.d.j.j.j.j.j.j.d.d.d.j.d.d.j.j.j.d.d.d.d.d.d.d.j.d.d.d.j.d.j.j.j.j.j.d.d.d.j.j.j.j.j.j.j.j.d.j.d.d.d.j.j.j.j.j.j.j.j.j.j.j.j.j.j.j.j.j.j.j.j.j.j.j.j.d.j.d.d.d.d.d.d.j.j.j.j.j.j.d.j.j.j.j.j.j.l.l.j.j.j.j.j.d.j.j.j.j.j.j.j.d.d.j.j.j.j.j.d.j.j.j.x.x.l.l.l.j.d.d.d.j.d.d.j.j.j.d.d.j.d.d.d.d.d.d.j.j.d.d.d.d.d.j.j.j.d.j.j.d.j.j.j.j.l.i._.@X-X-X#X&X&X&X&X#X&X&X&X&X&X#X#X#X#X&X&X#X#X#X#X#X#X#X#X&X&X&X#X$X$X&X&X#X#X#X&X#X#X#X#X#X#X#X#X#X#X#X&X*X[.V.f > O O = = O O O O & = : : & & : O : : & & & O O O O O V.=X#X#X#X#X#X#X#X#X#X#X#X#X#X#X#X#X#X#X$X&X#X$X$X#X#X#X#X#X#X#X#X#X#X#X.X#X#X#X#X#X#X#X#X#X#X#X#X#X#X#X#X#X#X#X#X&X&X#X#X#X.X].).y.;.z.d.d.d.d.d.d.d.d.d.d.d.d.d.d.a.d.d.d.a.a.d.d.d.d.a.a.p.p.p.a.a.p.p.p.p.p.p.a.p.p.p.p.p.p.p.a.a.p.a.a.a.a.a.a.a.a.a.a.a.s.s.s.p.p.p.p.a.a.a.a.a.a.a.a.a.a.a.a.a.a.d.d.d.d.d.d.a.d.d.d.d.d.d.d.d.d.a.d.d.d.d.d.d.d.d.d.d.d.d.d.d.l.j.d.a.a.d.d.d.d.d.d.d.d.d.d.d.d.d.d.d.d.a.a.g.",
"c c c n c n c c n n c c c k c c n n n n z n c c n c c k k k k z n c k k k n n n n n n n n n n n n n k c n n n k k n k c c c k h k c c z k n z n n n n n n n n n n n n n n n n n n n z z n n n c c n n n n n n n n n n n n n n n n n n n n c c c c c c k l v v U W W L.(.}.}.}.}.}.}.'.'.K.W l n n n n n n n n n n n n n n n n n n m m n n n n m n n n n n n n n n n n m m n n n n n n n n n n n n n n n n n n n n n n n m m n n n n n n n n n n n n n n n n B n n n z z n n n n n n n n n n n n n n n n n n n n n n n n m m n n n m m n n n m m m m m v < # # O o o o o o o o o o O O O o o O O o o o o O O o o O O O O O O O o o o o O o O O O o O : & O O O O O O O O O O o O o o O O O O O & & O = : O & & O O O O & O : V.oX].#X#X#X&X&X&X&X#X#X#X#X#X#X#X#X.X#X#X#X#X#X#X.X#X#X#X#X#X#X#X#X#X#X|.#X#X].].#X#X&X#X#X#X#X#X#X#X#X#X#X#X#X#X#X&X&X#XoX}.K.v M m N m m m m m N m n n n n n n n m m m m m m n n n n n m m m m n m n m m m m m m m m m m m m m m m n n M M M M v b e e g >.B.T.g.g.f.f.d.d.d.d.d.d.d.d.j.d.j.j.j.d.j.j.d.d.d.d.d.j.j.j.j.j.j.j.j.d.d.j.j.j.j.j.j.j.j.j.d.d.d.d.j.d.d.d.d.d.d.d.d.d.d.d.j.j.d.d.j.j.j.j.j.x.j.j.d.d.j.d.d.d.d.d.d.j.j.j.j.d.j.j.j.j.j.d.j.d.d.j.j.j.j.j.j.j.j.d.d.j.d.d.d.d.d.d.j.j.j.j.j.j.j.j.j.j.j.j.j.x.j.j.d.j.j.j.d.j.j.j.j.d.j.d.j.d.d.d.j.d.j.d.d.j.j.j.j.j.d.d.d.j.j.j.j.d.d.j.d.d.d.j.j.j.d.d.d.d.d.j.j.j.j.j.j.j.j.j.j.d.d.d.j.j.j.j.l.d.g.@X-X-X&X&X&X$X&X$X$X&X&X&X&X#X#X#X#X#X#X#X#X#X#X#X#X#X#X&X&X#X#X#X#X#X#X&X&X&X&X#X#X#X#X#X#X#X#X#X#X#X`.n.a O + O O O O : = O & & & = : = = : & & : O O O o o O & : o g *X#X#X&X$X$X#X#X#X#X#X#X#X#X#X#X#X#X#X#X&X&X&X$X#X#X#X#X#X$X#X#X#X#X#X#X#X#X#X#X#X#X#X#X#X#X#X#X#X#X#X#X#X#X#X#X$X&X#X#X#X#X].).B.;.r.l.d.d.d.d.d.d.d.d.d.d.a.d.d.d.a.a.d.j.l.j.d.a.p.p.p.a.a.a.a.a.a.a.a.p.p.p.p.s.s.a.a.a.p.p.a.a.a.a.a.a.a.a.a.a.a.a.a.a.s.s.s.p.s.s.a.a.a.a.a.a.s.s.s.s.a.s.a.a.a.a.d.d.d.d.d.a.a.a.d.a.a.d.d.d.d.a.d.d.d.d.d.d.d.d.d.d.d.d.d.d.d.d.a.a.a.d.d.d.d.d.d.d.a.d.d.d.d.d.d.d.d.d.d.i.",
"k k c n n n c n n n c c c c c n c k k n n z k k k c c k k k n n n n k k c k n n n n z n n k k h c n c c n n n k k k k c k h h k n n z z z k k k k c c n n n n n n n z z n n n n z z n n n n n n n n n n n n n n n n n n n n n z n n n n z n n c k k c c k k k k c b b U W L.K.}.}.}.}.(.K.I c n n n n n n n n n n n n n n n n n n n n n n n n n n n n n V n n n n n n n n n n n n n n n n n n n n n n n m n n n n n n n n m m n m n n n n n n n n n n n n m n n n n n n n n n n n n n n n n n n n n n n n n n n n n n n n n n n n m m m m m m m m m M l , # O O O o O O o O o o O o O o O O O O o o X o O O o o o O & O O O O o o O o O : & & O o o o & & O O O O O O O O O O O O O O O O o O O O o O : : O O O & O = : O a ].].oX.X#X#X#X#X#X#X&X#X&X&X#X#X#X#X.X.X#X#X#X#X#X#X#X#X&X#X#X#X#X#X#X#X#X#X.X#X.X#X#X&X&X#X+X#X#X#X&X#X#X#X#X#X#X#X#X&X#X{.}.W v B m m m m m m m m m m m m m m m n n n m m m m n m N m n m m m m n n n m m m m m m m m m n n n n m n n n n M v K T >.>.B.T.g.g.g.d.l.l.d.d.j.j.d.j.d.d.j.d.d.d.d.j.j.d.d.j.d.j.j.d.d.d.j.j.j.j.j.j.d.d.d.d.j.j.j.d.j.j.d.d.d.d.d.j.d.d.j.j.d.d.j.d.d.d.d.d.j.j.j.j.j.j.j.j.j.d.d.d.j.j.j.d.d.d.d.j.j.j.j.j.j.d.d.j.j.j.d.d.d.d.d.j.j.j.j.j.j.j.j.d.j.j.d.d.d.d.d.j.d.d.j.j.j.j.d.d.d.d.d.d.l.l.d.d.d.j.l.d.d.d.j.j.j.j.j.j.j.j.j.j.d.d.d.d.d.d.d.d.d.d.d.d.d.j.d.j.j.d.j.j.x.l.d.d.j.j.j.d.d.d.j.d.d.j.j.j.j.j.d.j.d.d.j.d.j.j.j.j.l.r._.@X-X-X&X&X&X&X$X$X#X&X&X#X#X#X&X#X#X#X#X#X&X&X#X#X&X&X#X&X&X#X#X#X#X&X&X&X#X#X#X#X#X#X#X#X#X].`.n.a : O o O O O O O O & O = & O : O : : & O O O O o O O O o O O O O : ~.=X#X#X#X$X#X#X#X#X#X#X#X#X#X#X#X#X#X#X#X&X#X#X#X#X#X#X#X#X#X#X#X#X#X#X#X#X#X#X#X#X#X#X#X#X#X#X#X#X#X#X#X#X#X#X#X#X#X#X#X#X.XXXR.y.8.g.d.d.d.d.d.d.d.d.d.d.d.d.d.d.d.d.j.l.d.a.p.p.p.a.a.a.a.d.d.a.a.a.a.a.a.a.p.p.s.s.p.p.s.s.p.a.s.p.p.p.p.s.s.s.s.s.s.s.s.s.s.s.s.a.a.a.s.s.a.s.s.s.s.a.a.s.s.d.d.d.d.a.a.a.a.a.a.a.d.d.a.a.a.a.d.d.d.d.d.d.d.d.j.d.d.d.d.d.d.a.d.a.d.d.a.d.d.d.d.d.d.d.d.d.d.d.d.d.j.d.d.a.d.d.",
"c c c c c c c n k k n n c c c c c c k n n k k k k c n n z n n n n n n k k c n n n n k z n n c c h c c k c c c k k k c k k k c c n n z n n z k k k k c n n n n n n n n z z k n n n z n n n n n n n n n n n n n n n n n n n n n n n n n n n n n k n n n c n n n n n k k l l v U W L.K.(.(.L.b c n n n n n n n n n n z n n n n n n n n n n n n n n n n n n n n n n n n n n n n n n n n n n n n z n n n n n n n n m n n n n n n m m m m m n n n n m n n n n n n n n n n n n n n n m n n n n n n m n n n n n n n n n n n n n n n n n n n m N m m n n m n n 2 , # O O O O + o o O O X O O O O O O O O O : o o o o o o O O O o o o O o o X O O O : & O o X X O O O & & O O O O O O O o o & O O O O O o O O O O & O O O = : : : > n.].].].#X#X#X#X.X#X#X#X#X#X#X#X#X#X#X#X.X.X#X#X#X#X#X].#X#X#X#X#X#X#X#X#X#X#X#X#X+X.X.X#X#X#X#X#X#X#X#X#X#X$X#X&X#X#X#X#X#X{.(.U M N m m m m m m m m m m m m m m m n n n n m m m m m N Z m m m m m m n n m m m m m m m m m n n n n m m m M v b e >.C.T.h.g.i.g.g.l.j.j.l.x.d.j.d.j.d.d.d.d.d.d.d.d.j.j.j.j.j.d.j.j.d.j.d.j.j.j.d.d.d.d.d.d.j.d.j.d.d.d.d.d.d.d.d.d.j.j.d.d.j.j.j.j.j.j.d.d.d.j.j.j.j.j.d.j.j.j.j.d.d.d.d.j.j.d.d.d.d.d.d.j.j.j.j.j.j.j.j.j.j.j.j.j.j.j.j.j.d.j.d.d.j.j.j.d.d.d.j.d.d.j.j.d.d.d.d.d.j.d.d.d.d.d.j.j.j.d.d.d.d.d.d.d.d.j.j.j.j.d.d.d.d.j.d.d.d.d.d.d.d.d.j.j.d.j.d.d.d.j.d.j.j.j.l.j.d.d.d.d.d.j.d.d.d.d.d.j.j.j.j.d.d.d.d.d.j.d.d.d.d.j.a.z.@X-X&X&X&X#X#X#X$X#X#X#X#X#X#X#X&X&X#X#X#X#X#X#X&X#X#X#X#X$X#X#X#X#X&X&X#X#X#X#X#X#X#X&X].V.a : o o O o O O o o O O O & O & & O O O O O O O O O O O O O O O O O O O o f $X#X#X#X#X#X#X#X#X#X#X#X#X#X#X#X#X#X.X#X#X#X#X#X#X#X#X#X#X#X#X#X#X#X#X#X#X#X#X#X#X#X#X#X#X#X#X#X#X#X&X&X#X#X#X#X#X#X#X#X#X+X].).B.;.t.g.d.j.d.d.d.d.d.d.d.a.d.d.d.d.d.a.p.p.p.a.a.a.a.a.a.a.a.a.a.a.a.a.a.a.a.p.p.p.p.p.s.s.s.p.s.p.p.p.p.s.s.s.s.s.s.s.s.a.a.s.s.s.s.s.s.s.a.s.s.s.s.a.a.s.s.d.d.d.a.a.a.a.a.a.a.d.d.d.d.a.a.a.a.d.d.a.d.d.d.d.d.d.d.d.d.a.d.d.d.d.d.a.a.d.d.d.d.d.d.d.d.d.d.d.d.d.l.d.j.d.d.a.a.",
"n c c k n c k c k k k c c n k h h h k k n n c c c c n n n n n n n n n n c n z n n n z n z k n c h k k k k c c k c c c n c k c c n n n n M n z k k k c z n n n n n n n n z k n n n z n n n z z n n n n n n z z n n n n n n n n n n n n n n n n n k n n n n n n n n z n n k k l b b U 2.! U c n n n n n n n n n n n n n n n n V V z n n n n n n n n n n n n n n n n n n n n n n n m n n n n n n n n n n n n n n m n n m n n n n m m m m n n n n n n n n n n n n n n n n n n n n m N n n n n n n n n n n n n n z n n n n n n n n n n n n m m m n m m M M 2 # # O = O X O O O o o o o X X O : O o X o O : : o o o & O O & O O o o o o O o O O & & o O : O O o X O & O = & = O o o O o o O O O O O : : O O & O & O O = : : : > `.#X.X#X#X#X#X.X.X#X#X#X#X#X#X#X#X#X#X#X#X#X.X.X#X#X#X#X.X#X#X.X#X#X#X#X#X#X#X#X#X#X#X#X#X#X#X#X#X#X#X#X#X#X#X#X$X$X#X#X#X#XOXL.v B N m m m m m m N m m m m m m m m m m n n n n m m N m m m m n m m m m m m n m m m m m n n n m m n m N N M b E C.T.t.i.f.f.j.j.x.j.j.j.d.d.d.j.j.d.j.l.j.j.j.d.j.j.j.j.d.j.j.j.j.j.d.d.d.d.d.j.d.d.d.d.d.j.d.d.d.d.j.d.j.d.d.j.j.j.d.j.j.j.j.d.j.j.j.d.d.j.j.j.j.j.j.d.l.j.d.j.j.d.d.d.d.d.j.j.d.d.d.d.d.d.d.d.d.d.j.d.j.j.d.j.j.j.j.d.d.d.d.d.j.j.d.j.j.d.j.j.d.d.d.j.d.d.d.d.d.d.j.j.j.j.j.d.d.j.j.j.j.j.j.j.d.d.d.j.d.j.j.d.d.d.d.d.j.j.j.j.d.j.d.d.d.d.d.d.d.d.d.d.d.d.d.d.d.d.j.d.d.j.j.j.j.d.d.a.d.d.d.d.d.j.j.d.l.j.d.d.d.d.d.d.k.r._.@X&X&X&X#X#X#X#X#X#X#X#X#X#X#X#X#X#X#X#X#X#X#X&X$X$X#X#X#X#X#X#X#X#X#X#X#X#X#X&X#XV.f a O O O O O o o O o O O O O o o o O O O O O O O O & O O & = O & = O O : : O O > {.$X$X#X#X#X#X#X#X#X#X#X#X#X#X#X#X#X#X].#X#X#X#X#X#X#X#X#X#X#X#X#X#X#X#X&X&X&X#X#X#X#X#X#X#X#X.X#X#X#X#X#X#X#X.X#X#X#X#X#X+X].[.R.y.8.g.d.j.d.d.d.d.d.d.d.c.x.d.d.a.p.p.a.a.a.a.a.a.a.a.a.a.a.a.a.a.a.a.p.p.p.p.p.p.s.p.s.s.s.s.s.s.p.s.s.s.s.s.s.s.s.a.s.a.s.s.a.a.a.s.s.s.a.s.a.s.a.s.s.s.s.a.a.a.a.d.d.a.a.a.a.d.a.d.d.a.d.a.d.d.d.d.a.d.d.d.d.d.d.d.a.d.d.d.d.d.d.a.d.d.d.d.d.d.a.d.d.d.a.a.d.d.d.d.d.j.d.d.d.",
"c k c c c k c n k k k k k k k k k h k c c n k n c c n n n n c c n n n k c n n n n n z n n n n n h c c k k k c c n n c c n n c c n n M n k n n n c c c h k n n n n z n n n n n n n n n n n z z k k k n n n n n z z n n n n n n n n n z z z n n n k h c n n n n n n n n n n n n n c c l j l c n z n n n n n n n n n n n n n n n n n n n n n n n n n n n n n n n n n n n n n n m n n n n n n n n n z n n n n n n n n n n n n n m m m m n n n n n n n m m m n n n n n n n n n n n n n n n n n m n n n n n n n n n n n n n n n n z z z n n m m n m n M M b , # # O O O o X X O & & O O o X o O O O o X X X O O O O o o O O O & O & o o O & O O O O o O O : = O O o O O & O O O O O & O o O o O O O O & : : : & O O O O & = O a '.#X#X#X#X#X#X#X#X#X#X#X.X.X#X#X#X#X#X#X#X#X#X#X#X#X#X#X.X.X#X#X].#X#X#X#X#X&X#X#X#X#X#X#X#X#X#X#X#X#X#X#X#X#X#X#X#X#X#X#XoX}.W v B m m A N m m m m m m m m m m m n m n n m n m n n m N m m m n m m m m n n m m m m m m m m m m N M n m B v K m.B.h.f.d.x.b.b.j.j.j.j.j.j.d.d.d.d.j.j.d.j.j.j.j.d.d.j.j.j.j.j.j.d.d.d.j.d.j.j.j.j.j.d.d.j.j.j.d.j.d.d.d.j.j.j.j.j.j.d.d.d.d.j.d.d.d.j.j.j.j.j.j.j.d.g.g.f.v.d.d.d.j.d.d.j.j.j.j.j.j.d.d.d.d.j.j.j.d.a.d.d.d.j.d.j.j.j.d.j.j.j.j.d.j.d.d.d.j.d.j.j.j.j.j.d.d.d.j.d.d.j.j.d.j.d.d.d.d.d.d.j.l.j.d.j.j.d.j.d.j.j.j.d.d.d.d.d.d.j.j.d.d.d.d.d.d.d.d.j.d.d.j.j.d.d.j.j.j.j.d.d.d.d.d.d.j.j.d.d.d.d.d.j.j.d.j.j.d.d.j.j.j.j.j.d.r.z.@X@X#X&X&X#X&X&X#X#X#X#X#X#X#X#X#X#X#X#X#X#X#X#X#X$X#X&X#X#X#X#X#X#X#X#X&X&X`.n.a : O o O & = & O O O O O O O O o O O & : O & O O O O O O O & & O O & : O O & & = O o n.=X#X#X#X$X&X#X#X#X#X#X#X#X#X#X#X#X#X.X#X#X#X#X#X#X#X#X#X#X#X#X#X#X#X#X#X#X&X#X#X#X#X#X#X#X#X#X#X#X#X#X#X#X#X#X#X#X#X#X#X#X+X[.).B.=.i.d.d.d.d.d.j.j.j.d.x.d.u.a.d.d.d.d.d.a.a.a.a.a.a.a.a.a.s.p.p.a.a.p.p.p.p.p.p.s.p.s.s.a.s.s.s.s.s.s.s.s.s.s.s.a.a.a.s.p.s.s.s.a.s.a.a.a.a.d.d.s.a.s.s.s.s.a.s.a.a.a.a.a.a.a.a.d.a.d.d.d.d.a.d.d.d.d.d.d.j.d.d.d.d.a.a.d.d.d.d.d.d.l.d.d.d.d.d.d.d.d.d.d.j.d.j.d.d.d.d.d.d.a.",
"c k k k h c c c n n z k n n c n n c k k k c c c c c c c k k c c n n k c c k n n n n n k n n n n k n n k c c c c c c n z n n c c n n n n c h z n c c c k k c n n n n z z z z n n n n n n n n n z k k k k n n n n k n n n n n n n n n z z z n n n n n h k n z n n n n n n n n n n n c k k k n n z n n n n n z c n n n n n n n n n n n n n n n n n n n n n n n n n n z n n n n n n n n n n n n m n n n n n n n n n n n n n n n m n n n n n n n n n n m m m n n n n n n n n n n n n n n n n n n n n n n n n n n n M n n n n n n n n n n M N m n n n n c 2 , # o o o o o o o o o O O O O o O O O O O O o o O o O o o O o o o o o O O : : O O & & O O O O o O O & O O O O O O X X O & : o o & O O & O O O & = = & : : & : : o n.#X]..X+X+X.X.X#X.X.X#X#X+X#X#X#X#X#X#X#X#X#X#X#X#X#X#X#X#X#X#X#X#X#X#X#X#X#X&X#X#X#X#X#X#X#X#X#X#X#X#X#X#X#X#X#X#X#X#X#X#X{.K.U v N m N m N A N N m m N m m m m m m m m m m m m m m m m N N m m m m m m m m n n m m m m m m m m m M n n M v 4 f T.g.d.j.d.d.j.j.d.d.d.d.d.d.j.j.d.l.x.d.d.j.j.j.j.d.d.d.j.d.j.d.j.d.d.d.j.j.j.j.j.j.j.d.d.d.d.j.j.j.d.j.d.d.j.j.j.j.j.j.d.d.d.j.j.d.j.j.j.j.j.l.z.g.r.6.=.i.d.d.j.j.j.j.j.d.j.j.j.d.j.d.d.j.j.d.d.d.d.d.d.j.d.d.j.d.j.j.d.d.j.j.d.j.j.d.d.d.j.j.j.j.j.j.j.j.j.d.j.d.j.j.j.j.j.d.d.d.a.d.d.d.d.j.d.d.d.d.j.d.d.j.l.j.d.d.d.d.j.j.j.d.d.d.d.d.j.j.d.d.d.d.a.d.j.d.j.j.d.d.d.d.j.j.d.d.j.d.d.d.j.d.j.j.l.j.d.d.d.j.j.d.d.d.d.a.r._.@X&X&X&X&X&X#X#X#X#X#X#X#X#X#X#X#X#X#X#X#X#X#X#X#X#X#X#X#X#X#X#X#X#X[.C.f > O O O O O O & O O O O O O O O O o o O : & & O O o o O O O O O & O O O & O O O : : & O o a #X#X#X#X#X#X#X#X#X#X#X#X#X#X#X#X&X&X#X#X#X#X#X#X#X#X#X#X#X#X#X#X#X#X#X#X#X#X#X#X#X$X#X#X#X#X#X#X#X#X#X#X.X|.#X#X#X#X#X#X#X.X].`.T.8.q.g.d.l.d.d.j.j.a.i.p.a.a.d.d.d.d.d.d.d.d.d.a.a.a.a.a.a.a.a.s.a.a.a.a.a.p.p.p.s.s.p.p.p.p.p.s.s.s.s.a.s.a.a.a.a.a.a.s.s.s.a.s.a.a.a.s.s.s.a.s.s.s.s.s.a.a.a.s.a.a.a.a.a.d.d.a.a.d.d.d.d.d.d.d.d.d.d.d.d.j.d.d.d.d.d.d.d.d.d.d.d.d.d.d.d.d.a.d.d.d.d.d.d.d.d.d.d.d.d.d.a.d.d.",
"c c k h h k k k k n n n n z k n k c c h k c c c c c c k h k c c n n c n n c k k k k n n n z n z n n n n z c c c c c n n n n n z c n c c n n k k n c k c c c k k n n n z k z n n n n n n n z z z k k k z n n n n c k k n n n n n n n z n n n n n n n n n n n n n n n n n n n n n n n n k z z n n n n n n n n c n n n n n n n n n n n n n n n n n n n n n n n n n n n n n n n n n n n m n n n n n n n n n n n n n n n n n n n n m n n n n n m m n n m m m n n n n n n m m m m m m m m n n n n n n n n n n n n n n n n n n n n n n n n n n m m n n c b < # # O o o O O o o O O o O o o O O & & O O o o O o o o O o o o O o o o o O O & = : = O O O O : & O O O O O O O o O o o o O & O O O O O O O O O O O O : : : : : = : V.oX].#X#X#X#X#X#X#X#X#X#X#X+X#X#X+X#X#X#X#X#X#X].].#X#X#X#X#X#X#X#X#X#X#X#X#X#X#X#X#X#X#X.X#X#X#X#X#X#X#X#X#X#X#X#X#X.X.X{.}.L.v M m m m N m m m Z A N m m m m m m N m m m m m m m m m m m m m m m m m m N N m m n m m n n n n n n n c k n v 4 r C.g.d.d.d.d.d.j.j.d.d.d.j.j.d.d.j.j.j.j.d.j.j.j.j.j.d.j.j.x.j.j.d.j.j.d.d.j.j.j.j.j.j.j.d.d.d.d.d.d.d.d.d.d.d.d.j.d.j.d.d.j.d.j.j.j.j.j.l.g.g.r.t.w.w.w.;.8.z.d.j.j.d.d.d.d.d.j.j.j.j.j.d.d.d.d.d.d.j.j.j.d.d.d.d.j.j.j.d.d.d.d.d.d.j.j.d.d.j.d.d.d.d.j.d.d.j.d.j.j.d.j.j.j.j.j.d.j.j.j.d.j.j.d.d.d.d.d.d.d.d.j.d.j.j.d.d.j.d.j.j.j.d.d.j.d.d.d.d.d.d.d.j.d.d.j.d.d.d.j.j.d.d.d.d.d.j.d.j.d.j.j.d.j.d.j.j.j.d.d.d.d.d.d.d.d.r._.@X-X&X&X&X&X&X#X#X#X#X#X#X#X#X#X#X#X#X#X#X#X#X#X#X#X#X#X#X&X#X#XV.g a : O O & O & O O O O o o O O O o O O o o o O O O o O o o o o O & & O = O & O o O O o : = O & & O V.$X{.#X#X#X#X#X#X#X#X#X#X#X#X#X#X&X#X#X#X#X#X#X#X#X#X#X#X#X#X#X#X#X&X&X&X#X&X#X#X$X#X#X#X#X#X#X#X#X#X#X#X#X#X#X#X#X#X#X#X#X#X[.).w.=.g.l.d.d.a.i.i.a.d.d.d.d.d.d.d.d.d.d.d.d.d.a.a.a.a.a.a.a.s.p.p.s.a.a.s.s.s.s.s.s.s.s.p.p.p.s.s.a.s.a.a.a.a.a.a.a.a.s.s.a.a.s.a.a.a.s.s.p.s.s.s.a.s.p.s.s.s.a.a.a.a.a.a.d.d.d.a.d.d.d.d.d.d.d.d.d.d.d.d.d.d.d.d.d.d.d.d.d.d.d.d.d.d.d.a.a.d.d.d.d.d.d.d.a.d.a.d.d.d.d.d.d.a.",
"k k k k k k k k n n n n n z z n c c c c c k k k c c c k k c c c h h c n c c k c k k k z z n n n n n n n z k c n n c k k z n n n n n c c n n n k n n n k k k k z k z n n n n z z k n n n z k z n n n n k n n n n n n k h h z z n n n n n n n n n n n n n n n n n n z n n n n n n n n n n n z n n z n n n n n c c n n n n n n n n n n n n n n n n n z n n n n n n n m m n n n n n n n n n n n n n n n n n n z z n n n n n n n n n n n n n n m m n m n n n n n n n n n n n n n n n n n n n n n m n n n n n n n n n n n n n m n n n n n n n m n n M c 4 , @ O o o o o O o O O O o O O o o o O & O O O o O O o O O O o o o O o o O O O O = & & & O O O O O O O O o O O O o o O O O o o O O O & O & O O & = O O O & : & : O a oX].]..X#X#X#X#X#X#X#X#X#X#X#X#X#X#X#X#X#X#X].#X#X#X+X].#X#X#X#X#X#X#X#X#X#X#X#X#X#X#X#X.X.X.X#X#X#X#X#X#X#X#X#X#X#X#X].].'.}.W v B N m m m m N A m m N m m m m n m m m m m m m m m m m m n n m m m m m m m N m m m n m m m m n n n n c k k c b 4 :.g.d.j.j.j.j.j.d.j.j.j.d.d.d.d.d.d.d.j.d.d.j.j.j.j.j.j.j.l.j.j.d.d.d.d.d.d.j.j.d.d.j.j.d.j.j.d.d.d.d.d.d.j.d.j.j.d.j.j.j.j.j.j.j.l.z.z.g.t.w.t.T.).).R.t.8.z.g.d.j.d.d.d.d.d.j.d.d.d.j.j.d.j.j.d.d.j.j.d.j.d.d.d.j.j.j.d.d.j.d.d.d.d.d.d.d.d.d.j.d.d.j.d.j.d.j.d.l.l.j.j.j.d.j.j.j.j.j.j.j.j.j.d.d.d.d.d.j.d.d.d.j.j.d.d.d.d.d.d.d.d.j.d.j.j.j.d.d.d.j.d.d.a.d.d.d.d.d.d.d.d.d.j.d.j.j.d.d.d.d.d.j.j.d.j.j.j.d.d.d.d.d.d.d.a.r.@X-X-X&X#X#X#X#X#X#X#X#X#X#X#X#X#X#X#X#X#X#X#X#X#X].#X#X.XV.n.a : O O O = O O O & & O O o & O O O O O O O o X X O o O O O O O O O O O O O O O O O O O O O O O O O O o g #XoX#X#X#X#X#X#X#X#X#X&X&X#X#X&X&X#X#X#X#X#X#X#X#X#X#X#X#X#X#X#X#X#X&X&X#X#X&X&X#X#X#X#X#X#X#X#X#X#X#X#X#X#X#X#X#X#X#X#X#X#X.X`.B.;.q.g.i.a.a.d.d.d.d.d.d.d.d.d.d.d.d.d.d.d.a.a.a.a.a.a.a.s.s.p.p.p.s.s.s.s.s.s.s.s.s.p.s.a.a.s.s.s.s.s.s.s.a.s.s.a.s.s.s.s.a.s.s.s.a.a.s.s.s.s.s.s.s.s.s.a.a.a.a.d.d.d.d.d.d.d.d.d.d.d.d.d.d.d.d.d.a.a.a.j.d.d.d.d.d.d.a.d.d.d.d.d.d.d.a.d.d.d.d.a.d.d.d.d.d.d.d.d.d.d.d.d.d.",
"k k c c c k k c n n n n n n n n n c c c c h h k k c c c c k k k h h n n c n n c c k k h k n n n n n n n c c n n n n k k z n n n n n n n n n n z n n n k k z n z n z z n n n z n n k n n M n z n n n n n k k k n n n n n k c h k c n n n n n n n n n n n n n n n n n n n n n n n n n n n n n n n n n n z z n n n h z n n n z n n n n n z z n n n n n n n n n n n n n n n n n n n n n n n n n n n n n n n n n n z n n n n n n n n n n n n n n m m n n n n n n n n n n n n n n n n n n n n n n n n n n n n n n n n n n n n m n n m m m M n n n n M v 2 # # o o O O o o O O O O O o O o o O O O & O O o O O O O O o O O o o o o O O O O O O O O & O o O O O o O O O O O O o O o o o O O & & O O O O O O = : : O O O O = O >.#X].].].#XoX#X#X#X#X#X#X#X#X#X#X#X#X#X#X#X#X#X#X.X].#X#X].#X#X#X#X#X#X#X#X#X#X#X#X#X#X#X#X.X.X#X]..X#X#X#X#X#X#X#X#X#XoX{.'.K.U M N N m m m N N A S N m m m m m m m m m m m m m m m m m m n n n n n m n m m m m m m n n m N m n n z k k k h l l 4 a T.g.d.d.d.j.j.j.j.d.d.d.d.d.d.j.d.d.j.d.d.j.d.j.j.x.j.d.d.j.j.j.d.d.d.d.d.d.d.d.d.d.j.j.j.j.d.j.d.d.j.d.d.j.d.j.j.j.j.d.d.l.l.l.g.t.w.t.T.).XXXXXXXXXXR.y.r.g.d.j.d.d.d.a.d.d.d.d.d.j.j.j.d.j.j.d.d.j.j.d.d.d.d.d.d.d.d.d.d.d.d.d.d.d.j.d.d.j.j.j.d.d.j.d.j.j.j.j.l.j.d.d.j.j.j.l.l.j.j.d.j.j.d.d.d.d.d.d.d.d.d.d.d.d.d.d.d.d.d.d.d.d.d.d.d.d.d.d.d.d.d.d.d.d.j.d.d.d.d.d.d.d.d.d.d.d.d.d.d.d.j.d.d.d.j.j.d.d.d.d.d.d.d.d.d.r._.@X-X&X#X$X#X#X#X#X#X#X#X#X#X#X#X#X#X#X#X#X.X#X&X#XC.g a : o O O O O O O O O o O O O O O O O O O O O O O O O O O O O O o O O o o O o O O O O O O o O o o o O O O O O : `.#X#X#X#X#X#X#X#X#X#X#X#X#X#X#X#X#X#X#X#X#X#X#X#X#X#X#X#X#X#X#X#X#X&X&X#X#X#X#X#X#X#X#X#X#X#X#X#X#X#X#X#X#X#X#X&X#X#X#X#X#X#X].).y.=.r.a.d.d.d.d.d.d.a.d.d.d.d.d.d.d.d.d.d.a.a.a.a.a.a.a.a.s.s.s.s.p.p.p.s.s.s.s.s.p.p.p.s.s.s.s.s.s.p.p.p.s.s.s.s.s.s.s.s.s.s.s.s.a.s.s.s.s.s.s.a.a.a.s.s.a.a.a.d.a.a.a.a.a.a.d.d.d.d.d.d.d.d.d.d.d.d.d.a.d.j.d.d.d.d.d.d.d.f.d.d.d.d.d.d.a.d.d.d.d.a.a.d.d.d.d.d.d.d.d.d.d.",
"k k k c c k k c c c c c n z n n c k k k c k k c k k c c n n c k h k c n n k k c c c n n n k z n n n n k k k h h c n n n n n n n n n n n n n n n n n n n z n n z z n n n n n n n n k k k n z n n n n n n n k k n n n n n k c k k n n k n z n n n n n n n n n n n n n n n n n n n n n n n n n n n n n z h n n n n z z n n n n z n n n n n n n n n n n n n n n n n n n n n n n m n n n n n n n n n n n n n n n n n n n n n n n n n n n n n n n m n n n n n n n n n n n n n n n n n n n V n n n n n n n n n n n n n n m n n m n n n n n n n m m n n b , @ O o O O o o o o O O O o o O O o O o O O O O O O O O O O o O O o o X o & & O O O O O O O O o o & O o O O O O O O o O O O o O O O = & & & O O O O & = O O O o O = V.oX.X#X.X.X#X#X]..X#X#X#X#X#X#X#X#X#X#X#X#X&X&X#X#X#X].#X].#X#X#X#X#X#X#X#X&X&X&X&X#X#X#X#X#X#X#X#X].].].#X#X#X#X#X#X#X#X{.}.L.K M N m m m m m m m N m m m m m m m m m n m m m m m m m m m m n n m m n n m m m m m m n m m m m n n k k k k l l 2 2 3 w.g.a.d.j.d.d.d.j.d.d.d.j.d.d.d.d.d.d.j.j.j.j.j.j.j.d.d.d.d.j.j.j.j.d.d.d.j.d.d.j.j.j.j.j.d.j.d.d.d.j.d.j.j.d.j.d.d.l.z.z.g.r.w.w.B.).).XX+X+X+X+X.X.X).B.q.g.d.j.j.j.d.d.d.j.j.j.j.j.j.l.d.d.d.d.d.d.d.d.j.j.d.d.j.j.d.d.d.d.j.d.d.d.d.j.d.d.d.j.d.j.j.d.j.j.j.j.j.d.d.d.d.d.j.d.d.d.d.d.j.j.d.j.j.d.d.d.d.d.d.d.d.d.d.d.d.d.j.j.d.d.d.d.d.d.d.d.d.d.d.d.j.d.j.d.d.d.d.d.d.d.d.j.j.d.j.j.j.j.j.j.j.d.d.d.d.j.d.d.d.j.d.d.l.f.g.@X@X&X&X&X#X#X#X#X#X#X#X#X#X#X#X#X|.|.#X#X#X`.n.f : O O O o o O O O O O O O O O O O O O O : O O O O O o O & O O O O O o o o o X o O O O O X o O O O O O O o O O O O O E $X#X$X#X#X#X#X#X#X#X#X#X#X#X#X$X#X#X#X#X#X#X#X#X#X#X#X#X#X#X#X#X#X#X#X#X#X#X#X#X#X#X#X#X#X#X&X#X#X#X#X#X#X#X#X#X#X#X#X#X#X#X].).B.8.g.f.d.d.d.d.d.d.d.d.d.d.d.d.a.d.d.d.d.a.a.a.a.a.a.a.a.s.s.s.s.p.s.s.a.s.s.s.s.p.s.s.s.p.s.a.a.s.a.a.s.p.s.s.s.s.s.s.s.s.s.p.p.s.s.s.s.s.d.d.s.a.a.a.a.a.a.d.d.d.d.a.a.a.d.d.d.d.d.d.d.d.d.d.j.d.d.d.j.d.d.d.a.d.d.d.d.d.d.d.d.d.d.d.d.d.d.d.d.d.l.j.d.d.d.d.d.d.d.d.d.d.",
"c c k k c k k k k k c c n k z z k c k k c c k k c c c h k n n k k c c c n n n c c c c n c c n n n n n c k h h n c c n n n n n n n n z h h n n n n n n n n z z n n n n n n n n n z k k k k z z n z n z z n n k k n n n n c k k k n n n n n n n n n n n n n n n n n n n n n n n n n n n n n n n n n n z z n n n n n z n n n n z z n n n n n n n n n n n n n n n n n n n n n n n n n n n n n n n n n n n n n n n n n n n n n n n n n n n n n n n n n n n n n n n n n n n n n n n n n n n n n n n n n n n n n n n n n m n m m n n n n n n n n n n M l , @ o o o O O O O o O O O o o O o O & O o & O O & O O O O o O O o o o O O O O & O O O O & O O O O & O O O O O O O o O o o O O o O O O = = & O O O O O O O O O O O a ]..XoX.X#X#X#X#X#X#X#X#X#X#X#X#X#X#X#X.X.X#X#X#X#X&X&X#X#X#X#X].#X#X#X#X].].#X#X#X#X&X#X#X#X#X#X#X#X#X#X.X#X#X#X#X.X.X#X{.{.}.W v M m m m m m m m m m m m m m m m m m m m m m m m m m N m m m m m m m m n m m m n m m n n n n n n n c h k l j < < 2 1 g T.g.d.j.j.j.j.d.j.j.d.j.d.d.d.d.j.d.d.d.d.j.d.j.d.j.d.d.a.d.d.d.j.d.d.d.d.d.d.d.j.j.j.d.d.d.d.j.d.j.j.j.j.d.d.l.g.z.g.t.w.w.T.).XX+X+X+X#X#X#X#X#X#X].).8.g.d.d.d.d.d.d.d.j.j.j.j.j.d.d.d.d.d.d.j.d.d.j.j.d.d.d.d.d.d.d.d.d.d.j.d.d.d.d.d.d.d.d.d.d.d.d.d.d.d.d.d.d.d.d.d.d.d.d.d.j.d.d.d.d.j.j.d.d.j.j.j.d.d.d.d.d.d.d.d.d.d.d.d.d.d.d.d.d.d.d.d.d.d.d.j.j.j.j.d.d.d.j.j.j.j.j.j.d.d.d.d.d.d.d.d.d.d.d.d.d.d.d.d.d.d.d.d.d.i._.@X#X&X#X#X#X#X#X#X#X#X#X#X#X#X#X#X#X`.f g > o X O O o O o o o O o O O O O O O O O o o O O O O O O O O O O O o o O O o O O O o O O o X o o o O O O O O o = = : = O o > [.$X#X#X#X#X#X#X#X#X#X#X#X#X#X#X#X#X#X#X#X#X#X#X#X#X#X#X#X#X#X#X#X#X#X#X#X#X#X#X#X#X#X#X#X#X#X&X#X#X#X#X#X#X#X#X#X#X#X#X#X#X.XXXR.8.r.g.d.d.d.d.d.a.d.d.a.d.d.a.a.a.a.a.a.d.d.s.a.a.a.a.a.s.s.s.s.s.a.a.s.s.s.s.s.a.d.s.a.s.s.s.s.a.a.s.a.s.s.s.s.s.a.s.s.a.a.s.p.s.a.s.s.s.a.s.s.a.a.a.a.a.s.d.d.d.a.a.a.a.a.d.d.d.d.j.d.d.d.d.d.d.d.d.d.d.d.d.l.d.d.d.d.d.d.d.d.d.d.d.d.d.d.d.d.d.j.d.d.d.d.d.d.d.d.d.k.d.",
"c c k k k k k h h k c c c c c c n n n z k c k h c c c k k k k k k c n k c n n n c h c c k c c c c c k k c n c n n n n z z n n n n n z z n z n n n n n n n n n n z n n n n n n n z z n n n n z z n n n n n c k k k n k n n n n n n n n n n n n n n n z n n n z n n n n n n n n n n n n n n n n n n n n n n n n n n n n n n n n z z z n n n n n n n n n n n n n n n n n n n n n n n n n n n n n n n n n n V n n n n n n n m N m n n n n n n n m m n n n n n n n m n n n n m n n n n n n n n n n n n n n n n n n n n n n n n n n m m m m n n n n c 2 , # O O o O O O O O O O o X o O O O O O = = O O O & O O o o O o o o X o o o O o O O O O O O O O O O O O O O O O O O O o O O O O O O O O & & O O O O O O O o O O o n.#X].#X#X#X#X#X#X#X#X#X#X.X.X].#X.X#X#X#X#X#X#X#X#X#X#X&X&X#X#X#X#X#X#X#X#X].].#X#X#X#X#X#X#X#X#X#X#X#X#X#X#X#X#X#X#X.X].].{.K.U M N m m m m m m m m m m m m m m m m m m m m m m m m m m m m m m m m m n m m m m m m n n n n z z k c k l l l j < < < 1 3 w.z.d.d.d.d.d.j.d.d.d.d.d.d.d.d.d.d.d.j.d.d.d.j.d.d.d.d.d.d.d.d.d.d.d.d.j.j.j.d.j.j.d.d.d.d.j.j.j.j.d.j.l.l.g.g.q.w.t.B.).).XXXX.X#X#X#X$X#X&X#X#X#X.X).w.q.z.d.j.d.j.j.d.d.j.d.j.d.d.d.d.d.d.d.j.j.d.d.j.j.d.d.d.d.d.d.d.d.j.d.j.j.j.d.d.j.j.j.d.d.d.d.d.d.d.d.d.j.d.d.d.d.d.d.d.d.j.j.d.d.d.j.d.d.d.d.d.d.d.d.d.d.d.d.d.d.d.d.d.d.d.d.d.d.j.d.d.d.d.d.d.j.j.d.d.j.d.d.d.d.d.d.d.d.d.d.d.d.d.j.d.d.d.d.d.d.d.d.d.d.d.d.d.d.i.g.@X@X#X&X&X#X#X#X#X#X#X#X#X#X#X#XV.n.a O o o O o X X o o o O o O O & O O O o O O O & O O o o O O O O O o o o o O o O O O O O O O O o o o O O O O O O O O = = = O O o o n.$X#X$X&X#X#X#X#X#X#X#X#X#X#X#X#X#X#X#X#X#X#X#X#X|.#X#X#X#X#X#X#X#X#X#X#X#X#X#X#X#X#X#X#X#X#X&X&X#X#X#X#X#X#X#X#X#X#X#X#X#X+X].).y.8.g.d.d.d.d.d.d.a.a.d.a.d.d.d.d.d.d.a.a.a.a.a.a.a.a.a.s.s.s.s.a.a.a.a.s.s.p.s.a.s.s.a.a.a.s.s.a.a.a.s.a.s.s.a.s.s.d.d.d.a.s.s.a.a.s.p.p.s.p.p.s.s.s.s.s.a.a.d.a.a.a.a.a.d.d.d.d.d.j.d.d.d.d.d.d.d.d.d.d.d.d.d.d.d.d.d.d.a.d.d.d.d.d.d.d.d.d.d.d.d.f.d.d.d.d.d.d.d.d.d.d.",
"c c c c c k h h h k k h k h k c c k z n z k c c h h k c n n n c k c n n n c n n c k c c c c k k c c k k n n n c n z z n n n n n n n k z n n z z n n n n n n n n z n n n k z k n n n z n z z n n n n n c c c c c c c c n n n n n n n n n n n n n n z z n n z z z n z z n n n n n n n n n z n n n n n n n n n n n n n n n n n n z n z n n n n n n n n n n n n n n n n n n n n n n n n n n n n n n n n n n V n n V n n n n n m n n n n n n n n m m m n n n n n n n n n n m n n n n n n n n n n n n n n n n n z n n n n n n n n z n m m n n n n n c < , 3 - - = O O O O O O O o + O O O & O O o O & O O o O O O O O o o O O o O o O O O O O O O O O o O O O o & & O O O O O O O O o O O & O O O O O O = = O = = O O O > V.oX.X#X#X#X#X#X#X#X#X#X&X#X#X].].+X+X#X#X#X#X+XoX#X#X#X#X#X&X&X#X#X#X#X.X#X#X#X#X&X#X#X#X#X#X#X#X#X#X#X#X#X#X#X+X.X#X].].'.~.m.b M N m m m m n m n m m m m m m m m m m m m N m n m m n n m m n m n m m m m m m m m m m n n n z k k h l l j j j < < < 1 - :.z.d.d.d.d.d.j.d.j.j.d.d.d.d.j.d.d.j.j.d.d.d.d.j.d.d.d.d.d.d.d.j.d.d.d.j.x.l.j.d.d.d.d.d.j.j.j.d.l.l.a.r.r.q.w.B.).).XXXX.X.X+X#X&X&X#X#X#X&X&X#X#X.XXXB.8.g.d.j.j.d.j.j.d.d.d.d.d.d.d.d.j.d.d.d.j.j.d.j.d.d.d.d.d.j.d.j.j.d.d.j.j.j.j.d.d.j.j.d.d.d.d.d.d.d.d.d.d.d.d.d.d.d.j.j.j.d.j.d.j.j.d.d.d.d.d.d.d.d.d.d.d.d.d.d.d.d.j.d.d.d.d.d.d.d.d.d.d.d.d.d.d.d.d.j.d.d.d.d.d.d.d.d.d.d.j.j.d.d.d.d.d.d.d.d.d.d.d.d.d.d.a.d.d.d.i._.@X&X-X&X#X#X#X#X+X#X#X#Xn.f g : O O O O o o o o o o O O O O O o O & O o o O O & : : O O O o o O o o o O o o O O o O O O O O O o O O O O O O O O O O O O o o O o O o > ].$X#X$X#X#X#X#X#X#X#X#X#X#X#X#X#X#X#X#X#X#X#X#X#X#X#X#X#X#X#X#X#X#X#X#X#X#X#X#X#X#X#X#X$X$X&X&X#X#X#X#X#X#X#X#X#X#X#X#X#X#X].).B.;.r.d.d.d.d.d.d.d.a.d.a.a.d.d.d.d.d.a.a.a.a.a.a.a.a.a.a.a.a.a.a.a.d.a.s.s.s.s.s.p.s.s.a.a.a.a.a.a.a.a.s.s.s.s.s.a.a.a.a.a.s.s.s.s.a.s.s.s.a.s.s.s.s.s.a.s.a.a.a.a.a.a.a.a.d.d.d.d.d.d.d.d.d.d.a.d.d.d.d.a.d.d.d.d.d.d.d.d.a.d.d.a.d.a.a.d.d.d.d.d.d.d.d.d.d.a.a.d.d.d.d.",
"n n n c k k k k k h h h k c c c k k n n n n c n n k k n n n n n c c c c c k n n n n c c c k h c k k k k c c c c n n n n n n n n n n n c c n n z z n n n z n n n z z n n n n n n n n n n z k k n n n n n c c c c n n n n n n n n n n n n n n n n n n n n z n n n n n n n n n n n n n n n n n n n n n n n n n n n n z n n n z n n n n n n n z z n n n n n n n n n n n n n n n n n n n n n n n n n n n n n n n n n n n n n n n n m m n n n n m n n m n n n n n n n n n n n n n n m m m m n n n n n n n n n z n n n n n n n n m m n m m n n n n n c < , # # # - # = = = = O O O o O O & O O O O O O & : & O O O O O O O O O o o O O O & O O & = & O O O o O = & o o o O O O o o o O O O & = O O o O O O O : = = = = O a ].].oX#X+X#X#X.X#X#X#X#X#X#X#X#X].#X#X#X#X+X#X#X.X#X.X#X#X#X#X#X#X#X#X#X.X#X#X#X#X#X#X#X#X#X#X#X#X#X#X#X#X#X#X#X#X#X.X.X].'.(.W b M m m m m m n m m n n m m m m m m m m m m m m m m m n n n n n m m m m m m m n n m n n n n n n c k k k l l j < < < < , - w T.g.d.d.d.d.d.d.j.d.d.d.d.d.d.d.d.j.d.j.j.d.j.d.d.j.d.d.d.d.d.d.d.d.d.d.d.j.j.d.j.j.j.d.j.l.l.g.g.r.q.y.w.B.).).XXXX.X+X#X#X#X#X#X&X#X#X#X#X#X#X&X+XXX).y.r.v.d.j.j.d.d.d.d.d.j.d.j.j.j.d.d.j.j.d.j.j.j.j.j.d.j.d.j.j.j.d.d.d.d.d.d.d.d.d.d.d.d.d.d.d.d.d.d.d.d.d.d.d.d.d.d.d.j.j.d.d.j.j.j.d.d.d.d.d.d.d.d.d.d.d.d.d.j.d.d.j.d.d.d.d.d.d.j.d.d.d.d.d.j.j.d.j.d.d.d.d.d.d.d.d.j.d.d.d.d.d.d.d.d.d.d.d.d.d.d.d.d.d.d.j.d.d.d.i.T.@X@X&X&X#X#X&X&X&X[.C.g > O O O O O O O O o O O O O O O O O O O O O O O o O O O O o o O O o o O o o O O O o O O O O o o o o o o o o o O O O O O O O o O O O O O O O o n.=X#X$X$X#X#X#X#X#X#X#X#X#X#X#X#X#X#X#X#X#X#X#X#X#X#X#X#X#X#X#X#X#X#X#X#X#X]..X#X#X#X#X#X#X#X#X#X#X#X#X#X#X#X#X#X#X#X#X#X#X.XXXR.8.8.g.d.d.d.d.d.d.d.d.a.a.d.d.d.d.d.a.a.a.a.a.a.a.a.a.a.a.a.a.a.a.s.a.s.a.a.s.s.s.s.s.s.a.a.s.s.a.s.a.s.a.a.s.s.a.a.s.a.a.a.s.s.s.a.a.s.p.p.s.s.s.a.a.a.a.a.a.a.a.a.a.a.a.a.d.d.d.d.d.d.d.d.d.d.a.d.d.d.d.d.d.d.d.d.d.d.d.d.d.d.d.d.a.d.d.d.d.d.d.d.d.d.a.a.a.d.d.d.d.d.",
"c k c n c k c c c h h h h k c c c n n n n n n n n n n n n n k n c k k c k c n n n n n n c h h c c k c n c c c c c n n n n n z k k n n n n n n n n n n n n n n n n z z n n n n n n z n n z k n n n n n n n n n n n n k h k n n n n k c k c n n n n n n n z n n n n n n n n n n n z n n n z z n n n n n n n n n n n n n n n n n n n n n z n n n n n n n n n n n z n n n n n n n n n m n n n n n n n n n n n n n n n n n n n n z n n n n n n m m m n n n n n m n n m m n n n n n n m m n n n n n n n n n n n n n n n n n n m n N m n n n n n n n c j < , , # @ @ @ # # # - = O O O & O O O O O O o O O & : : O O O O O O & O O & O O O O O O o O & & O O o O = O & O O O O X X o o o & & & O o O & O O & = : = = : = >.oXoXoX.X]..X+X]..X#X#X.X#X#X#X#X#X#X#X#X#X.X#X]..X#X#X.X#X#X#X#X]..X#X#X#X#X#X#X#X#X#X#X#X&X&X#X#X#X#X#X#X#X#X#X#X#X#XoX].'.K.U v N m m N N N m m m m n m m n n m m m m m m m m m m m n n n n n n m N m m m m n z n n n n n n n c k k l j j < < < < < < 1 - y.g.d.d.d.d.j.d.d.j.d.j.j.j.j.d.j.j.j.j.j.d.d.j.d.j.j.d.d.d.j.d.d.d.d.d.j.d.j.j.j.j.j.l.g.g.r.q.q.w.B.).).XXXX]..X#X#X#X#X#X#X#X&X&X&X#X#X#X#X#X#X#X.XXXB.8.z.l.j.j.d.d.d.d.d.d.d.d.j.j.j.j.j.j.d.d.d.d.d.d.j.j.d.d.d.j.d.d.d.d.d.d.d.d.d.d.d.d.d.d.d.d.d.d.d.j.d.d.d.d.d.d.j.d.d.j.d.j.j.j.d.j.j.j.d.d.d.d.d.d.d.d.d.d.d.d.d.d.d.d.d.d.d.d.j.d.j.j.d.d.d.d.j.d.d.d.d.d.d.d.d.d.d.d.d.d.d.d.j.d.d.j.d.d.d.d.a.d.d.j.j.j.d.d.a.g.XX@X#X&X&X#X].n.:.a & O O & & & O O O O & & O O O & o o X O O O O O O O o o o o o o o X O o o O o o O O O O O O O o o o o o o X o O o o o o o o o O O O O & & = O O + a #X#X#X&X&X#X#X#X#X#X#X#X#X#X.X].#X#X#X#X#X#X$X#X#X#X#X#X#X.X].|.#X#X#X#X#X#X].#X#X#X#X#X#X#X#X#X#X#X#X].#X#X#X#X#X#X#X#X#X#X].).w.=.g.l.l.d.d.d.d.d.d.d.d.d.a.d.d.a.a.a.a.a.a.a.a.a.a.a.a.a.a.a.a.a.a.a.a.a.s.s.a.a.a.a.a.s.s.s.a.a.s.s.a.a.a.a.a.s.s.s.s.s.s.s.s.a.a.a.a.s.s.a.s.s.a.a.s.d.d.d.a.a.a.a.d.a.a.d.d.d.d.d.d.d.f.a.f.d.d.d.d.d.d.d.d.d.d.d.d.d.d.d.d.d.a.a.d.d.d.d.d.d.a.a.d.d.d.d.d.d.d.d.",
"k k c c k k c c c k k k h k k c c k k c n z n n n n n k k k c c c k c c k k k h n n c c c c c n n k k c n c k c k k n n n n n n k k k c c n n n n n n n n k n n n n n n z n n n n z n z z k n n n n n n n n n n n n z k z n n n n n k k c c k k n n n n n n n n n n n n n n n n n V z n k k z n n n n n n n n n n n n n n n n n n n n n n n n n n n n n n h h z n z n n n n n n n n n n n n n n n n n n n n n z n n n n n n n n n n n n n m m m n n n n n n n n n n m m m m n n n n n n n n n n n n m n m m m n n n n n n n n n n n n n n n n n c l 2 2 < < , , , # @ @ # # # = = O O O O O O O O o o O O O O O O & O O O O O O O & O O O o o X o O O O O O & & O O O O o O O o o O o O o o o O O : = : : & O = : V.oX.X#X#X#X.X]..X#X#X#X#X].].#X#X#X#X.X#X#X#X#X#X.X].+X#X.X#X#X#X#X.X].#X#X#X#X#X#X#X.X.X#X#X#X#X#X#X#X#X#X#X#X#X#X#X#XoX{.}.L.K M m m m m N m m m m m n n n z z m m m m m m N N N m m n n m m n n n m m m m m n n n n n n n c c k k k l j j < < < < < , 1 # a T.g.j.a.j.j.j.d.j.j.j.j.j.j.d.j.d.j.d.j.d.j.j.j.j.j.j.j.j.j.d.j.d.a.j.j.j.d.k.d.l.g.i.q.q.w.t.T.).).[.].].+X#X#X#X#X&X#X#X#X&X&X&X&X$X$X#X#X&X#X#X#X.X).y.t.z.d.d.d.j.j.d.d.d.d.a.d.d.j.j.d.d.d.d.d.d.d.d.d.d.j.d.j.j.j.d.d.d.d.j.j.d.j.d.d.d.d.d.d.d.d.d.d.j.j.j.j.j.d.d.d.j.d.d.d.a.d.d.j.j.d.d.d.d.d.d.d.d.j.j.d.d.d.a.d.d.d.d.j.d.d.d.d.d.d.j.j.j.d.d.a.d.d.d.d.d.d.d.d.d.d.d.j.d.d.d.d.j.j.d.d.d.d.d.d.d.d.d.d.d.j.d.d.i._.@X-X#XV.f > : & : & & & O O O o O O O O O O o o O O O X O O O O O o o O X o X o O O O O O o O O o o o o O O O O O O O O O o o X o O O O O o O o O O O O & & = O = O O V.=X#X#X#X#X#X#X#X#X#X#X#X#X#X#X#X#X#X#X#X].#X#X#X#X#X#X#X#X#X#X#X#X#X#X#X#X#X#X#X]..X#X#X#X#X#X#X#X#X#X#X#X#X&X#X#X#X#X#X#X].[.B.;.9.g.a.d.d.d.d.d.d.d.d.d.d.d.d.d.d.a.a.a.a.a.a.a.a.a.a.a.a.a.s.a.a.a.a.s.s.s.s.s.a.a.s.s.a.s.s.s.s.a.s.s.a.a.s.p.p.s.s.s.s.s.s.a.a.a.d.d.s.s.a.a.a.a.a.d.d.d.d.d.d.d.d.d.d.d.d.d.d.d.d.d.d.d.a.d.a.a.a.d.d.d.d.a.d.d.p.a.a.a.a.d.d.d.d.d.d.a.d.d.d.d.d.d.d.d.d.d.d.d.",
"h k c c k k c k k c k k h k k k k h h h k c n n n c k c c c c c c c c c k k k n k k k c c c c c n n k h h n n n k k n n n n n n n k c k c n n n n n n n n z k k k n n n n n z n n n n z z n n n n n n n n n n n n n n n n n z n n n n n k k k k k n n n n n n n n n n n n n n n n n n z k k V n n n n n n n n z z z n n n n n n z n n n n n n n n n n n n h n n n n n n n n n n n n n n n n n n n n n n n n n n n n n n n n n n n n n n n n n n n n n n n n n n n n n n n n m m m m n n n n n n n n m m n n m m n n n n n n n n n n n n n n n n n c c l l l l l 2 2 < , , @ @ # - - - # = = O O O O O O o O O O O O O o O O O O O O O O O O O o o o o o O o o O O O O O o O O O O O O O O O o O : & & O O O = = a ].].]..X#X#X#X].]..X#X#X#X#X.X].].].+X.X].].].].#X#X#X.X#X#X#X#X#X.X#X#X.X.X].].].#X#X#X#X#X#X#X#X#X#X#X#XoX#X#X#X#X#X#X{.{.}.W v B N m m n m m m n m m m n n z n n n n m m m m m n n m m m m m m n n n m m m N m n n n n n n n c k k k l l l < < < < < , , # : t.z.j.j.j.j.d.j.j.d.j.j.j.d.d.j.j.j.d.d.j.d.j.j.j.j.j.j.j.d.d.j.j.j.j.j.l.l.l.g.r.q.w.w.B.).).`.].]..X+X+X#X#X#X#X#X#X#X#X&X&X#X#X#X#X#X#X#X#X#X#X#X.XXXC.q.z.d.j.j.d.d.d.j.d.d.d.d.a.a.d.j.d.j.j.d.d.j.d.d.d.d.j.j.d.j.d.d.j.j.j.d.d.j.d.j.j.d.j.j.j.d.d.d.j.j.j.d.d.d.d.d.a.d.d.d.d.d.d.j.d.d.d.d.d.d.j.d.j.j.d.d.d.d.d.j.j.d.j.j.j.j.d.d.d.a.d.d.d.d.d.d.d.d.d.d.d.d.d.d.d.d.d.d.d.d.d.j.l.j.j.j.d.d.j.j.d.d.d.d.d.d.d.d.a.g._.B.g : O O O O : O O O O o O O O O O O O o o o X o o o X o o o o o O o O O O O O o O o O O O o X o X O O O O O o O o o o o O O o O O O O O O O O O O O O & & O O = o g #X#X#X#X#X#X#X#X#X#X#X#X#X#X#X#X#X#X#X#X].].].#X#X#X#X#X#X#X#X#X#X#X#X#X#X|.#X#X#X#X#X#X#X#X#X#X#X#X#X].+X#X#X#X#X#X#X#XoX].[.).w.;.i.l.l.d.d.j.d.d.d.d.d.d.d.a.a.a.a.a.a.a.a.a.a.a.a.a.a.a.a.a.a.a.s.s.s.s.a.s.s.s.s.a.a.s.s.s.s.a.s.s.s.s.a.s.s.s.s.s.p.s.a.s.s.s.a.a.s.s.s.a.a.s.s.s.a.d.d.a.a.d.a.a.d.d.d.d.d.d.d.a.a.d.d.a.d.j.d.d.d.d.d.d.d.d.d.d.d.d.d.f.f.d.d.d.d.d.d.d.d.d.d.d.d.d.d.d.a.a.d.",
"h c c h c c c k h k k k h k k c c k k k h k k c n n c c c c k h h k k c n c c n n n k c c k c k c n c h h c c n n n n n n k k k k k n n c c n n n n n n n n n k k k z n n n n z z n n n n n n n z c k k k z n n n n n n n n n n z n n n n k c n n n z n n n c h h n n n n n n n n n n n k n z z n n n n n n n n n n n n n n n n n n n n n n n n n n n n h n n n n n n n n n n n n n n n n n n n n n n n n z n n n n n n n n n n n n n n n n n n n n n n n n n n n n n n n n n n m m n n n n n n n n n n n n n n n n n m n n n n n n n n n n n n n n n n c n c c c c l l 2 < < , , , , # - - - = O O O O O O o o o o O O O O O & & & : O O O O O O O o O O O O O O o o o o o o O : O O O O O O & O & O O O O = = n.#X]..X#X].#X#X#X.X#X.X#X#X.X#X#X#X].#X#X#X#X.X].].].#X#X#X#X#X#X#X#X#X#X#X#X#X#X].]..X#X#X#X#X#X#X#X#X#X#X#X#X#X#X#XoXoX{.{.K.U B N m m n n m m m n n n n m n m m m m m n n n n n m m m m m m m m m m m m m m N A N m n n n z n n c c k l j j < < < < , , , # # g g.d.j.d.d.d.d.j.d.j.j.j.j.d.d.d.j.j.d.j.j.j.j.d.j.j.j.j.j.j.j.d.l.l.l.z.t.w.q.w.B.).).[.XX]..X.X.X#X#X#X#X#X#X#X#X#X#X#X#X&X&X#X#X#X#X#X#X#X#X#X#X.XXXR.y.t.v.x.j.j.d.d.d.d.j.d.j.j.j.d.d.j.j.d.d.j.d.j.j.j.d.d.d.j.d.d.j.d.d.j.j.j.d.d.j.j.j.d.d.j.j.d.d.d.d.d.d.a.d.j.j.d.d.d.d.d.j.j.d.d.d.d.d.d.d.d.d.d.j.d.j.d.d.d.d.d.d.d.d.d.d.d.j.j.j.j.j.j.j.d.d.d.d.d.d.d.d.d.d.d.d.d.d.d.d.d.d.d.d.j.d.d.j.d.d.d.d.d.d.d.d.d.j.a.i.;.; * & & O O & O O O O O O o O & & & o o O o o o X X X X o O O O o O O O O O O o X o o o o O O O O O O O O X O O o O O o O O O o O o O O & & & & O O O O O O O O O O : '.#X#X#X#X#X#X#X#X#X#X#X#X#X#X#X#X#X#X#X#X#X#X].].#X#X#X#X#X#X#X$X$X#X#X#X#X#X#X#X#X#X#X#X&X#X#X#X+X].].#X#X#X#X#X#X#X#X#X#X].).B.;.q.g.d.j.j.d.a.d.d.d.d.d.d.a.a.a.a.a.a.a.a.a.a.a.a.a.a.s.s.a.a.a.s.s.s.s.a.a.a.a.a.a.a.s.s.s.a.a.s.a.a.a.s.s.s.s.a.s.s.s.s.a.s.s.a.s.s.s.p.s.s.s.s.s.a.a.a.a.a.a.a.a.d.d.a.a.d.d.d.d.d.d.d.d.a.d.d.a.d.d.d.d.d.d.d.d.d.d.d.d.d.d.d.d.d.d.d.d.d.d.d.d.a.d.d.d.d.d.d.",
"k k k k h h k k k k k c k h k k n c k c k h h k k k k k h h k c c k k c c c c c n n n c c c c c c c c c c k n n n n z n n n n n n k k k k n h h n n n n n n n n k n n n n n n n z k z n n n n k k k c k k k n n n n n n n n n n n z z n n n n k k n n n n n n k h n n n n n n n n n n n n n n z n n n n n n n m N n n n n n n n n n n n n z n n n n n n n n n n n n n n n n n n n n n n n n n n n n n n n n n n n n n n n n n n n n n n n n n n n n n n n n n n m n n n n n n n n n n m m n n n n n n n n n n n n n n n n n n n n n n n n n n n n n n n n n n n n n n n c c c l 2 < < , , # # - - - = O O O o O O O o O o O O O O O O O O O O O O & & O O O O O = & O o O O O & & O O O & & & : & & : : = O O : V.#X].#X.X.X]..X#X#X#X#X#X#X#X#X].#X#X#X#X#X#X#X#X#X.X].#X#X#X#X#X#X#X#X#X#X#X#X#X.X#X.X.X#X#X.X#X#X#X#X#X#X#X#X#X#X#X#XoX{.}.L.b M N N N N m m m n m m m m m m m m m m m m m m m m m m m m n n m m m m m m m m m N m n n n n n n c k k k l j j < < < , , , , # # : w.g.d.d.d.d.d.d.d.d.d.d.d.d.d.d.j.j.j.j.j.d.j.d.d.d.j.j.j.d.l.l.g.t.w.w.w.B.R.).`.XX.X.X#X#X#X#X#X#X#X#X#X#X#X&X#X#X#X#X#X#X&X#X#X#X#X#X#X#X#X#X#X#X].`.w.q.z.l.j.j.j.j.d.j.d.j.j.j.j.d.d.d.d.d.d.d.d.d.j.j.j.j.d.d.d.j.d.d.j.d.d.d.d.d.x.d.d.j.j.j.j.j.d.d.d.d.d.d.d.d.d.d.d.d.d.d.d.d.d.d.j.d.d.d.d.d.d.d.d.d.d.d.d.d.d.d.d.d.d.d.d.d.d.d.j.j.d.d.d.d.d.d.d.d.d.d.d.d.d.d.j.j.j.d.d.d.d.d.d.d.d.j.d.d.d.d.d.d.d.d.d.d.d.d.i.;.; ; & & & O & O O O O O O o O O O O O O o X o o o O O O o O O O O o O o o O & O O O o O O O O O O O O o X O O O o O O & O O O O O O & O O O O O o O O O O O O O O : O n.&X#X#X#X#X#X#X#X#X#X#X#X#X#X#X#X#X#X#X#X#X#X#X].#X#X#X#X#X#X#X#X#X#X#X#X#X#X#X#X#X#X#X#X#X#X#X#X#X#X#X#X#X#X#X#X#X#X#X#X#X].`.R.y.8.g.d.d.d.d.d.d.d.d.d.f.d.a.a.d.d.a.a.a.a.a.a.a.a.a.a.s.s.p.a.p.s.s.s.a.a.a.s.s.s.a.s.a.a.s.s.s.s.s.a.s.s.s.s.s.a.a.s.s.a.a.a.s.a.a.a.a.s.p.s.s.s.s.a.a.a.a.a.a.a.d.d.d.a.a.d.a.a.d.d.d.d.a.a.a.d.d.a.d.d.d.d.d.d.a.a.a.d.d.d.d.d.d.d.d.d.d.d.d.d.d.d.d.d.d.d.d.d.",
"k c c c k h h k c c c c k k c c k k k c c k k c c h h h h h k c n n k k k k c c c n c k k c k c h h k c c c n n n n k k n n k k z n n n k n n n n h n n n n n n k c c n n z n n z n n n n n n c k c n c k k n n n n n n n n n n n n n n n n n n k z z z n n n c k h c h h n n n n n n n n n z n n n n n n z z n n n n n n n n n n n n n n z n n n n n n n z n n n n n n n n z n n n n n n n n n n n n n n n n n n n z n n n n n n n n n n n n n n n n n n n n n n n n n n n n n n n n n n n n n n m n n n n n n n m m n m n n n n n n n n n n n n n n n n n n n n n m m n n n n n c c l 2 < , , , , , - - = & O O = O O O O & = & O O O o o o O o o O O & : : O O o O O O & O O & O O O O O : : : : = = = = O a '.].#X#X.X#X.X].].#X#X#X#X#X#X#X.X].#X#X#X#X#X#X#X#X#X#X.X#X#X#X#X#X#X#X#X#X#X#X#X#X#X#X#X.X#X#X].#X#X#X#X#X#X#X#X#X#XoX{.{.}.R l k z V n M N N N N m m n n m m m m m m m m m m m m m m m n n n n m n n m m n n n n n n n n n n k c k h k l j < < < < , , , , , # O i g.f.a.a.d.d.d.d.d.d.d.d.d.d.d.d.d.d.d.j.j.d.d.d.d.l.l.l.g.i.w.w.w.B.T.).XXXXXX.X#X#X#X#X#X#X#X#X#X#X#X#X$X#X&X#X&X$X#X#X#X#X#X#X#X#X#X#X#X#X#X#X+X].[.B.8.g.l.d.d.d.j.j.j.j.j.j.j.j.j.d.d.d.d.d.d.d.d.d.d.d.d.j.d.j.d.d.d.d.d.g.g.g.9.e.v.d.j.j.j.j.j.j.d.d.d.j.j.j.d.d.d.d.d.d.d.d.d.d.d.d.d.j.j.d.j.d.d.d.d.d.d.d.d.d.d.d.d.d.d.d.d.d.d.d.d.d.d.d.d.d.d.d.j.j.d.d.d.d.d.a.d.d.d.d.d.d.d.d.d.d.d.d.j.d.d.d.d.j.d.d.j.j.d.a.q.t ; & o O O O O o O O o o O O O O O O O o o o O O O O & O O O O O O O o o O & & O O O O O O O O O O O O & O O O & & & O O O O O O & O O o O O O O O O O o O O O & : O a #X#X]..X#X#X#X#X#X#X#X#X#X#X#X#X#X#X#X#X#X#X#X].].#X#X#X#X#X#X#X#X#X#X#X#X#X#X#X#X#X#X#X#X#X#X#X#X#X#X#X#X#X#X#X#X#X#X.X].].[.).B.;.r.g.d.d.d.d.d.d.d.d.a.a.a.d.d.a.a.a.a.a.a.a.a.s.a.a.a.a.p.a.s.s.s.s.a.a.s.s.s.p.s.s.a.a.s.s.s.a.a.s.s.a.s.s.s.a.s.s.s.a.s.s.s.p.a.a.a.a.s.s.a.a.a.a.d.d.d.a.a.d.d.d.d.d.d.d.d.d.d.d.a.a.d.a.d.d.d.d.d.d.d.a.d.d.a.a.d.d.d.d.d.d.d.d.d.d.d.d.d.d.d.d.d.d.d.d.d.d.",
"h h h c c k h k c c c c k k c n c k k k c c k c n k k k h h k k c n k k c c c c c n c k c n n n k h h k k c c n n n z k k k c n n n n n n z n n n n k h k k k n c k k k z n n k n n n n n n n c k c c c n n n n n z n n n n n n n n n n n n n n z z z z z n n n n c c c c c n n z n n n n n n n n n n n n n n n n n n n n n n n n n n n n n z n n n n n n n n n n n n n n n n n n n n n z z n n m m n n n n n n n n n n n n n n n n n n n n n n m n n n n n n n n n n n n n n n n n n n n n n n n n n n n n n n n n n m m m m m n n n n n n n n n n n n n n n n m m n m m n n m M n n n c c l l 2 < , , # - - = & O & O o O O O O O & & O & O O O O O O O O O : : = O O & = = O O O O O O O O O : : = = & = O f oX]..X#X#X.X+X.X].#X#X+X#X#X#X#X#X].].#X#X#X#X#X#X#X#X#X.X#X#X#X#X#X#X#X#X#X#X#X#X#X#X#X#X#X#X#X#X.X#X#X#X#X#X#X#X#X#XoX'.'.K.I v M n n z z z z m N N N N m n n n n m m m m m m m m m m m m m n n n n n m m n n n n n n n n n n n c c k h l l j < < < , , , , , # # w h.g.i.a.d.d.d.d.d.d.d.j.d.d.j.d.j.d.d.j.j.d.j.l.l.v.z.r.q.w.t.T.).).XX].+X.X.X#X#X#X#X#X#X#X#X#X#X#X|.#X#X$X#X$X#X#X#X#X#X#X#X#X#X#X#X#X#X&X#X.X|.].].).y.q.v.d.d.d.d.j.d.j.d.d.l.x.d.d.j.d.d.d.d.d.d.j.j.j.d.d.j.d.d.d.d.g.g.i.q.8.-.-.g.l.d.j.l.d.j.d.d.j.j.d.j.d.d.j.j.d.d.d.d.d.d.d.d.d.d.j.j.d.d.d.d.d.d.d.d.j.j.d.d.d.d.d.d.d.d.d.d.d.d.d.d.d.j.d.d.j.j.d.d.d.d.d.d.a.d.d.d.d.d.d.d.d.d.d.a.d.d.d.d.d.j.d.d.d.d.k.d.a.r.u * & O O O o O O O o O O O & O O O O o o O O O O O O O O O O o O O O O O O o O O o o o O + O O O O O = : O O & & O o O O O O = = = O & O O & = : O o O O O o O O & = O V.&X#X#X#X#X#X#X#X#X#X#X#X#X#X#X#X#X#X#X#X#X#X#X|.#X#X#X#X#X#X#X#X#X#X#X#X#X#X#X#X#X#X#X#X#X#X#X#X#X#X#X#X#X#X#X#X#X#X#X+X].].`.B.y.8.g.a.a.d.d.d.d.d.d.a.a.a.a.a.a.a.a.a.a.a.a.a.a.a.a.a.a.a.a.a.s.s.a.a.s.p.s.s.p.s.s.s.s.a.s.s.a.s.s.a.a.a.s.s.s.s.s.s.a.s.p.p.p.p.p.p.s.s.s.s.s.s.a.a.d.d.a.d.d.d.a.a.a.d.d.d.d.d.d.d.d.a.d.d.d.d.d.d.d.d.a.a.d.d.d.d.a.d.d.d.d.d.d.j.d.d.a.a.d.d.d.a.d.d.d.d.d.",
"h h h k h h k k k k c c n z n n c c k h k c c c c k k c c k c c k k c c c n c k k c c h k n n c n n c k k k k k k n n z k z z z z n n n n n z n n n c k k k k k k n n n n n n k k n k n n n n n k k k c n n n n n n n n n n z n n n n n n n n n n n n z n n n n n n n n n n n z z n n n n n n n n n n n n n n n n n n n n n n n n n n n n n n n n n M n z z n n n n n n n n n m n n n n n n n n n m m n n n n n n n n n n n n n n n n n n n n n n n n n n n n n m m n n n n n n n n m n z V z n n n n n n m n n m n n n n m m n n m n m n n n n n n n n n n n n m m n n n n n n m m m n n n n n n c l 2 < , 1 > : : : = o O O o O o O o O = & O & = & O O O O O : = O o O O O & & O O o O O O O O O = O = = O V.oXoX#X#X#X.X]..X+X+X#X].].#X#X#X#X#X+X].#X#X#X#X#X#X#X#X].].#X#X.X].#X#X.X#X#X#X#X#X#X#X#X#X#X#X#X]..X#X#X#X#X#X#X#X#X{.'.}.m.b M m n n n n n z z V n n m B N n m m m m N m m m m m m m m m m m n n n n n m n z n n n n n n n n c c k c k l j < < < < , , , , , # # & y.g.i.d.d.d.d.j.j.d.d.d.d.d.d.d.d.j.j.d.d.j.l.z.t.w.w.w.B.).).XX[.].#X#X#X#X#X#X#X#X#X#X#X#X#X#X#X#X#X#X#X#X#X#X#X#X#X#X#X#X#X#X#X#X#X#X#X#X#X#X#XoX].).C.;.g.d.d.j.d.d.d.d.k.d.j.j.d.j.j.d.d.d.d.d.d.d.j.j.d.d.a.d.d.g.g.r.w.w.B.B.t.8.q.z.d.j.j.d.d.j.d.d.d.j.d.j.d.d.j.d.d.j.d.d.d.d.d.d.d.j.j.j.j.j.d.d.d.d.d.d.d.j.d.d.d.d.d.d.d.j.j.d.j.j.d.d.d.d.d.d.d.j.j.d.d.d.j.d.d.d.d.d.d.d.d.d.d.j.d.d.d.d.d.d.d.d.j.j.d.d.j.d.i.8.; * & O O O O O O O O o o O O O O O O O o O O O O O O & O O X o o o O O O O O & O o o o O O O O O O O O O O O o O o o O O O O O O O O O O o O O O O O O o o O O O = O f *X#X#X#X#X#X#X#X#X#X#X#X#X#X#X#X#X#X#X#X#X#X#X#X#X#X#X#X#X#X#X#X#X#X#X#X#X#X#X#X#X#X#X#X#X#X#X&X&X&X#X#X#X#X#X#X#X#X#X#X+X].[.).w.;.r.l.a.j.d.d.d.d.a.d.d.d.d.d.d.a.a.a.a.a.a.a.a.a.s.p.p.s.a.a.a.a.s.s.s.p.s.s.s.s.p.p.p.p.p.s.s.s.s.a.a.a.a.s.p.s.s.p.s.p.p.s.p.p.s.p.s.p.p.s.s.s.p.s.a.d.a.d.d.a.a.a.d.d.d.d.d.d.d.a.d.d.a.a.d.d.d.d.d.d.d.d.d.d.d.d.d.d.d.d.d.a.a.d.a.a.d.d.d.d.d.d.d.j.d.d.d.",
"k c c h h h k c c k k c n n n n n n k k h k c c n c k k c k c c c k k c c k k k k k c c h h h c c k k k c k h h c c n z k k z n n n n n n n z n n n n k k h k n n n n n n n c k k n n n n n n n n k c n n n n z n n n n n n n z z n n n n n n n n n n n n n n n n h n n n n n n n n n n n n z n n n n n n n n n n n n n n n n n n n n n n n n n n n n n n z z n n n n n n n n n n n n n n n n n n n n n n n n n n n n n n n n n m n n n n n n n n n n n n n n n m m n n n n n n n n n n n n n n n n n n n n m m n n n n m n n m m m m m m m n n z n n n n n n n n m m m n m n n n m m m n n m n n n c c l 4 s s a a > : O o O O O O O o O o = O O O = : & O & O O O & O O O o O O O O o O & O O O O O = O O r [.oXoX.X.X#X#X.X.X].#X#X&X#X.X#X#X.X#X#X.X#X|.].#X#X#X#X#X#X]..X#X].].#X#X.X.X#X#X#X#X#X#X#X#X#X&X#X#X].].oX#X#X+X#X#X#X].'.(.W v N m n n n n n n n n n n z z z n n N N N N m m m m m m m m m N N ~ m n n n n n n n n n n n n n n c c k k l l j < < < < < , , , # # # O p T.f.d.d.j.j.j.j.d.d.a.d.d.d.d.d.x.c.l.g.g.r.q.w.B.R.).XXXX].+X#X#X#X#X#X#X#X#X#X#X#X#X#X#X#X|..X].#X#X#X#X#X#X#X#X#X#X#X#X#X#X#X#X#X#X#X#X#X#X#X#X+XXXR.y.w.z.d.d.d.d.j.j.j.d.d.d.d.d.j.j.d.d.d.d.j.d.d.k.l.z.z.g.r.w.w.B.T.).).).R.w.;.z.l.d.d.d.d.d.d.d.d.d.d.d.j.d.d.d.d.d.d.d.j.j.d.d.d.j.j.d.d.d.j.d.d.d.d.j.j.j.j.j.d.d.d.d.d.d.d.d.d.d.d.d.d.d.d.d.d.d.d.d.d.d.j.d.d.d.d.d.j.d.d.d.d.d.d.d.d.d.d.d.d.d.d.d.d.d.d.d.i.q.u * : & & O O O O o o o o o O O O O o O O O O O o O O O o X O O o o O o o o o O O o o o O O O O O O O O O O O o o O o O O O O o o o O o o O O O O O O O O O O O O O O : `.#X#X#X#X.X#X#X#X#X#X#X#X#X#X#X#X#X#X#X#X#X#X#X#X#X#X#X#X#X#X#X.X#X#X#X#X#X#X#X#X#X#X#X#X#X#X&X&X#X#X#X#X#X#X#X#X#X#X#X#X].].).B.8.q.z.d.d.f.d.d.d.a.d.d.d.d.a.d.a.a.a.a.a.a.a.a.a.s.p.p.s.s.s.s.s.s.a.s.s.p.s.a.s.p.p.s.s.s.s.p.s.s.s.a.s.a.s.s.s.p.p.s.p.p.p.p.p.s.s.a.s.p.s.a.s.p.p.a.d.d.a.a.a.a.a.a.a.f.d.d.d.d.a.d.d.d.a.d.a.d.d.d.d.d.d.d.d.d.d.d.d.f.d.d.f.a.a.d.l.x.j.d.d.d.d.d.j.d.d.d.",
"h k c k h h k k k k k k k k c n n n k k c c c c c c k c k k k c n n c n n k c k k k c c c k h k h h k k c c k h c n n n z z z n n z z n n n n n n n n n c k c n n n n n n n c k k k n n n n n n n n n n n n n n n n n n n n n n z n n n n M n n n n n n n n n n n n c c h c n n n n n n n n n n n n n n n n n n n n n z n n n n n n n n n n n n n n n n n n n n n n n n n n n n n n n n n n n n n n n n n n n n n n n n n n n n n n n n n n n n n n n n n n n n n n n m m m n n n n n n n n n n n n n n n n m m n n n n n n n m m m m m n m n n n n n m m m n n n m m m m m n n n n n m m n n n n n n c l I m.m.>.:.f g a > : & & O O & O O & = & O O & O O & & & & & O O O O O O O O O o O O & O O O & & X f #XoX#X#X.X+X#X#X#X].].+X#X#X#X#X#X#X.X#X#X#X#X].].#X#X#X#X#X#X#X#X.X.X.X#X#X#X+X.X.X#X#X#X#X#X#X#X#X#X#X.X.X.X#X#X#X#X#X{.'.K.U v N m m n n n n n n m m m n n z V V z n N N N N m n n m m m m m m N m m m m m n n n n n n n n n k k k c k l l l j < < < < , , , , # # # ; t.g.d.d.j.j.j.d.j.j.d.d.d.d.d.d.d.g.r.q.w.w.T.).XXXXXX+X+X+X#X|.#X#X#X#X#X#X#X#X#X#X#X#X#X#X#X].#X|.#X#X#X#X#X#X#X#X#X#X#X#X#X#X#X#X#X#X#X#X#X#X#X#X].).C.8.z.d.d.d.d.d.d.d.d.d.j.d.j.j.j.d.j.d.d.j.d.g.z.z.t.w.w.B.T.).XXXXXX].XX).T.8.r.z.d.j.j.j.j.d.j.d.j.d.d.j.d.d.d.d.d.d.j.d.d.d.d.d.d.d.d.d.d.d.d.d.d.d.j.l.j.j.x.l.d.d.d.d.d.d.d.d.d.d.d.d.d.d.d.d.d.d.d.d.d.d.d.d.d.d.d.d.d.d.d.d.d.d.d.d.d.d.d.d.d.d.d.d.d.d.d.f.r.;.; ; O O O O O O O O O o o o O O O o O O O O o o o o o o o O O o o o o o o o o O o o O O O O O O O o O O O O O O O O O O O O o o O O O & O O O & : : & & O O O O O O o f &X#X#X#X#X#X#X#X#X#X#X#X#X#X#X#X#X#X#X#X#X#X#X#X#X#X#X#X#X#X#X#X#X#X#X#X#X#X#X#X#X#X#X#X#X#X#X#X#X#X#X#X#X#X#X#X#X#X#X#X.X].XX).y.;.g.g.d.d.d.d.d.d.d.d.a.a.a.a.a.p.s.a.s.a.a.s.a.s.s.s.s.s.s.p.p.p.s.s.s.s.a.s.s.p.s.a.a.a.s.s.s.p.p.p.p.p.p.s.s.p.p.s.p.p.p.p.p.s.s.a.a.p.s.s.p.p.a.a.a.d.d.a.a.p.a.d.a.a.a.a.a.a.a.d.d.d.a.d.d.d.d.d.d.a.d.d.d.d.d.d.d.f.a.d.d.d.d.d.j.j.d.d.d.d.d.a.a.d.a.d.",
"h h k c k k k k c c k c k k c c c n c c c c k c c c c n n n k k c n c k c c n c k c c c c k c k k c c k c c c c k k c n n z n n n n n n n n n n n n n n c c c c n c n n c c k k k k c n n n n n n n k k n n n n n n n n n n n n n n M n n n n n n n n n n n n n n n n n h h k c c n n n n n n n n n n n n n n n n n n z n n n n n n n n n n z n n n n n n n n n n n n n n n n n n n n m m n n n m n n n n n n n n n n n n n n n n n n n n n n n n n n n n n n n n n n n m m m m n n n n n n n n n n n n n n n n n n n n n n n m A N n n n n n n n n n m N m m m m m n m m m n n n n m m m n n n n n n M b 2.J.J.V.V.C.n.:.f g a a > : : O & O & & & O O O O O = : = = O o O O O = O O O o o O & O O O O = O n.#X].#X#X#X].].#X#X#X].].#X#X#X#X#X#X#X].].#X#X#X.X].]..X#X#X#X#X#X#X].#X].]..X.X.X.X#X#X#X#X#X#X#X#X#X#X#X#X#X#X.X.X.XoX{.}.D.K B N m m n n n n n n m m n n n n n n n z z z n N N N N m m m m m N m m m m m n n n n n n n n n c c c c c l l l j j 2 < < < , , , , , # # o i T.g.j.j.d.d.j.j.j.d.d.d.g.g.r.q.q.w.B.B.).[.].]..X#X#X#X#X#X#X#X#X#X#X#X#X#X#X#X#X#X#X#X#X#X#X#X#X#X].].#X#X#X#X#X#X#X#X#X#X#X#X#X#X#X#X#X#X#X#X+X].`.T.8.r.l.k.d.d.j.j.d.j.j.d.d.j.j.j.j.j.d.l.g.g.g.t.w.w.T.).XX].].].]..X+X.X].).C.8.z.d.j.j.j.j.d.d.j.j.d.d.d.d.j.d.j.l.d.d.d.d.d.d.d.d.d.d.d.d.d.d.d.d.j.d.d.d.d.j.j.d.d.d.d.d.d.d.d.d.d.d.d.d.d.d.d.d.j.d.d.d.d.d.d.d.d.d.d.d.d.d.d.d.d.d.d.d.d.d.d.d.d.d.d.d.d.d.a.i.q.t * & O O O O O o O o O o o o o O O O O O O O O O o O O O O O o O O O O O O o o X o O O O O O O O O O O & O O O O O O O O O o o O O & : O & & O : : & O O O O & o O o a {.#X#X#X#X].#X#X#X#X#X#X#X#X#X]..X].].#X#X#X#X#X#X#X#X#X#X#X#X#X#X#X#X#X#X#X#X#X#X#X#X#X#X#X#X#X#X#X#X#X#X#X#X#X+X+X#X].].].XX).B.;.q.z.d.d.d.d.d.d.d.d.d.d.a.a.a.a.a.a.s.a.a.a.a.p.p.p.p.s.s.s.p.s.s.s.s.s.s.s.s.s.p.p.s.s.a.a.a.s.s.s.s.s.s.a.a.s.s.s.s.p.p.p.p.p.s.a.a.s.s.p.p.a.a.a.a.a.a.d.d.a.a.d.a.a.a.d.d.d.d.d.a.a.d.a.a.a.a.d.d.d.d.d.a.d.d.a.d.d.a.d.d.d.d.d.d.d.d.d.l.d.d.d.d.d.d.d.",
"k k k c c c c c c c c k k k c c n c c n k k h k c c n n n n k k k c c k k c n n c c k k k k k k k k c c c k k c k k k k c c n n n n n n n n n z k n n c c c n n n c c c h h k k k k k n n n n n n n n k n n n n n n n n n n n n n n n n n n n n n n c c c n n n n n n n n n n c c n n n n n n n n n n n n n n n n n n n n n n n n n n n n n n n n n n n n n n n n n n n n n n n n n n n n n n n n n n n n n n n n n M n n n n n n n n n n n n n n n n n n z n n n n n n n n n n n m m m n n n n n n n n n n n m n n n n n n n n m m m n n n n n n n n n n m m m m m n m m m m n n m m N m n n n n n z n b K.}.'.`.`.R.V.V.C.n.n.n.f g g a > > : = : O O O O O O O & & O O o O & = O O & O O O O = = & = = > `.].]..X#X#X#X#X].]..X+X.X#X#X#X#X#X#X#X#X.X].#X#X#X#X].].].#X#X#X#X#X#X#X#X#X#X.X#X#X#X#X.X.X#X#X&X#X#X#X#X#X$X#X+X].#X].'.(.W v B N m n n m m m m m m m m n m M n n n n n n z z z n m m m N m m m N m m N m n n n n n n n n n k c c c k l l l j < 2 < < < , , , , , # # # ; t.g.d.j.j.j.d.d.g.z.g.i.r.q.w.t.T.).).[.[.].].#X#XoX#X#X#X#X#X#X#X#X#X#X#X#X#X#X#X#X#X#X#X#X#X#X#X#X#X#X#X#X#X#X].#X.X+X#X#X|.#X#X#X#X#X#X#X#X#X#X].[.R.w.8.g.d.k.j.d.d.d.k.d.d.j.j.d.j.d.l.g.g.t.w.t.B.R.).XXXX+X#X#X#X#X#X#X#X].[.B.8.r.z.d.j.a.a.d.d.d.d.j.d.d.d.d.d.j.j.d.d.d.d.d.d.j.j.d.d.a.j.d.a.d.d.d.d.d.d.d.d.d.d.d.d.d.d.d.d.j.d.d.d.d.d.d.d.d.d.d.d.d.d.d.d.d.j.d.d.d.d.d.d.d.d.d.a.a.d.d.d.d.s.a.d.d.d.d.d.a.i.q.u * & = O O o o o O o o o o O o o O O O O O O O O O o O O O o o O o O O O & O o X o o o X o O O O o o o O o O o o O O O O O O O O & & O O O & O & : O O O O O O O O O O V.$X].#X#X].#X#X#X#X#X#X#X#X#X#X#X#X#X#X#X#X#X#X#X].#X#X#X#X#X#X#X#X#X#X#X#X#X#X#X#X&X#X#X#X#X#X#X#X#X#X].].].#X#X#X#X#X|.].].).V.y.8.g.l.d.d.d.d.d.d.d.d.d.a.a.a.a.a.a.p.a.a.a.a.s.s.s.s.s.a.a.s.s.s.s.s.s.s.s.s.s.s.s.s.s.s.s.s.s.a.s.s.s.p.s.a.a.s.s.s.s.p.p.p.p.s.s.p.s.p.s.a.a.a.a.d.d.j.d.d.d.d.d.a.d.d.d.d.d.d.d.d.d.d.d.d.d.d.a.d.j.j.d.d.d.d.d.a.a.a.d.d.d.d.d.d.d.d.d.d.a.d.d.d.d.d.d.",
"k k c k k k k h k c c k k k k c c k c k k h k k k k c k k n n k k k c c c c n n c c k c n n c k k k k k c c k h k c k k k c h k c n n n c k c c k z n c k c k c n c c k h h k k k k k c n z n n n n n n h k k k k k n n n n n n n z z z n z n n n c k k c n n n n c c c n n n k k n n z n n n n n n n n n n n n n n n n n n z k n n n n n n n n n n n n n n n n n V z n n n n n n n n n n n n z z n n n n n n n n n n m n n n n n n n n n n n n n n n n n n n n n n n n n n n n n m m m n n n n n m m n n n n m m n n m n n n n n n n m m n n n n n n n n n m m n n n n n m n n n n m m m m n n n n M c U }.}.{.].[.[.`.`.`.V.V.V.V.C.n.>.f g a a > : : : : O O O O O O O O O O O O & = o o o & O O = O O g ].'.].]..X#X#X#X#X.X].].]..X#X#X#X#X#X.X#X#X.X#X#X#X#X#X#X.X.X#X#X#X#X#X#X#X#X.X.X].]..X#X.X#X#X#X#X&X#X&X#X#X#X#X#X#X#X{.}.K.I M N m m n n m m m m m n n n m m m m m m N n n M M n n z z z n B N N N m m m N n n n n n n n n n k k k k l l l l j j j < < < < , , , , , # # * y.z.l.j.d.j.l.g.g.t.q.y.w.B.).).XXXX[.].].#X#X#X#X#X#X#X#X#X#X#X#X#X#X#X#X#X#X#X#X#X#X#X#X#X#X#X#X#X#X#X#X#X#X#X#X#X#X#X#X#X#X#X#X#X#X#X#X#X#X+X#X#X].).B.8.t.z.k.j.j.d.d.k.k.d.d.d.d.l.g.t.w.w.B.T.).XXXX.X+X#X.X.X+X#X#X#X#X#X].].).y.8.z.d.d.j.x.d.d.j.j.j.j.d.j.d.d.d.d.d.d.d.d.d.d.j.j.d.d.d.d.j.d.d.d.d.d.d.d.d.d.d.d.d.d.d.d.d.d.d.d.d.d.d.j.j.d.d.d.d.d.d.d.d.d.d.d.d.d.d.d.d.d.d.d.d.d.d.a.d.d.d.j.d.d.d.d.d.d.a.f.0.8.t & & O o O O o X o O O & O O O O O O O o o o o X O o o o O O O O o O O O O O O O o o o X X o O O o o o X X o X o O O O O o O O O o O O o o O O : O O : & O o O O O o a {.].oX#X#X#X#X#X#X#X#X].].].].#X#X#X#X#X|.#X#X#X#X#X#X#X#X#X#X#X#X#X#X&X#X#X#X#X#X#X#X#X#X#X#X#X#X#X#X].|.#X#X#X#X#X#X#X#X].[.).C.;.r.d.d.d.j.d.d.d.d.d.d.a.a.a.p.p.a.a.a.p.p.a.a.a.a.s.a.a.s.s.p.s.a.s.s.a.s.s.a.a.s.s.s.s.s.a.a.s.s.p.p.p.p.s.s.s.s.s.s.s.s.p.p.p.s.s.s.s.a.a.a.a.a.a.d.d.d.d.d.d.d.a.d.d.d.d.d.d.d.d.d.a.d.d.d.d.d.d.d.d.d.d.d.a.d.d.d.d.d.a.a.d.d.d.d.d.a.d.a.d.d.d.d.d.d.",
"c k h j l h h h k h k k c n k k k c n n k h k k k c k h h h k c c k k k k k c c n c k n n n n n c c k k k c c k k k c c c c k k k k k k c c c c n n n n k k h k n n n n h h c c c c c c k n n n k n c h h h k n n n n n n n n n n n n n n n n n n n k k k n n k k c k k n z n k n M n n n n n n n n n z n n n n n n n n k z k z n n n n n n z z n n n n n n n n z n n n n n n n n n n n n n n n n n n n n n n n n n n n m n n z n n n n n n z z n n n n n n n n n n m n n n n n n n n n m m n n n n m n n n n n n n m m n n n n n n n n n n n n z n n n n n n m m m m n m n n n n n n m n n n n n n n l 2.}.'.{..X].].[.[.[.'.[.`.`.~.V.V.C.C.n.f g a > > > = & = O O O O O O O O O & O O o O & & O O O O C.oX].].oX].].].].+X.X]..X+X.X.X#X#X#X#X#X#X#X#X#X#X#X#X#X#X#X#X.X.X#X.X#X#X#X#X#X#X#X.X.X].].]..X#X#X#X#X#X#X#X#X#X#X#XoX{.}.L.v M N N m n n m m m n m n n m m m m m m m m m m n n m N m n n k h z n N N N N N n n m n n n n n n z k k k k l l l l j j < < < < , , , , , # - & i T.g.l.g.g.r.q.w.w.B.R.).`.XX].].].].+X+X#X#X#X#X#X#X#X#X#X#X#X#X#X#X#X#X#X#X#X#X|.].].#X#X#X#X#X#X#X#X#X#X#X#X#X#X#X#X#X#X#X#X#X#X#X#X#X#X#X#X#X#X#X[.).y.q.v.j.d.j.j.d.d.k.d.g.g.t.t.w.t.B.).).XX]..X.X#X#X#X#X#X#X#X#X#X#X#X+X].[.B.;.g.z.d.j.d.d.d.j.j.d.d.j.j.d.d.j.j.d.j.d.d.d.d.a.a.d.d.d.d.d.d.d.d.d.d.d.d.j.d.d.d.d.d.d.d.d.d.d.d.j.j.l.j.d.d.d.d.d.d.a.d.j.d.d.d.j.d.d.d.d.d.d.d.d.d.j.d.d.d.d.d.d.d.d.a.d.a.d.a.e.q.;.* * O O O o O O O O O O O o O O O O o o o O o O o X o o O & O O O O & O O O O o o o o X X o X X o O O o o O o o O O O O o o o O O o O O O O O O O O O O O o o o o O O V.#X#X#X#X#X#X#X#X#X#X#X].].].].#X#X#X#X.X].#X#X#X#X#X#X#X#X#X#X#X#X#X#X#X#X#X#X#X#X.X].#X#X#X#X#X#X#X#X#X#X#X#X#X#X#X#X#X].[.`.R.y.8.z.l.j.d.d.d.d.d.a.a.a.a.a.a.p.p.p.p.p.p.p.a.a.a.a.a.a.s.p.a.s.p.p.s.s.p.s.a.a.s.s.s.p.s.a.s.s.s.s.p.p.s.s.s.s.s.p.p.p.p.p.p.s.s.s.s.a.a.a.a.a.a.a.a.a.a.a.a.a.a.d.d.d.d.d.d.d.d.d.d.d.d.d.d.d.d.a.a.d.d.d.d.a.d.d.a.d.d.d.d.d.d.d.d.d.a.d.d.d.d.d.d.d.d.",
"c c h j l k c h h h c c c c k k k c c n c c c k c n n c k h k c c c c c c c n n n c c n n n k n n c c k k k k k k k c c k c k h k k k c k k c c n n n n n n n n z n n n n n c c c n c k c n c k c k c c k k n n n z n n n n n n n z n z n n n n n n n n n z k h h k k k n n n n n n n n n n n n n n n n n n n n n n n n n n n n n n n n n n n k k c n n n n n z n n n n n n n n n n n z z n n n n n n n n n n n n n n n n n n n n n n n n n n n n n n n n n n n n n n m n n n n n n n n n m m n n n n n n n n n n m n n n n n n n n n n n n n n n m n n n n n n n m m n n n n n n n m m n n n n n n v b K.}.'.].].]..X].].[.].].].].`.[.`.`.V.V.V.C.n.f g a a > > > : & & & O & O O O & & O O & & : & O > [.oXoX#X#X#X].#X#X#X.X].]..X#X+X#X#X#X#X#X.X.X#X#X#X#X#X#X#X.X#X#X.X#X]..X#X#X#X#X#X#X.X#X#X].].].].oX#X#X#X#X#X#X#X#X#XoX'.(.W v B m m m m m m m n m n n n m m m m m m m m n n m m m m m n n n n z z V z n N N N N m n n n n n n n k k k k k l l c l l 2 < < < , , , , , # - & w t.g.r.r.q.w.B.T.).XXXX].].].].].].#X#X#X#X#X&X#X#X#X#X#X#X#X#X#X#X#X#X#X#X#X#X#X#X#X#X#X#X#X#X#X#X#X#X#X#X#X#X#X#X#X#X#X#X#X#X#X#X#X#X#X#X#X#X#X#X#X].`.B.8.g.l.j.j.d.d.l.g.g.r.w.w.B.).).XX].].].#X#X#X#X#X#X#X#X#X#X#X$X#X#X#X+XXXR.y.8.g.d.d.d.j.d.d.d.d.j.d.d.j.d.d.j.j.d.j.d.d.d.d.d.d.d.d.d.d.d.d.d.d.d.d.a.d.d.d.d.j.d.j.l.d.d.d.d.d.d.d.d.d.d.d.d.d.d.d.a.a.d.d.d.d.d.d.d.d.d.d.d.d.a.d.d.d.d.d.d.d.d.d.d.d.j.d.a.i.e.;.; ; O O o O O O O O O o O O O o X O o X o o X O o o o o o o o O & & O O O O O o o X o X o o X X X o o o o O O O o o O O O O o O O O O O O O O O o o X o O O O o O O o E =X#X#X#X#X#X#X|.].].].]..X#X#X#X#X#X#X#X#X#X#X#X#X#X#X#X#X#X#X#X#X#X.X#X#X#X#X#X#X#X#X].].#X#X#X#X#X.X]..X#X#X#X#X#X#X#X#X].].).B.8.g.l.d.d.d.d.d.d.d.d.a.a.a.a.a.a.a.a.a.a.p.a.p.a.a.a.s.p.p.s.p.p.p.p.p.p.p.s.a.s.s.s.s.p.s.s.s.s.a.s.s.a.s.s.s.s.s.s.p.p.s.s.p.p.p.a.a.a.a.a.a.p.p.a.a.a.d.a.d.d.a.a.d.d.d.d.d.d.d.a.a.d.a.d.a.d.d.d.d.d.a.a.d.d.d.d.a.d.d.a.d.d.d.d.d.d.d.d.d.d.j.j.d.d.",
"c c k h h h k h h k k c c k n k k k c k k c k c c k c c c c c h k c c c k c c k k k k n n n n n n c k k k c n k h c n n c n n k h h k c k k h k k k n n n n n n z n n n n n k n n n n c k k c c c c c c n n n n n n n n n c n n n n n n n n n n n z n n n n n z c k c k n n n n n n n n n n n n z z n n n n n n n n n z n n n n n n n n n n n n k c n n z z n n n n n n n n n n n n n n n z z n n n n n n n n n n n n n n n n n n n n n n z n n n n n n n n n n n n n m m n n n n z n n n n n n n n n n n n n n n m m n n n n n n n n n n n n n n n n n n n n n n n n m m n n n n n m m m n n z n n c U }.'.].{.{.oX.X#X].].].].].].].[.[.[.[.`.`.V.V.V.C.n.:.f g a a > = = = = : O O & O O O O O O : O f oX.X#X#X#X#X#X].#X#X#X#X.X].].].#X#X#X#X#X#X]..X#X#X#X#X#X#X#X#X#X].#X.X]..X#X#X#X#X#X].]..X#X#X].].].].].#X#X#X#X#X#X#XoX}.K.U v n m m m m m m m n n m m m m n m m m m N m m n n m n n m m n n n n n n z z z z n N N N N m n m n n z k k k k k k l l l 2 < < < , , , , - - & * t q.q.q.t.T.).).XX].+X+X+X+X].].].#X#X#X#X#X#X#X#X#X#X#X#X#X#X#X#X#X#X#X#X#X#X#X#X#X#X#X#X#X#X#X#X#X#X#X#X#X#X#X#X#X#X#X#X#X#X#X#X#X#X$X#X#X#X#X#X#X.X+XXXR.y.t.z.l.l.g.g.t.w.w.B.T.).XXXX.X+X#X#X.X].].+X].#X#X#X#X#X#X#X$X#X#X#X+X[.).B.;.g.d.d.d.d.d.d.d.j.d.d.j.d.d.d.d.d.d.d.d.d.d.d.d.d.d.d.d.d.d.d.d.d.d.d.d.d.d.d.d.d.d.d.d.d.d.d.d.d.d.d.d.d.d.d.d.d.d.d.d.d.d.a.d.d.j.j.d.d.d.d.d.d.d.d.d.d.d.d.d.d.d.d.d.d.d.a.d.a.r.-.; * ; & = O O O o o O O O O O O o O X X X o O O O O O X o O O O O O & O O O O o X X o X X o o o O o o o O O O O X o O O O o O O O & & O O O O O o O O O & & & & O & o > [.#X#X#X#X#X].].].].].#X#X#X#X#X#X#X#X#X#X#X].#X#X+X].].#X#X#X#X#X#X#X#X.X#X#X#X#X#X#X#X#X#X].].].#X].#X#X#X#X#X#X#X#X#X#X#X].`.R.8.q.g.d.d.d.d.d.d.d.a.a.a.a.a.a.a.a.a.a.a.a.a.p.p.a.a.p.p.p.s.s.s.s.s.s.s.p.p.p.s.s.a.s.s.s.s.p.s.s.s.s.s.s.s.p.p.p.p.s.s.p.s.s.p.a.a.d.a.a.a.a.a.d.d.d.d.d.d.d.a.a.a.a.a.a.p.a.a.a.a.a.a.d.d.d.d.d.d.d.d.d.d.a.a.a.a.d.a.f.d.d.a.a.d.d.d.d.d.d.d.d.a.d.d.",
"k c c c c k k h k k h k k c c c c c k k k k k k k k k c c c c c k h h k c c k h k c c z n n n n n k k c c c c k k k k c c n n n k h k k k k h k k k z n n n n z k k k n n k z n n n n c c c c c c c c c c n n z z z z c n n k k k k n n n n n n n n z n n n n n n n n n n n n n n n n n n n n n n n n n n n n n n n n n z n n n n n n n n n n n n c k k n n n n n n n n n n n n n n n n n z z z n n n z n n z n n n n n n n z n n n n n n n n n n n n z z z n n n n n n m n n n n n z n n n n n n n n n n n n n n n m n n n n n n n n n n n n n n m n n n n n n n n n n n n n n n n m m n n n n n n l 2.}.'.].oXoXoX.X].].].].].].].#X].].].].].[.`.`.`.V.V.V.C.C.n.:.f g a > : > : : : : O O O O & & & C.#X]..X#X#X#X#X#X#X+X#X#X$X#X.X].+X#X#X#X]..X.X#X#X+X#X#X#X#X#X#X#X.X]..X].].#X#X#X#X#X#X.X.X].].].].].]..X#X#X#X#X#X#X#X{.'.L.b M n m n n n m m n n n m m m m n m m m n m m m n m m m n m m n m n n n n n n n n z z z n n N N B B n n n c c k k k l l j j 2 < < , , , - & & w u q.r.g._.).XXXX.X+X#X#X#X#X#X+X#X#X#X#X#X#X#X#X#X#X#X#X#X#X#X#X#X#X#X#X#X#X#X#X#X].#X#X#X#X#X#X#X#X#X#X#X#X#X#X#X#X#X#X#X#X#X#X#X#X#X#X#X#X#X$X#X#X#X+X+X].).C.y.T.g.r.q.w.t.T.).`.XX].+X+X.X+X#X#X#X#X#X#X#X#X#X$X&X$X#X#X#X#X#X#X+X].[.R.8.r.l.d.d.d.d.d.d.j.d.j.j.j.d.d.d.d.d.d.d.d.j.d.d.d.d.d.d.d.d.d.d.d.d.d.d.d.d.d.d.d.d.d.d.d.d.d.d.d.d.d.d.d.d.d.d.j.j.j.j.j.j.d.d.j.j.j.d.j.j.d.d.d.d.d.d.d.d.d.d.a.d.d.d.d.j.d.d.a.i.8.i ; ; : O O O o O O O O O O o o o o o o O X O O O O O O O O O O O o O O O O o X X X o X o o o o O O o O o O O O O O O O O o O & O & O O O o O O O O O & O : & : O o O o n.$X#X#X#X].#X.X.X#X#X#X#X#X#X#X#X#X#X#X|.].].].].#X#X|.#X#X#X#X#X#X#X#X#X#X+X#X#X#X#X#X#X#X#X|.].#X].#X#X#X#X#X#X#X#X#X#X#X+X[.).w.;.g.d.d.a.d.d.d.a.a.a.a.a.a.a.p.p.p.a.a.p.a.a.p.p.p.p.p.p.s.s.p.p.p.s.p.p.p.p.p.p.a.s.s.s.s.p.p.p.p.p.p.s.p.p.p.p.p.s.s.p.s.s.a.a.a.a.a.s.a.d.d.d.d.d.d.d.d.a.d.a.a.d.d.a.a.d.d.d.d.a.a.a.d.d.d.d.a.a.a.a.f.d.d.d.d.a.f.f.f.f.a.d.a.d.d.a.a.d.d.a.a.d.d.",
"h h h k c c c k c h h k k k c c c c k c c c k k k k k k k k k c k h h c c c h h h h c n c c c k c k c c c c c c c c k k k k c c c c h k c k h h k k k c n c n c k k k c c c n n n n n k n n c c c k k c n n n n n c k n n n n n n k k k n n k k c c c n n n k k c c c n n n n n n n n n n n n n n n k n n n n n z n n n n n n n n n n n n n n n n c k k h n n n n n n n n z n n n n n n z z n n n n n n n n n n n n n n n n n n n n n n n n n n n n n n n z n n n n n n n n n n n n n n n n n n n n n n n n n n n n n n n n n n n n n n n n n n n m m n n n n n n n n n n n n n m m m n n n n M M v b K.}.{..X#X#X].oX#X.X#X].].].]..X#X.X].].].].].[.[.`.`.`.V.V.V.V.C.n.n.f g a a > > > > = = O = O 9 `.oX].].#X.X#X#X#X.X]..X+X#X#X#X#X#X#X#X#X+X].+X].+X#X#X].#X#X+X.X]..X.X].].].#X#X#X#X#X#X#X.X#XoX.X.X.XoX#X#X#X#X#X.X+XoX{.}.W v B m m n n n n m n n n m n n n n m m m n n m n n n m m m n n n m m m m m n n n n n n n n n z n n M B M M n c c l l l l l 2 2 2 2 1 - - w u ;.w.r.r.r.g._.XXXX+X#X#X#X#X#X#X#X#X#X#X#X#X#X#X#X#X#X#X#X#X#X#X#X].#X#X#X#X#X#X#X#X].#X#X#X#X#X#X#X#X#X#X#X#X#X#X&X#X#X#X#X#X#X#X#X#X#X#X#X#X#X#X#X#X#X#X#X+X].[.V.y.y.y.w.B.).).XXXX+X#X#X#X#X#X#X#X#X#X#X#X#X#X#X#X#X#X#X#X#X#X#X#X#X#X.X[.).w.8.g.d.d.d.d.d.k.d.d.d.d.j.d.d.d.d.d.d.d.d.d.d.d.d.d.d.d.d.d.d.d.d.d.d.d.d.d.d.d.d.d.d.d.d.d.d.d.d.d.d.d.d.d.d.d.d.j.d.d.d.j.d.j.d.j.d.d.d.d.d.d.d.d.d.d.d.d.d.d.d.d.d.d.d.d.d.d.d.i.9.q.u * & O o O O O o O o o O O o X o O O O o O O O o O O O O O O O O & O o o o X X X o o O O o o o o O O O O O o o o O O O O o O O O O O O O O O O O O O O & O O O o O o a #X#X#X#X#X#X#X#X#X#X#X#X#X#X#X#X#X#X#X#X#X.X#X#X#X#X#X#X#X#X#X#X#X#X#X#X#X#X#X#X#X#X].].#X#X#X#X#X#X#X#X#X#X#X#X#X#X#X#X#X].].).B.;.q.g.f.d.a.d.d.a.a.a.a.a.a.a.a.a.a.p.p.p.a.p.p.a.p.p.p.p.p.p.p.p.p.s.p.s.s.s.p.p.s.s.s.s.s.s.s.s.a.s.s.s.p.p.p.p.p.p.s.s.s.s.s.a.a.a.a.a.a.d.d.a.a.a.d.d.d.d.a.d.d.a.d.d.d.d.a.a.d.d.d.a.a.d.d.d.d.d.f.a.a.a.a.f.d.a.d.j.d.d.a.a.a.a.a.d.d.d.d.d.d.d.d.",
"h k k k k k k c c c c c c k k k k k k k c c c c k k c c c c k c c k k c c k h h k h k c n n n k k k c n n n c k k c c c c c c k k c c c k c c c h h k k c c c c c c k c c k z k n n n k k n n c k k k c c k n n n k k c n n n n n k k k n n k h k k k z n n c k k k c n n n n n n n n n n n n n k c n n n n n n z k n z z n n n n n n n n n z n n n k k h n n n n n n n n n n n n n n n n n n n n n n n n n n n n n n n n n n n n n n n n n n n n n n n n n n n n n n n n n n n n n n n n z n n n n n n n n n n n n n n n n n n n n n n n n n n n n n n n n n n n n m n m m n n m m m n n n n n M c U }.}.{.].].#XoXoX#X#X#X#X].]..X].]..X].].]..X].].[.[.`.`.`.`.~.R.R.V.V.C.C.n.n.f g a a > : : : & f #XoX#X#X].]..X#X#X#X].].].].].#X#X#X#X#X#X#X#X+X#X#X#X#X]..X#X#X#X.X].]..X].].].].|.#X#X#X#X#X#X#X#X#X#X#X#X#X#X#X#X#X#X#X'.K.U v B N m m m m n n n n n n n n n n n m m N N m n n n n m m m m n m m m n n m n n n n n n n M M n n k k k k k k c c c c l l 4 2 1 1 > a ;.w.w.r.e.i.i.f.i._.@X#X&X#X#X#X#X#X#X#X#X#X#X#X#X#X#X#X#X#X#X#X#X#X#X#X#X#X#X#X#X#X#X#X#X#X#X#X#X#X#X#X|.#X#X#X#X#X#X#X#X&X#X#X#X#X#X#X#X#X#X#X#X#X#X#X#X#X#X#X#X#X+X].`.V.B.R.).XXXX]..X.X+X#X#X#X#X#X#X&X#X&X&X&X#X#X#X#X#X#X#X#X#X#X#X#X#X+X+X].`.B.8.t.d.d.d.d.a.d.d.d.d.d.d.d.j.d.d.d.d.d.d.d.d.d.a.a.d.d.d.d.d.d.d.d.d.d.d.d.d.d.d.d.d.d.d.d.d.d.d.d.d.d.d.d.d.d.d.d.d.d.d.j.d.d.d.d.d.d.d.d.d.d.d.d.d.d.d.d.d.d.d.d.d.d.d.d.d.d.d.a.e.q.=.; & & O O O O o O o O O O O O O O O o O o o O O O O O o O o O & & O o o o o o O O O O O O O O O O O O O o X o o O o o O o O O O O o O O O O o O o o O o o O o o o O O V.#X#X#X#X#X#X#X#X#X#X#X#X#X#X#X#X#X#X#X#X#X#X#X#X#X.X.X#X#X#X#X].#X#X#X#X#X#X#X#X#X+X#X#X#X#X#X#X#X#X#X#X#X#X#X#X#X#X#X.X]..XXX).y.8.g.d.f.d.d.d.a.a.a.a.a.a.a.a.a.a.a.p.p.p.p.p.p.p.p.p.p.p.p.p.p.p.s.s.s.s.s.p.p.s.s.s.s.p.s.s.s.s.a.a.s.p.p.p.p.p.p.p.s.p.p.p.p.a.a.a.a.a.a.a.a.a.a.a.a.a.a.a.a.a.a.a.d.d.a.a.a.a.d.d.d.d.d.d.d.d.d.d.d.d.d.a.a.a.a.d.d.d.d.d.d.a.a.a.d.d.d.d.d.d.j.d.",
"k k k k k k k h k c c c k k k k k k k h c k k c c c c n c c c c n n c c k k k c c k k k n n n n k k n n n n n k k c n c c c k k k c c c c c c c k h k c k k c n c k k k c c k k k n n k k c n n c c c k k k k k k z n h n n n k n n n n k n n k k k k n n n n c c n n n n n n n n n n n n n n n k n n z n k n n n z n z z n n n n n n n n n z z n n n n n n n n n n n n n n n n n n n n n n n n n n z z n n n n n n n n n z z n n n n n n n n n n n n n z n n z n z n n n n n n n n n n n n n n n n n n n n n n n n n n n n n n n n n n n n n n n n n n n n n n m n m n n N m n n n n m m m N n M l m.OX{.oX.X].oXoXoXoX]..X#X#X.X#X.X].].].].].].].[.].].[.[.[.[.'.`.`.`.`.~.R.V.V.C.C.n.f f g a > a V.oX.X#X#X].#X#X.X].].#X].].].].].]..X#X#X#X#X#X#XoX#X#X].oX#X#X#X#X#X#X].].].].].|.].#X#X#X#X#X#X#X#X#X#X#X#X#X#X#X#X.X.X{.}.L.b M n m m N m N n n n n n n n n n n n n n m N m m n n n m m m m m n m m m m n n n z n n n n n n n n n k k k l h k l v b b 4 1 3 a :.w.t.r.i.u.i.f.f.a.a.i.T.@X@X#X#X#X#X#X#X#X#X#X#X|.#X#X#X#X#X#X#X#X#X#X&X#X#X#X#X#X#X#X#X#X#X#X#X#X#X#X#X#X#X#X#X#X#X#X#X#X#X#X#X#X#X#X#X#X#X#X#X#X#X#X#X#X#X#X#X#X#X#X&X#X+X.X[.[.XX]..X.X#X#X#X#X#X#X&X&X#X#X&X#X#X#X#X#X#X#X#X#X#X#X#X#X#X#X#X#X#X+X+X[.).w.q.z.a.d.d.d.a.d.d.d.d.j.d.d.d.d.j.d.d.d.d.d.d.d.d.d.d.d.d.d.d.d.d.d.d.d.d.d.d.d.d.d.d.d.d.d.d.d.d.a.d.d.d.d.d.d.d.d.d.d.d.d.d.d.d.d.a.d.d.d.d.d.d.d.d.d.d.d.d.d.d.d.d.d.d.d.d.d.d.i.0.q.t * : O O O O o X o o o O O O o X o o O o O O O O O o o X o O o o X X O O O O O O O O O O O o o o O o O O o o o O O o o O X X X O o o o o o X O o X o o o O o o o O o g &X].#X#X#X#X#X#X#X#X#X#X].#X#X#X#X#X#X#X#X#X#X#X#X.X#X#X#X#X#X#X].]..X#X#X.X.X#X#X#X].].].].#X#X#X#X#X+X#X#X+X#X+X#X#X#X#X.X.X).B.;.r.g.d.d.d.a.a.a.a.a.a.a.a.a.a.a.a.a.a.a.a.p.p.p.p.p.p.s.p.p.p.p.p.s.a.a.s.p.p.p.p.s.s.s.s.s.p.p.p.s.a.a.s.s.s.a.s.p.p.p.p.p.s.a.a.a.a.a.a.a.a.a.a.a.a.a.a.a.a.d.d.d.d.d.d.d.a.a.a.a.d.a.d.d.d.d.d.d.d.d.d.d.d.a.a.d.a.a.d.d.d.d.d.d.d.d.d.d.d.d.d.d.",
"c c k k k c k h c c k c c k k k h k k k k c c c c c c c c c c k h k c k c c k k k k c k k c n n z n z k k n n n k k c c c k h h k k c c c c c c c c k c c c k n n k c k c n n n n k k k c c n n n n c c k k k n n n n n k z n n n n n n c c n c c c c z k z n k k n n n n n n n n n n n n n n n n n n n n n n n n n n n z n n n n n n n n n z z z n n n n n n n n n n n n n n n z z z n n n n n n n n z n n n z z n n n n n n n z n n n z n n n n n n n z n n n n n n n n n n n n n n n n m m n n z n n n z n n n n n n n n n n n n n V n n n n n n n n n n n n n n n n n n n n n n n m m m m n M v K.}.{.]..X].].].]..X#X+X+X#X].].+X].].]..X].].]..X].].].].[.[.[.[.].[.[.[.`.`.`.~.V.V.V.V.C.n.n.V.]..X.X#X#X#X#X].].#X.X.X#X#X#X].].#X#X.X#X#X#X#X#XoXoX#X#X.X.X+X#X#X#X#X#X.X#X].].].#X].#X#X#X+X#X#X#X#X#X#X#X#X#X#X#X#X].'.(.W v M m m n m m m m m n n n m n n n n n n m n m m m m m m m m m n n n n m m m N m n n n n n n n n n n n z k k l l l 4 4 4 3 r f y.t.g.i.i.i.a.s.f.d.d.d.d.f.z.@X@X#X#X#X#X#X#X#X#X#X#X#X#X#X#X#X#X#XoX#X].#X#X#X#X#X#X#X#X#X#X#X#X#X#X#X#X].#X#X#X#X#X#X#X#X#X#X#X#X#X#X#X#X#X#X#X#X#X#X#X#X#X#X|.#X#X#X#X#X#X#X#X#X.X].].]..X#X#X#X#X#X#X#X&X&X&X#X#X#X&X&X#X#X#X#X#X#X#X#X#X#X#X#X$X#X#X#X].[.).B.;.g.z.j.j.d.d.d.d.d.d.d.d.d.d.d.d.d.d.d.d.d.d.d.d.d.a.d.d.d.d.d.d.j.d.d.d.d.d.a.d.d.d.d.d.d.d.d.d.d.d.d.d.d.d.d.a.a.d.d.d.d.d.d.d.d.d.d.d.d.d.d.d.d.d.d.d.d.d.d.d.a.d.d.d.d.d.d.d.a.e.q.=.* * o O o o X o O O O o X o o X o O O o O O o O O O o o o o O O o X o O O O o o o O O o O o O O O O O O O o o O O O & O O o o O o O o o o o O O O O O O O O O O O O > `.#X#X#X#X#X#X#X#X].#X#X#X#X#X#X#X#X#X#X#X#X].]..X.X#X#X#X#X#X#X].]..X.X.X#X#X#X].#X#X#X#X].#X#X#X#X#X+X+X#X#X#X#X#X#X#X#X+X.XXXR.y.8.g.l.d.d.d.d.d.d.a.a.p.a.a.a.a.a.p.a.a.a.a.p.p.p.p.p.p.s.s.s.p.p.p.p.p.p.p.p.s.p.p.p.p.s.p.p.p.p.p.a.a.a.a.a.a.a.a.s.p.p.s.a.a.a.a.a.a.a.a.d.d.a.a.a.a.a.a.a.a.a.a.a.a.a.d.a.d.d.d.d.a.a.d.d.d.d.d.d.a.d.d.d.d.d.d.d.l.c.l.d.d.d.d.d.d.d.d.j.j.j.j.",
"c c k h k c c c c c c c c c k k h k c k k k k c c k k c c k k k k k k h k k k k k c c k k k c n n n c k n n z n n k h k k c c k k c c c c c c c n n c k c c c c n n n c k k c n n k k c n n c c k c c c k k c n n n n n n z z n n k c k c n c c c c k k k k n c c c n n n n n n n n n n n n n n n n n n n n n n n n z k z n n n n z n n n n n n n n n n n n n n z n n n n n n n n n z n n n n n n n n n n n n n n z n n n n n n n n n n n n n n n n n n n V n n n n n n n n n n n z n n n n n n m n n n n n n n n n n n n n n n n n n n n n n n n n n n n n n n n n n n n n n n n n n n m N N N v U }.{.oX].].'.'.].].]..X.X.X#X].].].#X.X].].].].].].].].].[.[.].].].].].].].].[.].[.[.`.`.`.R.V.R.`.].#X#X#X#X#X#X#X].#X#X].]..X.X.X.X#X#X].#X+X#X#X#X#X#X#X#X#X]..X#X#X#X#X#X.X+X].].].].#X#X#X.X.X#X#X#X#X#X#X#X#X#X#XoXoX].'.J.U M m n m m m m m m m n m m m n n n n n n m m n n m n m N m n m n n n n n n n n n n n n n n n n M n n n z c c l 4 4 3 r g :.w.h.h.i.i.f.f.d.d.d.d.f.d.d.d.d.g._.@X-X&X#X#X#X#X#X#X#X#X#X#X#X#X#X#X#X.X.X].#X#X#X#X#X#X#X#X#X#X#X#X#X#X#X#X].].#X#X#X#X#X#X#X#X#X|.#X$X#X#X#X&X$X$X#X#X#X#X#X#X#X#X#X#X#X#X#X#X#X#X#X#X.X+X#X#X&X#X#X#X#X&X#X#X#X#X#X#X#X&X&X&X#X#X#X#X#X#X#X#X#X#X#X#X#X#X#X.X].[.R.y.q.z.d.j.j.d.d.d.d.d.j.d.d.d.d.d.d.d.d.d.d.d.d.d.d.d.d.d.d.d.d.d.d.d.d.d.d.d.d.d.d.d.j.d.d.d.d.d.d.d.d.d.d.d.d.d.d.d.d.d.d.d.d.d.d.d.d.d.d.d.d.d.d.d.d.d.d.d.d.d.d.d.d.d.d.d.d.d.d.u.0.q.w ; & O O o o o O O o o o o O O O O o O o O o X X o O o O O O O O o X o o o o O o X o o & O O O O o O O O o o O O O O O O o o O o o o O O O O & & O O O & O O O & : o n.=X#X#X#X#X#X#X].].].#X].].#X#X#X#X#X#X#X#X#X.X.X#X#X#X#X#X#X#X#X#X#X#X#X#X#X#X|..X#X#X#X#X#X#X#X#X#X#X#X#X].].#X#X#X#X#X+X].[.).B.;.r.l.d.d.d.d.d.d.d.a.d.a.a.a.a.a.a.a.a.a.a.p.p.p.p.p.p.s.s.p.p.p.p.p.p.s.p.p.a.a.a.s.p.p.p.p.p.p.p.p.a.a.a.s.a.a.a.a.s.a.a.a.a.a.a.a.a.a.a.a.a.a.a.d.a.a.d.d.d.a.a.a.a.d.d.d.d.a.d.a.a.a.d.d.d.d.d.d.a.a.d.d.d.d.d.d.d.d.d.d.a.a.a.a.d.d.d.d.d.d.d.",
"k h h k k c c c k k k c c c c c k c c c c c k k c c c c c c k k c k k k k k c k k k c c c k k c k c c k c n z n n c h h h k c c c c c c c k c c c c c c k h c c c c k k c c k k n k c c c c k k h h c c k k c c z n n n n n k z n k k k k k c c c c k z z z n n k c c c n n n n n n n n n n n n n n n n n n n n n n z k n n n M n n n n n n n n n n n n n n n n z z k n n n n n n n n n n n n n n n n n n n n n n n n n n n n n n n n n n n n n n n n n n n z n n n n n n n n n n n n z n n n n n n m m n m n n n n m n n n n n n n n n n n n n n n n n n n n n n n n m n n n n n n n n n m m M v 2.OX{.#X.X].].].].].].].].#X#X#X].]..X+X].].].]..X].].].].].].].].].]..X].].].].].].].].].[.[.[.[.]..X].#X#X#X#X.X#X|.#X#X+X#X].].].].].#X.X+X#X].].#X#X#X#X#X#X#XoX#X#X#X#X#X#X.X].[.].]..X#X#X#X].].].#X#X#X#X#X#X.X.X#XoX].'.m.v M m m m m n n n m n m m m m m n n n n n n m m n m m m m m m n n n m n n n n n z n z n n n n n n M n n c b 4 4 r s :.C.T.h.i.i.i.a.f.d.d.a.a.d.d.a.a.d.d.d.a.z.@X@X&X$X#X#X#X#X#X#X#X#X#X#X#X].#X#X#X#X#X#X#X#X#X#X#X#X#X#X#X#X#X#X#X#X#X#X#X#X#X#X#X#X#X#X#X#X#X#X#X#X#X#X#X#X#X#X#X#X#X#X#X#X#X#X#X#X#X#X#X#X#X#X.X.X#X#X#X#X#X#X#X#X#X#X#X#X#X#X#X#X#X#X#X#X#X#X#X#X#X#X#X#X#X#X#X#X#X#X#X].].).C.8.g.d.j.j.j.d.d.d.d.j.j.d.d.d.d.d.d.d.d.d.d.d.d.d.d.d.d.d.d.d.d.d.d.d.d.d.d.d.d.d.d.j.d.d.d.d.d.d.d.d.d.d.d.d.d.d.d.d.d.d.d.d.d.d.d.f.d.d.d.d.d.d.d.a.d.d.d.d.d.d.d.d.d.d.d.d.d.d.p.e.q.u * : o o o X o O O O o O O O O O O o O o O o X o O o O O O O O o X X X o o X O o O O o O O O O O O O O O o O O O O O o O o o O O o O O O & & & & & O & O O & & = O O > [.$X#X#X#X#X#X#X#X#X#X#X].#X#X#X#X#X#X#X#X#X.X.X#X#X#X#X#X#X#X#X#X#X#X#X#X#X#X#X].|.#X#X#X#X#X#X+X#X#X+XoX].].].+X#X#X#X#X+X].`.R.8.8.g.d.d.d.d.d.d.d.a.d.d.a.a.a.a.a.a.a.a.a.p.p.p.p.p.p.p.p.p.p.p.a.a.a.a.a.p.a.a.a.a.a.p.s.a.p.a.a.s.a.s.a.a.a.a.p.a.d.d.a.a.a.a.a.a.a.d.a.p.p.d.d.d.d.d.d.d.d.d.a.d.a.a.d.d.d.d.d.a.a.a.a.a.a.a.f.d.d.a.a.a.d.d.d.a.a.a.a.f.f.d.d.a.d.d.d.d.d.d.d.",
"k k k c c c c c c k k k c k c c k c c c c c c k k k k k k k k k k k k k k k k k k h h k c c c c k h h c c k z c k c k k k h k c k c c c k k c c c k c c n k h c n n k k n n n c c c c c c c c k k k k c c c c k k z n n n n n n n z k k k h k c h k n n n n n k c k k k n n c z n n n n n n n n n n n n z n n n n n n n n n n n n n M n n n n z z n n n n n n n n n n n n n n n n n n n n n n n n n z h n n n n n n n z n n n n n h z n n n n n n n n n n n n n n n n n n n n n n n n n n n n z z n n n n n n n n n n n n n n m n n n n n n n n z z n n n n n n z n n m m n n n n n n n n m N M v K.OX{..X].].].oX].].].].].].].]..X]..X#X].].].].].].].].].].].].]..X#X.X].]..X].].].].].].].].].].].#X.X.X#X#X#X#X#X.X.X#X#X#X.X.X.X].].].].#X#X#X#X#X#X#X#X#X#X#X#XoXoX#X#X].oX.X.X].#X].]..X].].].#X].].#X#X|.|.#X.X].].{.{.K.R v M m m m n n n n n n m m m m m m n n z n n n m m m m m n m m n n n n n n n n n n n n z n n n n M M v b 4 4 e g :.t.h.r.i.i.a.d.f.a.d.d.d.d.a.a.d.d.d.a.d.d.a.g._.@X#X#X#X#X#X#X#X#X#X#X#X#X#X#X#XoX#X#X#X#X#X#X#X#X#X#X#X#X#X#X#X#X#X#X#X#X#X#X#X#X#X].].].#X#X#X#X#X#X#X#X#X#X#X#X#X#X#X#X#X#X#X#X#X].|..X#X#X#X#X+X.X#X#X#X#X#X#X#X#X#X#X#X#X#X#X#X#X#X#X#X#X#X.X].#X#X#X#X#X#X$X$X$X#X#X#X#X.X[.V.8.t.z.a.j.j.d.d.k.j.d.j.d.d.d.d.d.d.f.d.d.d.d.d.d.d.d.d.d.d.d.a.d.d.d.d.d.d.d.d.d.d.d.d.d.d.d.d.d.d.d.d.d.d.d.d.d.d.d.d.d.a.d.d.d.d.d.d.d.d.d.d.d.d.d.d.d.d.d.d.d.d.a.d.d.d.d.d.d.d.u.0.;.* * O o o o o o O O O : : O o o o o o o o o o O O o O o o o o o o o o o o o o o O & O O O O O O o o O O O O O O O o o O O O O & O O O O O O O O O O O O O O = = = O O n.=X#X#X#X#X#X#X#X#X.X#X#X#X#X#X#X+X+X#X.X.X.X#X#X#X#X#X#X#X#X#X#X#X#X#X#X#X.X#X#X].].#X#X#X]..X+X#X#X#X#X#X#XoX#X#X#X#X#X#X.XXX).w.=.i.d.d.d.d.d.a.f.a.a.d.a.p.p.a.a.s.a.a.a.a.p.p.p.p.p.p.p.p.p.p.p.p.p.a.a.p.a.s.p.p.a.p.p.p.a.a.p.a.a.a.a.s.p.p.p.a.a.a.a.a.a.a.a.a.d.d.d.d.a.p.a.d.d.a.a.a.d.d.d.d.d.a.p.a.d.a.d.a.d.d.a.a.d.a.a.a.a.a.a.a.d.d.d.d.d.a.a.d.d.d.d.d.d.d.d.d.d.d.d.",
"h k c c c k k k c c k k k c k k c c n k h k k k k k h h h h k k k k k k k k c c k k k c h h k c k c c k c c c c k c h k c k k k k c c c k c n n c k k c k c n c k k n z k c n c k c c n n c k c k k k c c c c k k h h c n n n n n z z c c k h h h k k n M n n n k k k k c n n c k k n n n n n n n n n n z n n n n n n n n n n n n n n n n k n z n n n n n n n n n n n n n n n n n n n n n n n n n n k h n n n z n n n n n n n n n n z V z n n n n n n n n n n n n n z z n n n n n n n n n n n n n n n n n n n n n n n n n n n n n n m m n n n n n n n n n n n n n n n n n n n n n n m m m m B M U }.}.{..X].].].]..X.X.X.X.X].].[.].].]..X#X.X].].].[.].].[.].].].].]..X.X]..X].].]..X].].].]..X].].].].#X#X.X#X#X+X].]..X#X#X.X.XoX#X.X].].oX#XoX#X{.#X#X#X#X#X#X#XoX#XoXoX#X#X]..X#X].#X#X].].].].].].#X#X].#X#X#X#X#X].].].'.L.K M N m n m m m m n n m m m m m m m m m m n n n n m m m m m m m n n n n n n m m n n n n n z n n n M b 4 e f :.w.t.t.i.i.f.f.d.d.d.d.d.d.d.d.d.d.d.d.d.d.f.a.f.d.a._.@X@X#X&X&X#X#X#X#X#X#X#X#X#X#X#X#X#X#X#X#X#X#X#X#X#X#X#X#X#X#X#X#X#X#X#X#X#X#X#X#X#X].].].#X#X#X#X#X#X#X#X#X#X#X#X#X#X#X#X#X#X#X#X].].].#X#X#X#X#X#X#X#X#X#X#X#X].oX#X#X#X#X#X#X#X#X.X#X#X#X#X#X#X].#X#X#X#X#X#X#X#X$X&X#X#X#X.X].).w.8.z.d.j.d.j.d.k.j.d.d.d.d.d.d.d.d.d.d.d.d.d.d.d.d.d.d.d.d.d.d.d.d.d.d.d.d.d.d.d.d.d.d.a.d.d.d.d.d.d.d.d.d.d.d.d.d.f.a.a.d.d.d.d.d.d.d.d.d.d.d.d.d.d.d.d.d.d.d.a.d.d.d.d.d.d.d.d.d.d.e.q.t * & O O O O O O o O : O o O O o O O O O o o o O O o X o o X o O o X O O O O O o O O O O O O O O O O o o o o o o O O O O o o O O O O O O & O O & : & O O & = & O & O g $X#X#X#X#X#X#X#X].].].#X].].#X#X#X#X#X#X#X.X#X#X.X.X#X#X#X].#X#X#X#X#X#X#X#X#X#X#X#X|.#X#X]..X#X#X#X#X#X#X#X#X.X+X+X+X+X#X+XXX).h.-.0.g.a.d.d.d.f.a.a.a.a.a.a.a.a.a.p.p.a.a.a.p.p.p.p.p.p.p.p.p.p.p.p.p.p.p.p.p.p.p.p.a.p.p.a.a.a.p.s.a.a.s.a.p.p.a.p.a.a.a.s.s.a.a.a.a.d.d.a.a.d.a.a.d.a.a.a.d.a.a.a.d.d.a.a.d.j.d.d.d.d.d.d.d.d.a.a.a.a.a.a.d.d.d.d.a.a.d.d.d.a.a.a.a.a.d.a.d.d.d.",
"h h k c k c c k k c c k c c k k n n n n n c k h k c c k k k k c k k k c c k k k k c n n c h h h k c c c c c c c c c k k c c c k c c k k c c c c n c c c k k k k n n n n n n c k c k c c n k c k c c k k k k c c c k h k c n n n n n n k c k c c k h k c n M n c k k c c c k n c c c c n n n n n n n n n n n z z n n n n n n n n n n c c n n n n n n n n n n n n n n n n n n n n n n n n n n n n n n n n c n z z n z n n n n n n n n n n n n n n m n n n n n n n n n n n n n n z n n z n n n n n n n n n n n n n n n n n n n n n n n n n n n n n n n n n n n n n n n n n n m n n n n n n m m M v 2.}.{.{.oXoX].].].]..X+X#X.X].].[.[.].].].].].].].].].].].].].].]..X]..X#X#X.X.X].].].].].].].].'.].+X#X.X#X].+X#X+X].]..X.X+X#X.X.X].#X#X].oXoX#X#XoX{.oXoXoX#X#X#X#XoX].oXoX].]..X].].].].#XoX].].#X].#X#X#X#X#X#X#X#X#X].'.'.m.b M m m n n n m m n n m m m m n m m m m m m n n m n m m m N m m n n n n n n n n m n n n n n n M M b I >.C.t.t.r.r.i.f.d.d.d.d.d.d.d.d.d.d.d.d.d.d.d.d.d.d.d.d.d.a.g._.@X+X#X&X#X#X#X#X#X#X#X#X#X#X#X#X&X#X#X#X#X#X#X#X#X#X#X#X#X#X#X#X#X#X.X#X#X#X#X#X#X#X#X#X#X#X#X#X#X#X#X#X#X#X#X#X#X#X#X#X#X#X#X#X#X#X#X#X#X#X#X+X.X#X#X#X#X#X#X#X#X$X&X#X&X&X#X#X#X#X#X#X#X#X#X#X#X#X#X#X#X#X#X$X#X#X#X#X#X#XoX].[.B.;.h.z.d.d.d.d.d.d.d.d.d.d.d.d.d.d.d.d.d.a.a.d.d.d.d.d.d.d.d.d.d.d.d.a.p.f.a.d.d.d.d.d.d.d.a.d.d.d.d.d.d.d.d.d.d.d.d.f.d.d.d.d.d.d.d.d.d.d.d.d.d.d.d.a.a.a.a.d.d.d.d.d.d.a.d.d.f.d.d.i.r.u * & O O O o O O o O O O o O O o X X X X X o o o o o X X o o O X X X X o O O O o o o o o O o O O O X o o o o o X o o O O O O o o O O O O O O O & : = : O O O & = : = : V.$XoX#X#X#X+X.X.X].].].].+X#X#X#X#X#X#X#X.X#X#X#X.X.X].#X#X#X#X#X#X#X#X#X#X#X#X#X#X].#X#X#X#X#X#X#X#X#X#X#X#X#X+X+X+X+X@X@XXX_.T.i.i.a.d.d.d.d.d.d.d.d.a.a.a.a.a.a.a.p.p.p.p.p.p.p.p.p.p.p.p.p.p.p.a.a.a.p.p.p.p.p.p.p.p.a.a.a.a.a.p.p.p.a.a.a.a.a.s.a.d.d.a.a.a.d.d.d.d.a.a.a.a.d.a.a.a.a.a.a.d.d.d.d.a.d.a.d.a.a.d.d.f.a.a.a.a.a.i.a.f.d.d.d.d.d.d.d.d.d.d.d.d.d.d.a.d.d.d.d.d.d.",
"h h h k h h k k k k h k k k c k c k k c n n c h h k k k k k k k c n c c k c c k k n n n n n c k k k k k c c k c c c k c c c c c c k c c c c n n c k k c c c k z k z n z z k c c k k k k k k n c c c k c n z n c c c c c c k n n n z n n c k k c c k k k k k c c n n n n c k n k k k n n n n n k z n n n n n n n n n n n n z z z n n n c c k n n n z n n n n n n n n n n z z z n n n n n n n h c n n n n n n n n n n n n n n n n h h z n m m n n M n n n n n n n n n n n n n n n n n z n n n z n n n n n n n n n n n n n n n n n n n n n n m n n n n n n n n n n z n n n n n n n z n m m m N M v K.}.{.{.oXoX]..X].oX]..X.X#X#X.X].[.[.].].].]..X]..X#X].].].].].].].].].]..X]..X].].].].].]..X.X].].].#X#X#X.X.X+X+X.X.X]..X#X#X#X#X.X]..X.X#X#XoX{.{.OX}.}.{.{.{.{.oX#X].].].oX.X].].].].].].{.].].].].].#X#X#X#X#X#X#X#X].'.K.R b M m m m m m n n n n m m m m m m n n m m m n n n n m m m m n m m n n n n n n n n n n n n n n M v 4 m.B.t.i.i.f.a.d.d.a.a.d.d.d.d.d.d.a.d.d.d.d.d.d.j.d.d.d.d.d.d.i._.@X@X#X#X#X#X#X#X#X#X#X#X#X#X#X#X#X&X#X#X#X#X#X#X#X#X#X#X#X#X#X#X#X#X#X#X#X#X.X#X#X#X#X#X#X|.#X#X#X#X#X#X#X#X#X#X#X#X#X#X#X#X#X#X#X#X#X#X#X#X#X#X#X#X#X#X#X#X#X#X#X#X#X&X&X#X#X#X#X#X#X#X#X#X#X#X#X#X#X#X#X#X#X#X#X#X#X#X#X#X#X].[.).w.8.z.d.d.d.d.d.a.d.d.d.d.d.d.d.d.d.d.d.d.d.d.d.d.d.d.d.d.d.d.d.d.d.a.a.a.a.d.d.d.d.d.d.d.d.a.d.d.d.d.d.d.d.d.d.d.d.d.d.d.d.d.d.d.d.d.d.d.d.a.d.d.f.a.d.d.d.d.f.a.d.d.d.d.d.d.d.d.d.a.e.8.t ; O o o o o o o o O o o o o o X O O O X o O o o X o o X o X X o o o o O O o o o o o o X o o X o O O o X X X o o O O : & O O O O = = O = O & O O & & : & = & : : : o f $X#X#X#X#X.X#X.X].].#X].#X.X]..X].]..X#X#X.X#X#X#X].].].#X].].#X#X#X]..X#X#X+X].].].].#X#X#X#X+X#X#X#X#X#X#X#X#X@X@X@X@X_._.g.i.i.a.d.d.a.a.d.d.d.d.a.a.a.a.a.a.p.p.p.p.p.p.p.p.p.p.p.p.p.p.p.p.p.p.a.a.a.a.p.a.a.a.a.a.a.a.a.p.a.a.s.p.s.p.p.a.a.a.a.s.a.a.a.a.a.a.d.a.a.a.d.a.d.d.d.a.a.a.a.a.d.d.f.a.a.a.a.a.d.a.a.a.d.d.a.f.d.d.d.d.d.d.d.a.a.a.a.d.d.a.d.d.d.d.d.d.d.d.d.d.d.",
"l l l k h h h k c c h h h k c k h c k c c c c k k k h c c k k k h c n n c c k c k k k n c n c k k h h h k c k c k k k k c c k k k c n n c k c n n k k k c k k n n z k z n n k k k k k k c n n n z n n z c c c c c n n c h c c k k n n n n n c c k c c k k k k k n n n z n n z n n z n n n n c h h h c n n n n n n n n n n n n n z z n z k z n n n n n n z n n n n n n n n n n n n n n n n n n n n n n n n n n n z n n n n n n c k k z n n n n n n n n n z n n n n n n n n n n n n n n n n n n n n n n n n n n n n n n n n n n n n n n n n n n n n n n n n n n n n n n n n n n n m n n n m M v U }.{.{.{.].].].].].].].].+X.X]..X.X.X].]..X].[.].].].].].#X].#X].].]..X#X].].]..X].].].].[.].#X#X#X#X.X.X].#X#X#X.X#X.X].].#X+X#X.X.X#X#X.XoXoXoX].}.D.m.K.}.}.OXOX}.{.oXoXoXoXoXoX{.].{.{.{.{.{.]..XoX.X].].#X#XoX#XoX].].{.}.L.K c M n n M m n n n m n m m m n m m n n m N m m m m m m m m m n m m n m m n n n n n n n n n n n n v 4 >.h.g.d.d.d.d.d.d.d.d.d.d.d.a.d.d.d.d.d.d.d.d.d.j.d.d.d.a.a.f.i.z.@X@X#X#X&X#X#X#X#X#X#X#X#X#X#X#X#X#X#X#X#X#X#X#X#X#X#X#X#X#X#X#X#X#X#X#X#X#X#X#X#X#X#X#X#X#X].#X#X#X#X#X#X#X#X#X#X#X#X#X#X#X#X#X#X#X#X#X#X#X#X#X#X#X#X#X#X#X#X#X#X#X#X#X#X#X#X#X|.].#X#X#X].#X#X#X#X#X#X#X#X#X#X#X#X#X#X#X#X#X#X].`.B.;.t.l.d.d.d.d.d.d.d.d.d.d.d.d.d.d.d.d.d.d.d.d.d.d.d.d.d.d.d.d.a.d.a.d.d.d.d.d.d.d.d.d.d.d.a.d.d.d.d.d.d.d.d.d.d.d.d.d.d.a.a.d.d.d.d.d.d.d.d.d.d.d.d.d.d.d.d.d.d.d.d.d.d.d.f.f.d.d.d.i.q.i ; & o o o X o o o o o O o o o O O O o o O o o o O o X X o X o o o o o O O O O o O o O X o o o o O o o O o o o o O O & O O O O o & = O O O O O O O O & O O O O & O O : `.#X].#X#X#X].].].].].#X#X#X|.].]..X].#X#X#X.X].#X#X#X#X#X#X+X.X#X#X#X#X#X#X#X#X#X#X#X#X#X#X+X+X+X#X#X#X#X#X@X@X@X@X_.z.g.i.i.a.a.a.d.d.d.d.a.a.d.d.a.a.d.a.a.a.a.p.a.p.p.p.p.p.a.p.p.p.p.p.p.p.p.p.p.p.p.a.a.p.p.a.a.p.p.a.a.p.p.s.p.p.s.a.p.p.a.a.s.s.s.a.a.p.p.a.a.a.a.a.a.a.a.a.a.a.a.a.d.a.a.a.d.d.d.d.a.f.a.d.a.a.d.a.a.a.d.d.d.a.d.a.d.a.a.a.d.a.d.d.d.d.d.d.d.d.j.j.d.d.d.",
"k k h k k k k h h c c c k k k k k k k k k k k k c c k c c c c k k h h n n c k c c k k k k k c c k h h h h k k k k k c n c k k n n k k k k k c c c k k k k k k k n n n n n n n k h k k k c n n n n k n n k c n n k c c c k h k k c n n n c n c k k h c c n c k k k k k k k n n n M n n n n n n n k k k n n n n n n n n n n n n n n n n n n n n n n n z z z n n n n n n n n n k n n n n n n n n n n n n n n n n n n n n n z n n k c c n n n n n n n n n n z n n n n n z n n n n n n n n n z n n n n n n n z z n n n n z z n n n n n n n n z n n n n n n n n z n n n n n n n n n n m m n n m M v 2.OXOXoXoXoX].].].].{.oX{.]..XoX]..X#X#X].].].].].].].].].].].#X+X].].].#X#X.X].]..X.X].].[.].].].+X#X].].].]..X.X.X+X#X#X]..X].#X#X#X].]..XoXoX#X{.}.T b U U W L.K.}.OXOX{.{.{.{.{.{.{.{.{.{.{.oX].].#X].].].].#X#X].].].].'.(.2.b M n n n n n n n n m n m n m n m N N n m m m m m m m m m m n n z n n n n n n n n n n n n n n n n v 4 f T.g.a.d.a.a.d.d.d.d.d.d.a.d.d.d.a.a.d.d.d.d.d.d.d.d.d.d.d.d.i.i._.@X@X&X&X#X#X#X#X#X&X#X#X#X#X#X#X#X#X#X#X#X#X#X#X#X#X#X#X#X#X#X#X#X#X#X#X$X#X#X#X#X#X#X#X#X#X#X#X#X|.#X#X].#X#X#X#X#X#X#X#X#X#X#X#X#X#X#X#X#X#X#X#X#X#X#X#X#X#X#X#X#X#X#X#X#X#X#X#X#X#X#X#X.X#X#X#X#X#X#X#X#X#X#X#X#X#X#X#X#X#X+X[.R.y.q.l.d.d.d.d.d.d.d.d.d.d.d.d.d.d.d.d.d.d.d.d.d.d.d.d.d.d.d.d.d.d.p.a.d.d.d.d.d.d.d.d.d.a.a.a.d.d.d.d.d.d.a.a.d.d.d.d.d.d.a.d.d.d.d.d.d.d.f.d.d.d.d.a.d.d.d.d.d.d.d.d.d.d.d.d.d.d.d.i.r.i ; ; & O O o o o O O o o o o o o o o X o o O O o o o o X o o X X o o o o O O O O o O O o X o O o o o O O O O O o o O O O O O & O O O O O O O O O o X o O & & : : & : o f #X].].#X].].#X].#X#X#X#X#X#X#X#X#X].#X#X#X#X#X#X#X#X#X#X#X#X#X#X#X#X#XoX{.#X#X#X#X].#X#X#X#X#X#X+X+X@X@X@X@X_._.g.r.r.i.f.d.d.d.a.a.f.d.a.d.a.a.a.d.d.d.a.a.d.a.a.a.a.a.i.i.a.a.a.a.i.a.p.p.p.p.p.p.p.p.p.p.a.a.a.p.p.p.p.p.p.a.s.p.p.p.s.a.a.a.a.p.p.s.a.a.p.p.a.a.d.a.a.a.a.a.d.d.d.a.a.a.f.f.a.a.d.f.a.d.a.d.a.a.a.a.a.a.a.d.d.a.d.j.j.d.d.d.f.a.d.d.d.d.d.d.a.d.d.d.a.d.d.d.",
"k h h k k c c h h h k c c c k c c k h k k c c k k c c k k k k c c c k h k k k c c c c k k c c k k k k k h k k k k c c c c k c n c n h k k k k k k k k h h k k k h h k k n n n c k c c k c n n n n k k k c c n n n n c c c k k k c c k k c k k k k k k k n n n n c k k k k k n n n n n n n k k n n c k n n n n k k k h k c n n n n n n n n n n n n n n c k c n n n n n z n n n n n n n n n n n n n z z n n n z n n n n n n n n k k c n n n n n n n n n n z z n n z n n z n n n n n n n n n n n n n n n n n n n n n n n n n n n n n n n n n n n n n n n n n z n n n n n n n n n n n n n n m M v K.OXOXoXoXoXoXoXoX].].].{.{.].oX#X].].oX{.].].].#X].].#X.XoX].#X#X#X#X.X].]..X.X].#X.X].].].].].].]..X.X.X.X.X#X#X.X#X.X#X#X#X#X#X#X#X#X].].oX#X].}.L.b v M c c v L R L.K.K.}.}.}.}.{.{.'.{.oXoXoX.X].].].].].].].|..X.X.XoX'.K.R v M m n n n n n n n n n n n m n n m n n m m n n m n n n m m m n n n n n n n n n n n n n n c k k k l 4 r B.g.a.d.d.d.a.d.d.f.d.d.d.d.d.d.d.d.d.d.d.d.d.d.j.d.d.d.d.d.d.i.z.@X@X#X#X#X#X#X&X#X#X#X#X#X#X#X#X#X#X#X#X#X#X#X#X#X#X#X#X#X#X#X#X#X#X#X#X#X#X#X#X#X#X].].].].#X#X#X#X#X].].|.#X#X].].].].#X#X#X#X#X#X#X#X#X#X#X#X#X#X#X#X#X#X#X#X#X].].#X#X#X#X#X#X#X#X#X#X|.].#X#X#X#X#X#X#X#X#X#X#X#X#X#X#X].#X].).B.;.g.d.d.d.d.d.d.d.j.j.d.d.d.d.d.d.d.d.d.d.d.d.d.d.d.d.d.d.d.d.d.d.a.d.d.d.d.d.d.d.d.a.d.d.d.d.d.d.d.d.d.d.d.p.p.a.d.d.d.d.d.d.d.d.d.f.f.a.d.d.d.d.d.a.d.d.a.a.d.d.a.d.d.d.a.d.d.f.a.e.8.t * & O o o o o O o o o o o X o o o o o o O o X X o X X o X O & X o o o o o O O O O O O O X o O O O o o O O O O O O O O & & & O O o o O o o O O o O o O O O O : : : O > `.#X].].].].#X#X#X#X].].].].#X#X#X#X]..X#X#X#X#X#X#X#X#X#X#X#X#XoX#X#X#X#X#X+X+X#X#X#X#X#X#X#X-X@X@X@X_._.g.i.r.i.a.a.f.f.d.f.d.a.a.a.a.a.a.d.d.d.a.a.d.d.a.a.a.a.a.a.a.a.a.a.a.a.p.p.a.p.p.p.p.a.a.p.p.p.p.a.a.p.p.p.p.p.p.p.a.a.a.a.a.a.a.a.a.a.a.a.a.a.a.a.a.a.a.a.a.a.a.a.a.a.f.a.a.a.a.a.a.a.a.a.a.i.p.a.a.a.d.a.d.d.d.d.d.d.d.d.d.d.d.d.a.f.d.d.d.a.a.a.a.a.a.a.f.d.d.a.d.",
"l j l h h k k k c k h h k c c k h k k k k k k k k c c k k k k c n c k h h k c c c c c c k k c c c k k h k c k k k k h c c c n n n n c k k k k k k h h k h k c c k h h k c n c n c c c c c k k k k c k k c k k k n n n n c k k c c c c c k k k c c c c c k k c n c c c k k k k z z z n n n n n n z z z z z n n n n k k k k z z n n n k k z z n n n n n n c k k k n n n n n z n n n n z n n z n n n z n n z z z n n n n n n n n n k k n n n n n n n n n n n n n n n z z n n n n n n n n n n n n n n n n n n n n n n n n n k k h n n n n n n n n n n n n n n n n n n n n n n n n n n n n m m n U K.}.}.}.{.{.{.{.oXoX{..X].oX.X]..X+X#X].].{.]..X.X.X.X]..X].].{.#X#X#X#X.X].].].].].].]..X#X#X#X].].].].].#X#X#X#X#X#X#X.X#X.X#X#X#X.X].].].].oX'.}.m.v M n n n n c c c v U ! L.K.}.}.}.}.}.{.{.oXoX{.{.oXoX{.{.{.{.].].].{.'.S.K v M m m n M n n n n n n n n n n n n m m m m m m m n m n m m m m m n n n n n n n n n n n c c k l l j 4 1 :.T.d.d.d.d.d.d.d.d.d.d.d.d.d.d.d.d.d.d.d.a.d.d.d.d.d.d.d.d.d.a.g._.@X#X#X#X&X&X#X#X#X#X&X#X#X#X#X#X#X#X#X#X#X#X#X#X#X#X#X#X#X#X#X#X#X#X#X#X#X#X#X#X]..X#X].#X#X#X#X#X#X#X#X#X#X#X#X].].#X#X#X|.#X#X#X#X#X#X#X#X#X#X#X#X#X#X#X#X#X#X].].#X|.#X#X#X#X#X#X#X#X#X].].#X].|.#X#X#X#X#X#X#X#X#X#X#X+X+X.X[.R.8.q.l.d.d.d.d.d.d.d.d.d.j.d.d.d.d.d.d.d.d.d.d.d.d.d.a.a.a.d.d.d.d.d.d.d.d.d.d.d.a.a.d.d.d.d.d.d.d.d.d.d.d.d.d.d.d.d.d.d.a.d.d.d.d.d.a.d.a.a.d.d.d.d.d.d.d.d.d.a.a.a.a.a.a.s.a.a.d.d.i.q.u * * o O O o o o o O o O o o o o O o O O o o o X X o o X X o O X o o o O o O O O o O O O o o o O O O O O O O O O O O O o o O o O O O o O O O o O O O O O O O O O O & o n.#X].#X#X#X#X#X#X#X#X#X].].].#X.X#X#X#X.X#X#X#X#X#X#X#X#X#X#X#X#X#X#X#X#X#X#X#X#X#X#X#X+X@X@X@X@X_.z.g.e.e.u.i.a.a.a.d.s.d.d.d.d.d.i.i.a.d.d.a.d.d.a.a.d.a.a.a.a.a.a.a.a.a.a.a.a.p.p.p.p.p.p.p.a.a.a.p.a.p.p.a.a.a.a.a.p.p.p.a.a.a.a.a.a.a.a.a.a.a.a.a.p.a.a.a.d.d.a.a.a.a.a.a.a.d.f.f.f.a.i.a.a.a.a.a.a.a.a.a.a.d.d.a.a.a.a.f.a.a.d.d.f.d.a.d.a.a.a.d.a.a.d.f.f.d.d.d.d.d.a.a.",
"l j l h h h h k c k h k k h h h h h h k k h h k k h h h h k k c c c k k h k k h h k k k k k k k k k k h h k k c k h h h k c c n n n c c n c c c h h h k k c c c k k c c k c c c c c c c c k h h k c n n k k k k k z z n n n k k k c c c h k h c n c n n n n k c c c c c k n n n z n z n n n n n n n n n z n n n n n n n n n n n n c k k z n n n n z n n n n k k k n n n n n n n n n z n n z z n n n n n n z n n n n n n n n n n n z n n z z n n n n n n n n n n n n n n n n n n n n n n n n n n z n n n n n n n n n z n n n n n n n n n n n m m m n n n n n n n n n n n n n n n n n n n m M L ! L.K.}.OX}.}.}.{.{.oX#XoX].oX.X.X].].oX].].].].oXoXoX.X.X.X.X{.#X#X#X#X].#X.X.X].].].].]..X#X#X#X.X].].].].+X.X#X#X.X#X#X#X#X].].#X#XoX].].#XoX{.(.R v M n n n m n n n c c c v L W 2.H.(.}.}.}.}.{.{.{.{.oXoXoXoXoX{.]..X{.}.2.b v n m n n n n n n n n n n n n n n n n m N n n n n n m m m m m n n n n n n n n n n n n z k k k j j j 2 1 g T.g.d.k.j.j.j.d.d.d.d.d.d.d.d.d.d.d.d.d.d.d.d.d.d.d.d.d.d.d.a.i.T.@X-X#X#X#X#X#X#X#X#X#X#X#X#X#X#X#X#X#X#X#X#X#X#X#X#X#X#X#X#X#X#X#X#X#X#X#X#X#X#X#X#X#X#X#X#X#X#X#X#X#X#X#X#X#X#X#X#X#X#X#X|.].#X#X#X#X#X#X#X#X#X#X#X#X#X#X#X#X#X#X].#X#X#X#X#X#X#X#X#X#X#X#X#X#X#X].#X#X#X#X#X#X#X#X#X#X#X#X#X+X].).C.;.g.a.a.d.a.d.d.d.d.d.d.d.d.d.d.d.d.d.d.d.d.d.d.d.d.a.d.d.d.d.d.d.d.f.d.d.a.a.d.d.d.a.d.d.d.d.d.d.d.d.d.d.d.d.d.a.d.f.a.d.d.d.d.d.d.d.d.d.d.a.a.d.d.d.d.d.d.d.d.a.a.a.a.d.a.d.d.f.a.e.-.; * * O O O O O O O O O o O o = : O O O O O o X o O o X X X X X X O O O O o O o o o O o O O O O o O O O O O o X o X o X o X o O O O O O O O O O O O o O O O O O O O o 3 ].oX#X].].].].].#X#X#X#X|.].#X.X#X#X#X#X#X#X#X#X+X+X#X+X+X#X#X#X#X#X#X#X#X#X&X&X#X@X@X@X@X_._.g.r.e.i.a.a.a.a.a.a.d.d.d.d.d.d.d.d.d.a.f.d.d.d.a.a.a.a.a.a.a.a.a.d.d.a.a.a.a.a.a.p.p.a.p.p.i.p.p.a.a.a.p.p.p.p.a.a.a.a.a.a.a.a.a.a.a.a.a.p.a.a.a.a.a.a.a.a.a.a.a.a.a.a.a.a.p.p.a.a.f.d.d.f.a.a.a.a.a.a.p.a.a.a.d.d.a.i.d.d.d.a.a.a.a.f.f.d.a.a.d.d.d.d.d.d.d.f.a.a.a.a.a.a.d.d.",
"k h h h h h h h k k k k c c c k k h l l l h h k k h h h k k k c k k c c c c k h h h h h k k c c c c k k k k c k k k k h h h k k k c k k c c c k k h h k c c c k k k k k k c k k k k c c c n c k k c c c c c c n z z z z n n c k c c c c c k k k k c k k z n n n n c n n n n n n z n k z n n n n n n n n n n n n n n n n n n n z n k k z n n n n n n n n n n n k c c k n n n n n n n n z n n n n n n n n n n n n n n n n z z n n n z z n n n n n n n n z z z n n n n n n n n n n n n n n n n n n n n n n n n n n n n n n c n n n n n n n z n n n n n n n n n n m m n m n n n n m n n n n n n k c v U W Z.K.K.}.}.}.{.{.{.oXoXoXoXoXoXoX#XoX].]..X.X.X+X.X#X#X].].#X#X#X.X]..X.X]..X#X#X.X].]..X.X]..X].].].#X.X.X#X#X#X#X#X#X#X.X.X#X#X#X{.].{.}.K.K n M n n m m m n n n n M n n k c v U W L.K.(.}.OX}.}.{.{.oX#XoX#X#XoX'.K.R b M n m n n n n n n n n n n n n n n n n n n n n n n n n n n m n n n n n n n n n n n n n n k k l j j 2 2 1 r B.g.d.d.d.j.j.d.d.d.d.j.d.j.j.d.d.d.d.d.d.d.d.d.d.d.d.d.d.d.d.a.g._.@X#X#X#X#X&X#X#X#X#X#X#X#X#X#X#X#X#X#X#X#X#X#X#X#X#X#X#X#X#X#X].].#X|.#X#X#X#X#X#X#X#X].#X#X#X#X#X#X#X#X#X#X#X#X#X#X#X#X#X|.#X#X#X#X#X#X#X#X#X#X#X].]..X#X#X#X#X#X#X#X#X#X#X#X#X#X#X#X#X].#X#X#X].].#X#X#X#X#X#X#X#X#X#X#X#X#X].`.B.;.r.l.d.d.d.d.d.d.j.d.d.d.d.d.d.f.d.d.d.d.d.d.d.d.d.d.d.d.d.d.d.d.d.d.d.d.d.d.d.d.d.d.a.d.d.d.d.d.d.d.a.d.d.d.d.d.d.d.d.d.d.d.d.d.d.d.d.d.d.d.d.d.d.d.d.d.d.d.d.d.d.d.d.d.d.d.d.d.a.i.q.u * = : = & O O O O O O O O & = & & O O O O O X X o o X o O o o X o O o O o O O O o O O O o O O o o o O o o o o o o O o o O O & O O O O O O O o O O o o O O O O O & O O V.#X].]..X#X|.].].#X#X#X.X].#X#X.X.X#X#X#X#X#X+X.X+X#X#X#X#X#X#X#X&X&X#X#X#X-X@X@X@X_._.g.r.e.i.a.d.f.a.a.i.d.a.a.d.a.d.d.d.d.d.d.d.d.d.d.d.d.a.a.a.a.p.a.a.a.a.a.d.a.a.a.a.a.a.p.p.a.a.a.a.a.a.a.a.a.a.p.p.p.a.a.a.a.p.a.a.a.a.a.a.a.a.a.a.a.a.a.a.a.a.a.a.d.a.a.a.a.a.d.a.a.p.p.a.d.d.d.a.a.a.a.a.a.a.a.a.a.a.a.d.d.d.d.d.d.a.d.d.d.d.d.d.d.d.d.d.d.d.d.d.a.a.i.a.d.a.d.d.d.",
"k k k k k k h l l k c c c c c c c h h l l h h k k h h h k c k k k k k c c c k k k k c c k k k k k n c k k k c k k k k c c k h k k k k h h k k k k k k h c c k c c k k k c k k k h h c c c n n k c k n n n c c n n n n n n k k k c c n n c c c k k c n k k k k k n n n n n c k n n n z n n z z n n M n n n n k z n n n n n n n z n k k n n n n n n n n n n n z k c k k n n z n n n n z z n n n n n n n n z z n n n n n n z z n n n z z n n n n n n n n n k n n z n n n n n n n n n n n n n n n n n n n n n n n n n n n n h k n n n n n n n n n n n n n n n n n n n n n n n n n n n n m n n n n n n k c v v U ! L.K.(.}.}.}.}.{.{.{.oXoX#X#X#X#XoX#X]..X]..X#X#X#X#X#X#X#X].].].].#X#X#X.X].]..X.X].].].[.[.#X].]..X.X#X]..X#X#X#X#X#X#X#X#X#X].'.,.v M m m n m n m m m n n M m m M M n k c v U U W H.(.}.OX}.{.{.{.#X#X{.}.L.K v n n n n n n n n n n m m m m n m n n n m m n n n n n n m m m n n n n n n n n n n n n n n k k l l j 2 2 2 - :.T.f.d.d.s.d.d.d.d.d.d.d.d.d.d.d.d.d.d.d.d.d.d.j.d.d.d.d.d.d.d.i._.@X-X#X#X#X#X#X#X#X#X.X#X#X#X#X#X#X#X#X#X#X#X#X#X#X#X#X#X#X#X|.#X#X].].].#X#X].#X#X#X#X#X#X#X#X#X#X#X#X#X#X#X#X].].#X#X#X#X#X#X#X#X#X#X#X#X#X#X#X].].]..X.X#X#X#X#X#X#X#X#X#X#X#X#X#X#X#X#X#X#X#X#X#X#X#X#X#X#X#X#X#X].].+X.X+X].[.R.y.8.g.a.d.d.d.d.d.d.d.d.d.d.d.d.d.d.d.d.d.d.d.d.d.d.d.d.d.a.a.d.d.d.d.f.d.d.d.d.d.a.d.d.d.a.a.f.d.d.d.d.d.d.a.d.d.d.d.d.d.d.d.d.d.d.d.d.d.d.d.d.d.d.d.d.d.d.d.d.d.d.d.d.d.d.d.d.d.d.f.r.-.w ; : & O O O O O O O O O O O O O O O O O O X o X X X o o o o o o o O O O O O o o O O O O o o o o o o o o o o o O O O O O O O O O & = & O O o o o O O O O O O O o O o a oX].{.#X#X#X].].].#X#X].].+X.X.X#X.X].#X#X].]..X#X#X#X#X#X#X#X#X#X&X#X-X@X@X@X_.T.g.i.i.a.a.a.f.a.a.a.p.a.d.a.a.a.d.d.a.a.a.a.d.a.a.a.a.a.d.d.a.d.a.p.p.a.a.a.d.a.a.a.a.a.a.a.a.p.p.a.a.a.a.a.a.a.a.a.p.p.p.p.p.p.a.a.a.a.a.a.a.a.a.a.a.a.a.a.a.a.a.d.d.a.a.a.a.a.a.d.a.d.a.a.a.a.d.d.d.j.d.d.a.a.a.f.f.d.d.a.d.d.a.a.d.d.a.a.a.a.a.a.a.a.a.a.a.a.d.d.d.d.a.d.a.d.d.d.d.d.a.",
"h k c k c c k h h k h h k h h k c k h l h h h h k h h k c c k h k k k h k c k k k c c c c k c c k k c n c k k k c c k k c c c k k k k h h h k k k k h h h h h k n c k k c c k c h h c c c n n n n c c n n c n n n n n n n k h c c c h k n k k c c c k n z k k k k c c n c k k h k n n n n n z n n n n M n k n n z z n n n n n z z k n n n n n n n n M M n n n n n n n n n n n z z n z k z n n z k k n n z n n n n n n n z n n n n n z z n z k k k z n n n z n n n n n n n n n n n n n n n n n n n n n n n n n n n n n n n n n n n n n n n n n n n n n n m n n n n n n n n n n n n m m n n n n n n n n z k k c v L W Z.L.K.}.}.}.OX{.oX#X{.oX#XoX#X#X].].].].#XoX.X+X#X#X#XoX].].#X.X].].].].].].].].].[.[.].]..X#X.X].].].].#X#X#X#X#X#XoXoX'.K.U c M m n m n n m m m m m m m m m m n n M n n c c v U W L.K.}.}.}.}.}.}.}.W b M n n n n m m m m m m n m m n n m m m m m m m m n n m n n m m m n n n n n n n n n n z n c k k l j < < < 2 1 a T.g.d.d.d.d.d.d.d.d.d.j.d.d.d.d.d.d.d.d.d.d.d.d.d.d.d.d.d.d.d.a.g.@X@X#X#X#X#X#X#X#X#X#X.X.X#X#X].].#X#X#X#X#X#X#X#X#X|.#X#X#X#X#X#X#X#X|.#X#X].].#X#X#X#X#X#X#X#X#X#X#X#X].].#X]..X#X#X#X#X#X#X#X#X#X#X#X#X#X].].].]..X.X].#X.X#X#X#X].#X#X#X#X#X#X#X#X#X#X#X#X#X#X.X#X#X#X#X#X#X.X].]..X#X#X#X.X].).B.;.t.l.d.d.d.d.d.d.d.d.d.d.d.d.d.a.d.d.d.d.d.d.d.d.d.d.d.d.d.a.d.d.d.d.d.d.d.a.d.d.a.a.d.d.d.d.d.d.d.d.d.d.d.a.a.a.d.d.d.d.d.d.d.l.j.d.d.d.a.d.a.a.f.a.f.d.d.d.d.d.d.f.a.d.d.d.d.a.d.i.q.t ; ; O O O O o o O o o o o X o o o o o o o X o o X o o o O o o O O O O O O O O O o o O O O O o O O O O O o O O o o O O O O O O O O & O O O o O o o O O & O O o O o O O V.#X].#X#X#X#X#X#X].].].].#X#X#X#X#X#X.X.X#X#X.X#X#X#X#X#X#X#X@X@X@X@X@X_._.g.i.i.i.a.a.f.a.a.d.d.f.f.f.a.a.a.a.a.a.a.a.a.a.a.a.a.a.a.f.d.a.a.a.a.a.a.a.a.a.a.a.d.a.a.a.a.a.a.p.p.a.a.a.a.a.a.a.a.a.a.a.a.p.p.p.p.p.a.a.p.p.a.a.a.a.d.a.a.a.a.a.a.a.a.a.a.a.a.a.a.a.a.d.d.d.a.a.a.d.d.a.d.d.d.a.a.d.a.a.d.d.f.a.a.a.d.d.a.a.p.a.f.a.a.f.a.a.a.a.d.d.d.f.f.a.a.i.a.a.d.a.a.d.",
"h k c k k k k k k h h h k k h h h k k c c k h h h h h k c k k k h k k h h h h k c k c c c c h h h h k c k k k k c c k k h k k k k k k k c c c k k k k h h h h k k k k k c k k k h h k k k c n n n n n c c k c n n z n n n k k c c c c c c k k c c n z n n n z z k k k k c c c k k k k k c n n n z z z n n n n k z n n n n n n z z z n n n n z n n n n n n n n n n n n n n n n n n n n z z n n z k k k k n n n n n n n n n n n n n n n z z z k k k k k k z z z n n n M n n n n n n n n n n n n n n n n n n n n n n n n z n n n n n n n n n n n n n n n n n n n m n n n n n n n n n n n n n n n n n z n M M n n k k c v v U W L.K.}.}.OX}.}.{.{.{.oX#XoX{.].].{.oXoX+X.X.XoX#X#XoX.X].].].].].].].].].].].[.].].]..XoX].].].].]..XoX].+X#XoX{.}.S.b M n m m n n n n n m m m n m m m m n n n n m n M M c c v U R L.K.(.}.}.K.U c N n n n n m m m m m m m m m n n n m m m m m m m m m n m m m m m n n n n n n n n n n k k k k k j j < < < < 1 - w.z.f.d.d.d.d.d.d.d.d.d.d.l.d.d.d.d.d.d.d.d.d.d.d.d.d.d.d.d.d.d.i._.@X@X#X#X#X#X#X#X#X#X.X.X.X#X#X#X#X#X#X#X#X#X#X#X#X#X#X#X#X#X#X].#X#X].].#X#X#X#X#X#X#X#X#X#X#X#X#X#X#X].].#X#X#X#X#X#X#X#X#X#X#X#X#X#X#X].].#X#X#X.X#X#X#X#X#X#X#X#X#X#X#X#X#X#X#X#X#X#X#X#X#X#X.X.X].#X#X].]..X.X#X#X#X#X#X#X].[.R.y.8.g.d.j.d.d.d.d.d.a.d.d.d.d.d.a.a.d.d.d.d.a.d.d.d.d.d.d.d.d.d.d.d.d.d.d.d.d.d.d.d.d.d.d.d.d.d.d.d.d.d.d.d.d.d.d.d.d.d.d.d.d.d.j.d.d.d.d.a.p.a.a.a.a.a.d.d.d.d.d.d.d.a.d.d.d.d.d.a.f.r.=.* * & o O o o o o o o o o X X X X o o o o O o o X o o o O o O O o o o o O o O O O O O o o O O O O o O & O O O O O o O O O O O O O O O O O o O O O O O O O O O O o O o g #X].#X#X#X#X#X#X#X.X].].]..X+X#X#X+X+X].].+X.X#X#X#X#X#X-X@X@X@X@X_.g.g.i.a.d.d.d.d.d.f.d.d.d.d.d.a.a.a.p.p.p.p.p.p.a.d.d.a.d.d.d.d.d.f.a.a.a.a.d.f.a.a.a.a.a.d.a.a.a.a.a.a.p.p.p.a.a.a.a.a.p.p.p.a.a.p.p.p.p.p.p.p.p.a.p.p.p.a.a.a.a.a.d.a.a.a.a.a.d.f.a.d.d.a.a.a.a.a.d.a.d.a.a.a.a.a.a.a.a.a.a.i.a.a.a.a.d.d.d.d.d.a.d.a.a.a.f.a.d.a.a.a.d.d.d.d.a.a.a.a.a.a.a.d.d.d.d.",
"k k k k k h h c k k k k k c c k h h h c k k k k k k h h h h h k h c c c k h h k c k c c h c h c h h h k k k c c c n n k k k k c c c c h h c c k k k k h k h k k h k c k k k h k c h h c k k c n n n n c k k c n n z n z z k c c c c k c n n n n n n k n n n n M n k h k n n n n k k k h k k n n z n z k k n c k n n z n n n z n n n n n z n n n n z z n c n n n z z n n n n n z n n n n n n n n n n k k n n n n n n n n n n n n M n n n z n n c n n n z n z n n n n n n n n z z n n n n n n n n z z n n n n n n n n n k n n n n n n n n n n n n n n n n n m n n n n n n n n n n n n n n n n n n n n n n n n n n n n M n n M v U W L.K.}.}.OX}.{.{.{.{.{.{.oXoX{.]..X#X#XoXoXoXoX#X#X#X].]..X.X#X]..X].#X#X#XoX].].].].].].].].#X#X.X]..X{.{.(.2.b M n m A m n n n n n n n n m N m N n n n n m n n n n n n M c v L U W L.! v n n m m n n m m m m n m m n m m n n n m m m n n n n m m m m m n n n n n n n n n n n c k k k l l j j < < < < 2 - g T.g.d.d.d.d.d.d.d.d.d.d.j.d.d.d.d.d.d.d.d.d.d.d.d.d.d.d.d.d.d.i.z.@X@X#X#X#X#X#X#X.X#X#X#X#X#X#X#X#X#X#X#X#X#X#X#X].].#X#X#X#X#X#X].].#X#X#X#X#X#X].#X#X#X#X#X#X#X#X#X#X#X#X#X#X#X#X#X].#X#X#X#X#X#X#X.X#X#X#X#X#X#X#X#X#X#X#X+X#X#X#X#X#X#X#X#X#X#X#X#X#X#X].].#X#X.X.X#X#X#X#X#X#X#X#X#X#X#X#X].].).B.;.g.d.d.j.d.d.d.d.d.d.d.d.d.d.d.d.d.a.f.d.d.d.d.d.d.d.d.d.d.a.p.d.d.d.d.d.d.d.d.p.a.d.d.d.d.d.d.d.d.a.p.a.d.d.d.d.d.d.d.d.d.d.d.d.d.d.d.a.d.d.a.a.a.a.d.d.a.a.d.d.d.d.d.d.d.j.d.d.f.r.8.w * & O o o o o o O O o o o X X o o o O O o O o o o O O O o X o o o O o O o o o O O O O O O O O O O O = = O o O O o O & O O O O o o O o O O O O & O O O O O O o O O O = `.#X].#X{.#X#X].#X#X].].#X#X+X.X.X].+X#X#X#X].].#X#X+X-X@X@X_.T.g.r.e.f.d.d.d.a.d.d.a.d.d.d.a.d.a.a.p.a.a.p.p.p.p.a.f.d.d.d.d.d.d.d.d.d.i.a.f.a.a.d.f.d.d.a.a.a.a.d.a.d.d.a.a.p.p.p.p.p.p.a.p.p.p.a.a.a.a.p.p.a.a.a.a.a.a.p.a.a.a.a.a.a.a.a.a.d.a.a.a.a.p.d.a.a.d.a.a.d.a.a.a.d.d.a.a.a.a.a.a.a.a.d.a.a.a.a.d.a.i.a.d.d.a.d.a.i.a.d.f.a.d.d.a.d.a.a.d.a.a.a.d.a.d.d.a.d.d.",
"k k k h k h h k c c c k k c c n c k k k k k k h h k k c k k h h c c c c c h h h h h c c c k h k k k k c c k c c c c n c k c k k k k k k k k k h k c c c k c k k h k c c k c c c c c c k k k c c c c c k k k n n c n n z k k k n n k k k n n n n n c k n n n n n n n k n n n n n n n n k c c c k k c c c c k k c c c k k k n n n n k k k k k k n n z k k k k c c k k n n n M n n n n n z n n n n n n n n n n n n n n z n n n n n M n n n n n z n n z n n n n n n n n z z z n n n n n n n n n n n n n n n n n n n n n n z z n n n n n n n n n n n n n n n n n n n z n n n n n n n n n n n n n n n n n n n n n n n n n m m m n n n c v v U W L.K.}.}.}.}.{.{.{.oXoX#X{.oX#XoX{.].'.].].+XoXoX.X#X#X.X.X]..X+X.XoX#X{.#X#X#X#XoX].].{.+X#XoX].'.K.U c M N m m m m m n n n n n n n m n n n n n n n n n m n n m m n n n k k k k n M n n m m n n n n n n n n n n n n n n m n n m m n n n n m m m n n n n n n n n n n n c c k l k j j < < < < < 2 1 > B.g.d.d.d.d.d.d.d.d.d.d.d.d.d.d.d.s.d.d.d.a.d.d.d.d.d.d.d.d.d.a.i._.@X+X#X#X#X#X#X#X#X#X#X#X.X#X#X].#X#X#X#X#X].].].|.#X#X#X#X#X#X#X+X+X#X#X#X].#X#X#X#X#X#X].+X#X#X#X#X#X#X#X#X#X.X#X.X#X#X#X#X#X#X#X#X#X#X#X#X#X#X#X#X#X#X#X].#X#X#X#X#X#X#X#X#X#X#X#X#X#X#X#X#X#X.X#X#X#X#X#X#X#X#X#X#X#X#X#X#X].[.R.y.q.z.a.d.d.d.j.j.d.d.d.d.d.d.d.d.d.d.d.d.j.d.d.d.d.d.d.i.a.a.a.d.d.d.d.d.d.d.d.d.d.a.d.a.a.d.d.d.d.d.p.d.d.a.d.a.d.d.d.f.d.d.d.d.d.d.d.d.d.d.d.d.d.d.a.d.d.d.d.d.d.d.d.d.d.d.d.d.d.i.q.u * & O o o O O O o o o o O o X O O O O O o o o O O o O O O O o O O O O X o o o & O O : = O O o O O & O O O O O O O O O O o o o O O o o O O o o o O O O O = O O O = = O f #X].oX#X#X#X#X].].].].#X].].].].#X#X#X#X#X+X#X#X#X+XXXT.t.r.i.a.a.d.d.f.d.d.d.d.d.d.d.d.a.a.a.a.d.d.d.a.d.d.d.d.a.a.a.d.d.d.d.d.d.a.a.d.d.a.p.a.a.a.a.a.a.a.a.a.a.a.p.a.a.a.a.p.p.a.a.a.a.a.a.a.a.a.p.p.p.a.a.a.d.a.a.a.a.a.a.d.a.a.a.a.a.a.a.a.a.a.a.d.d.f.a.a.p.a.a.d.d.d.a.a.a.a.p.a.a.a.a.a.a.a.d.d.i.a.a.a.a.a.d.d.j.d.a.a.a.f.a.d.d.d.d.d.l.l.d.a.a.d.a.d.a.d.a.a.",
"c k k k k h h h k c c k k c n n c k k k c k h k h h h k c c c h h k c h h k h h h h k c c k h h k c c c c k k k c c c k k k k k k k c c c k k k k c c k c c c k k k c c c k k c c c c k h k k k k c c k k c n k c n c n n k n n n n z k z k z n n z k k n n n n n n z k k n n n z z n c c k k k c c c c h k c c n n k k c n k k k k k k k n n n n n n z k k k c c k n n k n n n n n z k k n n n n n n n n n n n n n n n n n n n n n n n n n n n n z n n n n n n n n n n n n n n n n n n n z n n n n n n n z n n n n n z z n n z n n n n n n n n n n n n n n n n m m n n n n n n n n n n n n n n n n z n n n n n n n n n n n m N M n c v v v U R 2.K.(.}.}.}.}.{.{.{.oXoX#X#X].].].'.].oX]..X].oX#X{.#X#X].#X]..X#X.X#X#X#X#X#X.X].].].].{.'.L.b v n m m m n m m m m m n n n m m m n n n n n n n n n m n m m m n n n n k k n n n n m m m n n n n n n n n n n m n n m n n n n n n m m n n n n n n n n n n n n n n c k k k l j j j < < < < , 1 - :.T.a.d.d.d.d.d.d.a.d.d.d.d.a.d.d.d.d.d.d.d.d.d.d.a.d.d.d.d.j.d.i._.@X-X&X&X#X#X#X#X#X#X#X+X].].#X#X#X#X#X#X#X].#X#X#X#X#X#X#X#X#X#X#X#X#X#X].].#X#X#X#X#X#X.X.X#X#X#X#X+X#X.X.X#X#X#X].|.#X#X#X#X#X].|.#X#X#X#X#X#X#X#X#X#X#X].].#X#X#X#X#X#X#X#X#X#X#X#X#X#X#X#X#X#X#X#X].].#X#X#X#X#X#X#X#X#X.X].[.).C.;.g.d.d.d.d.d.d.d.d.d.d.a.d.d.d.d.d.d.d.d.d.d.a.d.d.d.d.d.d.d.a.a.d.d.d.d.a.a.a.d.d.d.d.d.d.d.d.a.d.d.d.d.d.d.d.d.d.f.f.d.a.a.d.f.a.d.a.d.d.d.d.d.a.a.a.d.d.d.d.a.d.d.d.d.d.d.a.d.a.r.-.; & & O O O O o o o o o o X O o O O O O O O O & O O o o O O O O O o O o o O O O o o o O O O O O O O O o O & O O O o o o o o O O O O o o o o X o O O : O O = : & O = O > ].#X#X#X#X#X#X#X].].].].#X#X#X|.#X#X#X#X#X.X].{.#XXXT.y.g.i.a.d.d.d.d.f.f.d.d.d.d.d.d.d.d.d.a.d.a.a.d.d.d.d.a.p.d.d.a.f.d.d.d.d.d.d.d.d.a.f.d.a.a.d.d.d.d.a.p.a.a.p.a.a.a.a.d.a.a.d.d.a.a.a.a.a.a.p.u.p.p.p.a.a.a.d.d.d.d.d.d.d.a.a.a.a.a.a.p.a.f.a.d.d.f.a.a.a.a.a.d.d.d.a.i.p.i.a.a.a.a.a.d.d.d.d.a.a.a.a.d.a.a.d.a.a.a.a.d.a.a.a.a.a.a.d.a.d.j.a.a.f.f.a.a.d.a.a.d.d.",
"k h k c k h h h h h h h h h c c k k k c k h h h k k c c k k h h h h k h h c c k k h h h h k k h k k k k k h h h k k k k c k h k k k k n n n k k c h k k k k c k c k k c k k k k k k k c c k k c c k c c k c n k k c n k k c c n n n n n n n k n n k k n n n n n n n n n k k z z z z n z k n k k k c c k h c k k c k k c c n n k k k k k n n n n n n n n z n n n c c z k k k n n c c k k k n k n n n n n n n n n n n n n n n n n n z n n z n n n n n n n n n n n n n n n n n n n n n n n n n z n n n n n n n z n n n n n z n n n n n n n n n n n n n n z n n m N N m n n n n z n n n n n n m m m N N n n n n m n n m m n n n n m m m n n n n n c v L U W L.K.(.}.}.}.{.{.{.oX].{.{.{.{.].#X#X].{.oX{.].]..X#X.X.X.X#X#X#X#X#X#X#X#X#X].'.'.K.W b M n m m m m n N N n n n n n m m m m n m m n n n n n m m m m m m n n n M n n n n m m n n n n n n n n n n n n m m m N N n n n n n n m m n n n n n n n n n n n n c k h k l l j j < < < < , , , - w g.g.d.j.d.d.d.d.d.d.d.d.d.d.d.d.d.d.d.d.d.j.j.d.d.d.d.d.d.d.d.i.g.@X@X+X#X&X#X#X#X#X#X#X#X#X#X#X#X#X#X#X#X#X].#X#X#X#X#X#X#X#X#X#X#X#X].|.#X#X#X#X#X#X#X#X#X#X#X#X#X#X].#X].].#X#X#X#X#X#X#X#X#X#X#X#X#X#X#X#X#X#X#X].]..X].].].].#X#X#X#X#X#X#X$X#X#X#X#X#X.X].].#X#X+X].+X#X#X#X#X#X#X#X#X#X#X].].`.B.;.q.g.d.d.a.d.d.d.d.d.d.d.d.d.a.d.d.d.d.d.d.a.p.d.d.d.d.d.d.d.d.d.d.a.d.d.d.d.f.d.d.d.d.d.d.d.d.d.d.d.a.a.d.d.d.d.d.f.a.a.d.d.a.f.d.d.a.d.d.d.d.d.d.a.d.d.d.d.d.a.a.p.p.f.d.d.d.a.d.i.8.;.; & O o O O o X X o o o o o O O O O o O o X o o o o O o o o o o o o O o o O o o o O O O O O O O o O O O O O o O & O O O O O O o O o O O O O o o O O : O O O O = O = & C.*X#X#X#X#X#X#X#X].].].#X#X#X].].].#X#X#X#X#X#X.XXXB.;.g.g.d.f.d.d.f.d.d.a.d.a.d.d.d.d.a.a.a.d.d.d.d.d.a.a.a.a.d.d.d.d.d.d.d.d.d.d.d.a.d.a.a.d.a.d.d.a.d.d.a.a.a.a.a.a.f.d.a.a.a.a.f.a.a.a.a.a.a.p.p.p.a.a.a.a.a.a.a.a.a.a.a.a.a.a.a.a.a.a.a.a.a.p.p.a.a.i.a.a.a.a.a.d.a.a.d.d.d.d.a.a.a.a.a.a.a.d.f.i.a.a.a.a.d.a.a.a.a.d.i.a.i.a.a.a.a.a.d.d.p.a.a.a.d.d.a.d.d.a.d.d.",
"l l k c k k h h l l h h h h k h h h k k k k k k k k k k k c k h h k c c k h k k k k k k k k k k k c k k h h h c c k k k k k k k c k k c c c c k k k k c c n n n n k h k h k h k k k c c c k k k c k c c c k h h k c c c k c c n n n n n n n n n n h k n n n n z n n n n n c z n n n n M n z z n k c c c c c n c c c c k c n n n n n n c k k z n z n n n n z n k c n z z z z n n n c c k k n k k z n n n n n n n n n n n n n n n z z n n n z z z n n n n n n n n n n n n n n z n n n n n n n n n n n n n n n n n n n n n n n n n n n n n n n n n n n n n n n n n m m n n n z n n n n n n n n m m m m n n n n n n n n n n n n n n n m n n n n n n n c c v v U ! 2.H.K.}.}.}.}.}.{.{.{.{.#X#XoXoX{.].oX{.].].].].].#XoX#X#XoX#X#X+X#XoXoX].'.D.I v M m m m m m m m N m n n n n m n n n m m m m m n m n m m m m m m m n m m m n n n n m m n n n n m m n m m m n m m m m N n n m n n n m n n n n n n n n n n n n n c k k k l j j < < < < < , , , # = ;.z.f.d.d.d.d.d.d.d.d.d.d.d.a.a.a.d.d.d.d.d.j.d.d.d.d.d.d.d.d.d.t._.@X+X#X#X#X#X#X#X#X#X#X#X#X#X#X#X#X#X#X#X|.#X#X#X#X#X#X#X#X#X#X#X#X|.#X#X#X#X#X].#X#X#X#X#X#X#X#X#X#X#X#X|.{.#X#X#X|.#X#X{.#X.X#X#X#X#X#X#X#X#X#X#X.X#X#X].].].#X#X#X#X#X#X#X#X#X#X#X.X].].].]..X#X#X#X#X.X#X#X#X#X#X#X#X#X#X+X].[.R.w.;.g.d.d.d.d.d.d.d.d.d.d.d.d.d.d.d.d.d.d.d.d.d.d.d.d.d.d.d.d.d.d.d.d.d.d.d.d.d.d.d.d.d.d.d.d.d.d.d.d.a.d.d.d.f.d.d.d.d.a.d.d.d.d.f.a.a.a.d.d.d.d.d.d.a.d.d.a.d.d.a.a.a.a.d.d.d.d.a.f.r.8.w * O o O o o O O o o O O O O O o o o o o o o o o O o O o o O O O O o O o O O O O O O & = O O O o O O O O O O O & O O O O O O o O O O O O O O o O O : : & O O : : : O g #X#X#X#X#X#X#X#X].].#X#X#X#X#X].].].].|.+X#X|..XXX).;.q.g.d.d.d.d.a.a.a.d.a.a.a.a.d.d.d.d.d.d.a.a.a.a.d.d.d.d.d.d.d.d.a.a.f.d.d.d.a.d.a.a.a.d.a.a.d.a.d.d.a.a.p.a.f.a.a.a.a.i.a.i.a.a.a.a.a.a.a.a.a.a.a.a.a.a.p.a.a.p.i.p.u.u.a.a.a.a.a.a.f.a.a.a.p.a.a.a.a.a.d.d.p.d.d.d.d.d.d.a.d.d.a.a.a.a.a.a.f.d.a.a.a.a.d.i.a.a.d.a.a.i.a.a.a.a.a.a.a.d.a.a.a.a.d.d.a.a.d.d.a.d.",
"l l h k k c k h h c c c c h h h h h k k k k k c c c c k k k c c h h h c c h h h k k h h k k k k c k h h h k c h k k k k c c k c c k k k k k k k k k n n k c n n n k k k c c k k k c k k k k k k k c c c c k k h k k k c n n n n k k k k z k c c k k z n n n n n n c k k n n n n M n n M B n z z z k c c k k k c n n c h k k k c n n n n n n n n n n n n n n n n k k z n n n n n n n n n k k k z z n n n n n n n z n n n n n n n z z z n n z n z n n n n z n n n z n n n n n n n n n n n n n n n n n n n n M M n n n n n n n n n n n n n n n n n n n n n n n n n n n n n M n n n n n n n n n n n n m m n n n n n n n n n z n M n n n n n n n n n n n n M M M n v L U ! H.K.}.}.}.}.{.{.{.oXoXoXoXoX#XoXoXoXoX].oX.XoXoX#XoX{.oX].oX{.].'.~.m.b v M m m n n n n n n n n n m N m n n n n m m n n n n n n n n m m m m m m m m m n n m n n n n n m m n m m m m m n n n n m N m n m m m n n n n n n n n n n n z n n c c k k l l j < < < < , , , , , # p g.g.d.d.d.d.d.d.d.d.d.d.d.d.d.a.d.d.d.d.d.d.d.d.d.d.d.d.d.d.g.t.T.@X#X#X#X#X#X#X#X#X#X#X#X#X#X#X#X#X#X#X]..X#X#X#X#X#X#X#X#X#X#X].#X#X#X#X#X#X#X#X].#X#X#X#X#X#X#X#X#XoX].].].#X#X#X#X#X{.].].].#X#X#X#X#X#X#X#X#X#X#X#X#X#X#X.X#X#X#X#X#X#X#X].#X#X#X].].].].#X#X#X#X#X#X#X#X#X#X#X#X#X#X+X#X#X].[.).B.;.r.l.d.d.d.j.d.d.d.d.d.d.d.a.d.d.d.d.d.d.d.d.d.d.d.d.d.d.d.d.a.a.f.f.a.a.d.a.d.a.a.p.a.d.d.d.d.d.a.a.a.d.d.d.d.d.d.d.d.a.d.d.d.d.a.d.d.a.a.d.a.a.a.a.a.d.d.d.d.a.d.d.d.d.d.d.f.d.d.i.8.w * & o O O o O O o O o o O o X X o o o o O O O o O O o o o O o o o o o O O O O O o O O O O O O O O O o O o O O & = O O O O O o o o o o o o O O & O O & & O & = O : : > `.#X#X#X#X].#X#X.X].#X#X#X#X#X#X].].#X]..X].].+X[.).y.=.g.a.d.a.i.a.a.d.d.d.a.a.f.a.a.a.a.a.a.d.a.a.d.d.d.d.d.d.a.d.d.d.d.a.d.d.d.d.d.d.d.f.d.a.a.a.a.a.a.a.a.p.a.a.a.a.a.d.a.a.f.a.a.a.i.a.a.a.a.a.d.a.d.d.d.a.p.a.a.p.p.i.i.p.a.a.a.a.a.a.a.f.f.d.d.i.p.a.a.a.d.d.a.a.a.a.a.a.a.a.a.a.a.a.d.a.d.a.a.a.a.d.d.a.a.a.a.a.a.d.d.f.a.d.a.i.a.a.a.d.d.a.i.a.a.d.a.a.d.a.a.",
"l h k h k c c h l h h h c h j h h h k c k k k c c k k k k h h k k h h h c c k h k k k k k c k k c c k k c c c c k k k c c c c k h l h h k k h k c c c c c c c c n k k n c n c k k k k k c n c k k k c n c c c c k k k k k c k k k k k k n n k k c n n n z z z n c k k z k n n n n z z n n M n n z n n c k c k k n c k h h k k c k n n n n n n n n n n n n n n c k k n n n n z h z n n n n z k z n n n n n n n n n z z n n n n n n n k k k n z n n n n z z n n z n n n n n n n n n n n n n n n n n z n n n n n n n n n n n n n n n n n n n n n n n z n z z n n n n n n n m n n n n n n n n n m n n N N n n M n n n n N n n n n n n n n n n n n n n n n n n m M n M M n M U ! L.L.(.}.}.}.{.{.{.{.].oXoXoXoXoX].].oX#XoXoX{.{.{.oXoXoX].'.J.W l M N m n m n m m n n n n n n N N m m n n n n n n n m n n n n n N m n m m m m m m m m n n m N m m n n m m m m m m n n n m N m m m m m m m n M n n n n n M n z k k c c k k l l l j < < < , , , , , # & y.g.a.d.d.d.d.a.d.a.a.d.d.j.d.j.d.d.d.d.d.d.d.d.a.a.d.a.f.g.g.t.T.XX#X#X#X#X.X].].#X#X{.#X#X|.#X#X#X#X#X#X#X#X#X#X#X#X#X#X#X#X#X#X#X#X#X#X#X#X|.#X].#X#X#X#X#X#X#X#X#XoXoX].#X#X#X#X].|.].].].].].#X.X#X#X#X#X#X#X#X#X#X#X#X#X#X#X#X#X#X].].].]..X.X]..X].#X#X#X#X#X#X#X#X#X#X#X#X#X#X#X.X+X+X|.{.].[.R.y.8.z.d.d.d.d.d.d.d.d.a.d.d.f.d.d.d.d.d.d.d.d.d.d.d.d.d.d.d.d.d.d.d.d.d.d.d.d.d.a.d.d.d.d.d.d.d.d.a.d.d.d.d.d.d.d.d.d.d.d.d.a.d.d.d.a.a.a.d.a.d.d.a.d.a.d.d.d.d.d.a.d.d.d.d.d.d.l.d.u.q.u * * O o o o o O o o X X o o o o O X o o o o O O o O o o o o o o O O O O o O O O O O O O O O O O o O o X X o X o o o O & & O O X O o o O O O O & O O & & O = = = : : O n.$X#X#X#X#X#X#X#X#X#X#X#X#X#X#X#X].].oX#X#X].].].).B.=.r.d.i.a.i.a.a.d.a.a.p.p.a.a.d.d.d.d.d.d.a.d.d.d.d.j.d.d.a.d.d.d.d.d.d.a.d.d.d.d.a.a.a.a.a.a.a.a.a.d.a.u.p.a.a.a.a.a.a.a.a.a.a.a.a.a.a.a.p.a.a.a.a.a.a.a.a.a.a.p.a.i.a.a.a.a.a.a.a.f.a.a.d.d.f.a.p.u.p.p.a.a.p.p.a.d.d.a.a.d.d.a.a.i.i.d.f.a.p.a.a.a.a.a.a.a.a.a.a.d.a.f.d.d.a.a.a.a.a.a.d.d.d.d.d.a.a.a.a.d.d.",
"l l h l k k h h k k h h h h h h h h k k k k k k c c k k k k h k M c k h k c k k k c c c k k c c h c c k c c k c c c k k k k k k h l j h h h k c c c k h k c c k c c c k c c k k c n n n n n n c c c k c c c c c k k c c k k k k k k c c c c k c n n n z n n n n n c c c k k n n n k z n z n M n z n M n n n n n k k c c k c c c c c c n n n n n n n n n z n n k k n n n n n z z z z n n n n z n n n n n n n n n n z z n n n n n c c c k n n n n n n n n n n n n n n k z n n n z n n n n n n n n n n n n z n n n n n n n n n n n n n n n z n n z n n n n n n n n n n n n n n n n n n n n n n n n n m n n n n n n n n n n n n n n n n n n n n n z n n n m m n n n n m n M n M v L U W H.K.}.}.}.OX{.{.{.{.oX#X#X#X#X+X#X#X#X#X].].oX].'.'.J.U b M m m n n n n m n n n n n n n m m N m n m n m m n n n m n n n n n n n n m N m m n n n n m N m n n n n m m m m m m m n m n m m m m m m m n n n n n n n n z k c k k k k l l l j < < < < , , , , # # o y g.g.d.d.j.d.d.d.d.a.d.d.d.d.d.d.d.d.d.j.d.d.d.d.d.a.g.g.t.w.B.).+X#X#X#X#X#X#X|.#X#X|.#X#X#X#X#X#X#X#X#X#X#X#X#X].|.#X].].#X#X#X#X#X#X#X#X#X#X#X].].#X#X#X#X#X#X#X#X].#X#X#X#X#X#X#X].#X#X#X#X#X#X#X#X#X#X#X#X#X#X#X#X#X#X#X#X#X].#X].].].].#X#X#X+X#X.X#X#X#X#X#X#X#X#X#X#X#X#X#X#X|.#X+X].].{.].].).B.;.i.d.d.d.d.d.d.d.a.a.f.a.d.d.d.d.d.d.a.a.d.d.d.d.d.d.d.a.d.d.d.d.a.d.d.d.d.d.d.d.d.d.d.d.d.d.d.a.d.d.d.d.d.d.d.d.d.d.d.d.d.a.a.d.d.a.a.a.d.d.d.a.d.d.d.d.d.d.d.d.f.d.j.l.d.a.i.u.u.0.8.t * O o o o o X X o o o o O o O o o o o o o o o O O o o o o O O O o o O o O O O O O O O O O o o o o O O O o o o o o O O O O o o o o O O O = O O & = : : : : & : : O & > [.#X#X#X#X#X#X#X#X|.].#X#X#X#X#X#X#X#X#X#X#XoX].XXR.;.;.g.a.a.i.i.a.d.f.i.a.d.d.d.d.d.d.d.d.a.a.d.d.d.d.d.d.d.d.d.a.d.d.d.d.a.a.a.a.a.a.a.d.d.f.d.a.a.a.a.d.d.f.d.d.a.d.d.a.a.a.a.a.a.a.p.a.a.p.a.a.a.a.a.a.a.a.a.f.a.i.a.a.d.d.a.d.a.a.a.d.d.d.d.d.f.u.u.a.a.a.d.d.d.a.a.d.d.a.d.d.a.a.a.p.a.f.d.a.a.a.a.a.d.d.d.a.a.a.a.d.f.a.a.f.a.a.d.a.a.a.a.a.a.a.a.d.d.a.d.d.",
"l l l k k h h h c k h h k h k c k h k k k k k k c c k h h h c k c c k c c c k k k k k c k h k c k h h k k k k k k k k k h h h c k k h h h h k h k k k h h k k h c c c c c c k k n n n n n n k c c c h h k c c c k c n c c c c c n c k k k k k k c c c k c c c c c c c c n n n n n n n n z n n n n n z n n n n n c k k k k k k c n c k n n n n k k k z k z n c k k k c n n n n n n z n c n n n n z n n n n n n n n n n n n n n z c n n n k n n n n n n n n n n n n n n n n n n n n n n n n n n n n n n z z n n n z n m n n n n n n n n n n n n n k n n n n n n n n n n n n n n m n n n n n n n n n n n n n n n n n n n n n n n n m m m n n n n n n n n m m m n n n m m m n M n M c M L U W L.K.(.}.OX}.}.{.{.{.{.{.#X#X#X#X#X#X].].].'.~.D.b v n m m n n n M m n n n n n n n n m n m m n m m m m n n n n n n n n n n n n m m n n n n n m m n n n z n n n n m n m m n n n n n m m m m m n n n n n n n n n c n c k k k k k l j < < < < < , , , # # @ & w.g.d.d.d.d.d.d.d.d.d.d.d.d.d.d.d.d.d.d.d.d.g.g.r.r.q.w.B.R.).XX#X&X&X#X#X#X#X].#X#X#X#X].#X#X#X#X#X#X#X#X#X#X#X]..X].].].].#X#X#X#X#X#X#X#X].#X#X].].#X#X#X].|.#X#X#X].].#X].#X#X#X#X#X#X#X#X#X#X#X#X#X#X#X#X#X#X#X#X#X#X#X|.].#X#X#X].].#X#X#X#X#X#X#X#X#X#X#X#X#X#X#X#X#X#X#X#X#X#X]..X+X.X].].].[.R.y.q.z.a.d.d.d.d.d.d.d.d.d.a.d.d.d.d.d.d.d.d.d.d.d.a.d.a.p.d.d.a.d.a.d.d.d.d.d.d.d.d.d.d.d.d.d.d.d.d.d.d.d.d.d.d.d.a.a.a.a.a.d.d.d.d.d.d.d.d.a.d.a.d.d.d.d.d.d.d.d.j.j.d.a.p.u.i.a.d.i.9.i * & O O O O O o o o O O O o o o o O O o o o o O o O o o o O o o o O O O & O O O O O O O O O o O & O O o O O O O O O O O o O O O O O O O O O O O & O O & O O & & O = & n.#X].#X#X#X#X].#X#X.X].#X#X#X#X#X#X].].].#X.X.X[.).w.i g.g.d.i.a.d.d.a.d.d.f.d.d.d.d.d.d.d.d.d.d.d.d.d.d.d.d.d.d.d.d.d.d.d.a.a.d.a.a.a.a.a.d.d.d.d.d.a.a.d.f.f.a.f.a.a.a.i.a.a.a.a.a.a.a.a.a.a.d.d.d.a.a.a.a.a.d.d.d.d.i.a.a.a.f.d.d.a.a.d.d.d.a.d.f.a.f.a.d.a.d.d.d.a.i.a.a.a.a.a.d.d.a.a.i.a.a.f.f.a.a.a.a.a.a.a.i.i.a.d.a.a.a.a.a.a.a.a.a.a.a.a.a.a.a.a.a.a.a.a.",
"h h l k l l k c k k k k c c c k c k h k k k h k c n c k h h c c h k k c c k k k k k k k h h h k k h k k c n c k k k c c c h h h k k k k h k k h k k k k k k k h c k k c c c c c n n n n n n n c c c h h k c k c c k k k k c n n n c k k k h k c c k k c c k k k k k k c k n n n n n k c n k n n n M n n z n n n n n c c n n c n n c c c k k k k n n n n n n c c c k k z n n n n n n n k k c c k z n n n n n n n n k k n n n n z c n n n n n n n n n n n M n n z n n n n n n n n n n z z n n n n z z n n n n n n z n n n n n n n n n n n n n n n n n n n n n n n z n n n n n n n n m n n m N B n n n n n n n m m m m m m N n n n m m m n n n n n n n n m m m m m m n n n n n m m m N M c c v L U W L.K.}.}.}.}.}.{.{.{.{.{.#X#XoXoX].'.K.W b M N N m n n n n n n n n n n n m n n n m m m n n m m m m n n n n n n n n n n n n n n n n n n n m m n n z n n n n n n m n n n n n n n n n m n n n n n n n n n c c c k c k k k k l j < < < < , , , # # # o i z.d.l.d.d.d.d.d.d.d.d.d.d.d.d.d.d.d.g.g.r.q.q.q.w.B.R.).XX.X+X#X#X&X#X#X#X].#X#X#X#X#X#X#X#X#X#X#X#X#X#X.X#X#X]..X.X.X#X#X#X#X#X#X#X#X#X#X#X#X#X#X#X#X#X#X#X#X#X#X+X.X].#X].#X].#X#X]..X#X].#X#X].#X#X#X#X#X#X#X#X#X#X#X].].#X#X#X#X#X#X#X#X#X#X#X#X#X#X#X#X#X#X#X#X.X.X#X#X#X#X#X#X#X#XoXoX#X].].[.).C.;.g.l.d.d.d.d.d.d.d.d.d.d.d.a.d.d.d.d.d.d.d.d.d.d.a.a.d.d.d.d.d.d.d.d.d.d.d.d.d.d.d.d.d.d.d.d.d.d.d.d.d.d.d.d.d.d.d.d.d.a.i.a.d.a.a.a.d.d.d.d.d.d.d.d.d.d.d.l.d.i.i.a.p.d.d.d.d.d.i.0.=.w ; & O O O O O O O O O o o o o o O O o O X o o o O o O O O o o O O O & & & O O O O O O O O O O O o o O O O O O o O O O O o O o O O O O O O O o & O O = O O O O = : O a ].#X.X#X#X#X.X+X#X#X#X#X#X#X].].#X]..X+X#X#X.X].).B.;.8.g.i.a.a.a.a.a.i.a.a.a.f.d.d.d.d.d.d.d.d.d.a.d.a.d.d.d.d.d.d.a.a.f.a.a.d.d.a.f.d.a.a.a.a.a.a.d.d.a.i.i.u.p.i.i.i.i.a.a.a.a.a.f.a.a.a.a.a.d.d.a.a.a.a.p.a.a.d.d.a.d.d.a.a.a.d.f.f.d.a.a.a.d.d.a.d.d.d.a.a.a.d.d.d.a.a.d.d.d.a.d.d.d.d.a.a.a.f.d.d.a.d.d.a.a.a.i.p.p.a.a.a.a.a.d.d.d.a.d.a.d.a.a.a.a.a.a.a.d.",
"h h l l l h h c c c k c c c k k c c h k k k k k k c c k k h c c c k c k h k k k c c k h h k h h h k c c c c c c c c k k k h j j h k k k k k k k k k k k k h h h h k k k c c c c c n n n n n n c c c h h k k k k k c k k n n n n k k c c k k k k k k k c n c k k k k k k k z n z n n c c n n n n n n M n z z c n c n n n n n c n n k k k k k k k z n n n k k k k c c k k k n n n c c k k c c k k k z n n n n n n n n k z z c k h h k n n n n n n n n n n n n n n n n n n n n n n n n n n n n n n n n n n n n n n z n n n n n n n n n n n n n n n n n z n n n n n n n n n n n n n n n n n n n n n n n n n n n n n m m n m n n n n n n n n n n n n n n n m m m m m m m m n n n m m m n m M n n n c v M U ! L.K.(.}.}.}.{.{.{.{.oX#X#X{.'.K.U v B N m N N n n n n n n m n n n n n n n n M m m m n n m m m n n z n n n n n n n n n n n n n m m m m m n n n n n n n n m n n n m m n n n n m m m n m n n n n k n c k k c c k l l j j 2 < < < , , , # # # @ ; t.g.g.j.j.d.a.j.d.d.d.d.d.d.d.a.a.r.r.q.8.w.B.).).`.[.[.]..X+X#X#X#X#X#X].#X#X#X#X#X#X#X#X#X#X#X#X#X#X#X].#X+X#X#X#X#X#X#X#X#X#X#X#X].#X#X#X#X#X#X#X#X#X#X#X#X#X#X{.#X#X].]..X#X#X#X#X#X#X#X#X+X].|.#X#X#X.X].].+X#X].].].+X#X#X#X#X#X#X#X#X#X#X#X#X#X+X#X#X#X.X].].].].].].].#X#X#X#X.X#X#X#X#X#X].[.R.;.q.v.a.d.d.d.d.d.d.d.d.d.d.d.d.a.d.d.d.d.d.d.d.d.d.d.a.d.d.d.d.d.d.d.d.d.d.d.d.d.d.d.d.d.d.d.d.d.d.d.d.d.d.d.d.d.d.d.d.d.d.a.a.d.d.a.f.d.d.d.d.d.j.j.j.d.p.u.p.i.a.a.d.d.a.a.a.a.a.i.8.y * & & O O O O O O o o o O O O O o O O O o o o o o o O o o o o o o O : O o O O O O O = & O O o o o O O O O O O O O O O O O O o O O & O & = = & O O & O O O O & & : a V.#X#X#X#X#X.X#X#X#X#X#X#X#X#X#X].#X#X#X#X#X#X#X].[.).y.=.g.f.i.p.a.a.a.a.a.a.a.a.p.a.a.a.a.a.d.d.a.a.a.p.d.d.d.a.a.d.a.f.d.a.a.a.a.a.a.a.d.d.d.d.d.d.d.a.d.f.a.i.p.a.a.a.a.a.a.a.i.a.a.a.f.a.a.a.a.a.a.a.a.d.d.a.a.a.d.a.a.a.a.d.a.d.d.a.a.a.a.a.a.d.a.d.d.d.d.d.d.a.d.d.d.d.d.d.d.a.d.d.d.a.d.d.d.a.a.d.d.a.a.d.d.d.d.d.d.f.a.a.a.a.a.a.a.a.a.i.a.a.d.a.i.a.a.a.p.",
"c c h l c c h h k c c c c k k k c c k k h h h h h c k h k k k c k k k h h k c c k c k k k h h h h k c c k c c k k k k h k k h h h c k k n n k k k k k k k k k h h k k k k c c c c c c c c n n n n k k k k k k k k c c k z n n c k k k c c c k k k k k c c k c c c c c c k k c k k c c k k k k n n n n n n n n c k k c c k k c z n n c n n n k k n n n k h k k k c c c c k c c c k k k c n n n n z z n n z n n n n n c k c c k c c c k c n n n n n n n n n n n n n n n n n n n n n n n n z k n n n n n n n n n n n n n n n n n n n n n z n n n n n k k z z n n n n n M M n n n m n n n n n n n n n n n n n n n n n n n n n n n n n n n n n n n n n n n n n m m n m m n n n n m n m m m m m n n n n n n n M U W 2.K.(.}.}.}.}.{.{.{.{.}.D.b v n m m n m n n n n n n m n n n n n n n n n n n n n n n n n n n n n n n n m n n n n n n n n n m m m m n n n n n m n m m m m n n m n m n n n m m m m m n n n n n k k k k c c l l j < < < < < , , , , , # # O ;.z.g.d.d.d.d.a.d.d.d.d.d.a.i.r.q.8.w.B.T.).).XX].].].].#X#X#X#X#X|.#X#X#X#X#X#X#X#X#X#X#X#X#X#X#X]..X].].#X#X#X#X#X#X#X].].].#X].|.].#X#X#X#X#X.X].#X#X#X#X#X.X].#X].{.#X]..X#X#X#X#X#X#X#X#X].].|.#X#X#X#X#X#X#X.X.X.X.X.X.X#X#X#X#X#X#X#X#X#X].].#X.X#X#X#X#X#X#X#X].].#X].#X#X#X#X|.{.#X#X#X#XoX].).w.;.g.d.d.d.d.d.d.a.d.f.d.d.d.d.a.d.d.d.d.d.d.d.d.d.d.f.d.d.d.d.d.d.d.d.d.d.d.d.d.d.d.d.d.d.d.d.a.d.d.d.f.d.d.d.d.d.d.d.d.d.d.d.d.d.d.d.f.f.d.d.j.d.d.p.p.i.a.f.d.d.d.d.d.d.d.a.a.d.f.0.=.; & O & O O O o o O O O O o O O O O O o O o o o o o o X o O o o O O o O O & & O O O O O O O O O O o O o o o O O O O O O o O o O O = = O O O O & : & & O o & > a y.V.#X#X#X#X#X#X#X#X+X#X+X].].].].].#X#X#X#X+X#X#X.X].[.).B.i r.f.i.a.a.a.a.a.p.a.f.a.u.i.a.a.d.d.d.d.d.a.a.d.d.d.d.d.a.d.d.a.a.a.a.a.a.i.i.p.a.d.d.d.d.d.a.a.d.d.a.a.a.a.a.a.a.d.a.a.a.a.f.d.f.a.a.a.a.a.a.a.a.a.d.d.a.a.d.d.d.a.a.a.a.a.a.a.p.a.f.f.d.l.l.d.d.d.f.d.d.d.d.d.d.a.a.d.d.d.a.a.a.a.a.d.a.a.a.p.a.a.a.a.f.d.a.i.a.a.a.a.d.a.a.a.i.i.a.a.d.a.d.d.a.d.a.a.a.",
"c c h h h k c c h h k c k c c c c k k k k h h h k k h h k k k k c c c c c c c c k h k k k k k h k c c c k k c c k k k k k c h h c c n n n n n k k k h h k k k k h k k k k k c c c c c n c k n n c k k n c k k k k k k k z k n c c k k k n c c c c c c c h h k c c c c n n k k k k k n c k h k c k n n n n n n n c c k h k c k k n n k n n n M n n z n c k k k h h k c n c c c c k c c k n n n n n n n n z z n n n n n n n n c k c c k k k k h n n n n n n n z n n n z z n n n n n n n M n n n n n M n n n n n n n n n n n n n n n n n z z n n n n z n n n n n n n z z n n n n n m n n n n z n n n n n n n n n n n m n n n n n n n n n n n n n n n n n n n m m m m n n n n n n m n n m n m m n m M n n n n c c v U U 2.H.K.}.}.}.}.}.K.2.l M n n n n n n n n n n n n m m n n n n n n n m n m n n n n n n n n n n n m n n n n m n n n n z n m m m m n n n n n m m n m m m n m m n n n n m n m m m n n n n n n c k k k k l l j < < < < < , , , , , # # . w g.g.l.b.d.d.a.d.d.d.g.r.q.q.w.t.T.).).XXXX[..X+X+X#X#X#X#X#X#X#X#X#X#X#X#X#X#X#X#X#X#X#X#X#X#X|.].#X#X].].#X#X#X#X#X#X#X].].].].].#X#X#X#X].].].#X#X#X#X#X.X#X#X#X#X#X#X]..X#X#X#X#X#X.X#X#X#X]..X#X#X#X#X#X#X#X.X.X.X#X#X#X#X#X#X#X#X.X.X.X#X]..X]..X#X#X#X#X#X#X#X].#X#X#X#X#X#X#X#X#X#X#X#X#X]..X`.B.;.q.g.a.d.d.d.d.d.a.d.d.d.d.d.a.d.d.d.j.d.d.d.d.d.d.a.d.d.d.d.d.d.d.d.d.d.a.d.d.d.d.d.d.d.a.d.d.a.p.a.d.a.a.d.d.d.d.d.d.d.d.d.d.d.f.d.d.j.d.a.p.u.p.a.d.d.d.d.d.d.d.a.a.d.f.d.a.d.a.i.8.t * & O & O o O o O O O O O o O O O O O O O O O O O O O O O o o O O O = & O o O O O o O O O O o o o o o O & O O O O : O o O O o O O O O O O O = O O o & > g n.V.`.[..X.X#X#X#X#X#X#X.X+X#X#X].].].]..X#X#X#X#X#X#X+X].[.`.R.y.-.g.a.a.a.a.a.a.a.a.a.a.d.a.a.d.f.a.d.d.d.d.d.d.a.d.d.d.d.d.d.d.a.p.i.a.d.a.a.d.a.d.d.d.a.a.a.a.a.a.d.a.a.a.a.a.d.d.p.i.i.i.d.f.f.d.d.f.a.a.d.f.a.i.a.d.a.d.d.a.p.a.f.a.d.a.p.a.d.f.a.a.a.d.d.d.d.d.a.a.a.f.d.d.a.d.d.a.a.a.a.a.d.d.a.d.d.a.d.a.d.a.a.a.a.u.a.i.i.a.f.a.d.d.a.d.d.d.a.d.d.a.a.a.a.a.a.a.d.",
"k h h h h h k c c k k h k h k c k k h h k k c c k h h k k h h c c c k k k c c k c h k h h c c c c k k k c k h h h k c c c h h h k k c c k k c c h k k k k k h h h c c c k k k k c c k k c n n c k k k n n n c c k k c n n n c c c c k k k k k k k c c c c c c n c c k k n n n n c k k n c c c k c n n n z n n n n n c c c n n k k n n k z n n M M n n c c c n c k k k k c c n n c c n n n n n n M n k n z n n n n n n k n n n c c c k n n n c k k k c n n n n n z z n n n z z n n n n n n n n n z n n n n n n n n n n n n n n n n n n n n z n n n n n n n n z k z n n n n n n n n n m m z n n n n n n n n m n n n n n n n n n n n n n n n n n n n m m n n n n n n n n n n n m m n n n n n m m m n n m n N N n n c c M M U ! 2.H.K.K.K.U v M n m m m n n n n n n n n n n n n m m m m m m m m m N m n n n n n n n n N n n n n n n m m m n n n m m m n n n n n n n n n m m m m m n n n n m n n n n n n n n c n M n c k k l l j < < < < < , , , , , , # # O y.z.a.d.d.d.g.g.r.q.q.y.w.T.R.).[.].].].].]..X#X#X#X#X#X#X#X#X#X#X#X#X#X#X#X#X#X#X#X#X#X#X#X#X#X#X].#X#X#X#X#X#X#X#X#X#X#X#X#X#X].].#X#X].].#X].#X#X#X|.].].#X#X#X#X#X#X#X#X#X#X#X#X].].].].#X].].].#X#X#X#X#X.XoX#X#X#X#X#X.X.X#X#X#X#X+X.X]..X.X#X#X#X#X#X.X.X#X#X#X#X#X#X#X#X#X#X#X#X#X#X#X#X|.].XX).y.;.g.d.d.d.d.d.d.d.d.d.d.d.d.d.d.d.a.a.d.d.d.d.a.d.d.d.d.d.d.d.d.d.d.d.d.d.a.f.d.a.a.a.d.d.a.a.d.d.a.a.a.d.d.d.d.a.a.d.d.d.a.a.d.l.d.a.p.p.p.f.d.d.d.d.d.d.d.d.d.a.d.d.d.d.d.a.d.d.f.q.i ; : O o o X X o o o O O O O O o O o O O O O O O O O : & o o o o X O O O o O O o o O o o o o O O O O O O O O O O O > O O O O o O & O O O O : O & : a :.V.V.`.`.'.].#X#X#X].].#X].#X#X].].#X.X]..X#X#X.X#X#X#X#X#X+X+X.X[.).w.=.r.g.a.a.a.a.d.a.d.d.i.i.a.d.d.a.a.i.d.d.d.d.a.a.a.a.d.a.a.a.a.f.a.d.a.d.a.a.a.a.i.a.i.a.a.a.a.a.f.a.a.a.f.a.a.a.a.p.p.a.a.a.p.a.a.d.d.a.a.f.d.d.d.d.a.a.a.p.p.a.a.a.i.d.d.a.a.a.a.a.d.a.a.a.a.i.a.a.i.a.a.a.p.d.d.a.d.d.a.i.a.d.d.a.p.d.d.i.a.d.a.a.a.a.d.d.d.d.a.a.a.a.d.d.a.a.a.d.d.a.a.d.a.a.a.a.d.d.",
"h h h h c c h h k c c k h k k h h k k h k c c c c k k k k k h k c c k k c c k c k h h k h h c c c c k k k h k k h k c c c h h h h k k k n c k k k k c c c k h h k c c c c c k k k k k h k k k c c c n n n c c n n z k k n M k h k k c c k k k k k k k k c n n c c c k k k c n n n c k k c c c c k c n n n M n n k n c n n c c c n z n n n n n z n n n n c c n n n n n k k n n n k k z n k c n n n n c n n z n n n k c k k k k n n k k k n n n c n n k k k z n n n n n n n n n n n z n n n n M n n n n n n n n n n n n z n n n n n n n n n n n n n n n n n n n n z z n n n n n m n n n n B n n n n n n n n n n n n n n n n n n n n n n n n n n n n m N m n n n n n n n n n n m m n n n n n n m m m n m m m m m n n n n n n c v L U ! 5.v M n n n n m N n n n n n n n n n n n n m m n n m m n n n m m n n n n n n n m n n n n n n n n m m N N m m m m n n z n n n n n m m m m n n n n n n n B n n n n n n k c c c c c k l l j j < < < < , , , , , , # # o p T.z.z.l.g.q.q.q.w.B.).).`.[.].].].+X+X+X+X+X+X#X#X#X#X#X#X#X+X#X#X#X#X#X#X#X#X].].#X#X#X#X#X#X].#X#X#X#X#X#X#X#X].#X#X#X#X#X#X#X#X#X#X].#X#X|.#X#X.X]..X#X#X#X#X#X#X#X+X.X#X#X+X#X].].].].].#X#X#X#X#X#X#X#X.X#X#X#X#X#X.X#X.X#X#X#X#X#X#X#X#X]..X#X#X#X#X.X#X#X#X#X#X#X#X#X#X#X#X#X#X#X+X+X|.].].[.).B.;.t.g.d.d.d.d.d.d.d.d.d.d.a.d.d.d.d.d.d.d.a.a.d.d.a.d.d.d.d.d.a.d.a.a.a.d.d.a.a.a.a.d.d.d.d.a.a.d.d.a.a.a.d.d.d.d.d.d.d.j.l.d.a.p.u.u.p.a.d.d.d.d.d.d.d.d.d.d.a.a.d.d.a.d.d.d.d.d.d.i.8.w * = O O O O O o O O o o O O O O O O : & O O & O & & O o O o O O O O O O o o o o o o O O O O O O O O O O O O O O O O & & O O O O O & & & : > g n.V.R.`.`.[.].].]..X#X#X#X].#X#X#X#X#X]..X#X].].#X+X#X#X#X+X.X.X.X].].].`.V.8.8.g.f.a.a.a.a.a.d.d.a.a.d.a.p.i.p.a.d.d.d.d.d.d.d.d.d.d.d.a.a.d.a.a.a.p.a.d.a.d.i.i.u.i.a.i.a.a.a.f.a.f.d.a.d.d.a.a.a.a.a.d.a.a.a.a.f.a.a.a.a.d.d.d.d.a.d.a.p.d.a.i.a.a.a.d.a.d.d.a.i.a.p.i.p.a.a.d.a.a.d.a.i.p.a.d.a.d.d.d.d.d.a.d.a.a.a.d.a.i.a.d.d.d.d.a.d.a.a.a.a.d.i.a.d.a.p.a.d.a.a.a.a.d.d.i.u.i.",
"c c c k h h k k h h k h h h k c k c c k k k h k c c k k k k k h k k k k c k k c k c k k k k h k c k k c k h h h c c k k k c k k h k k k c n c k c k k k k h h h h h h k c k c c k k k k k k k k k k c c c n c c n z k k k k k h k h k k k k k k c n n c c c c c c c k k c c c c c n c k k c c c c n k n n n n n n n n n n c c n n n n n n n c k z z k k k c n n n n n n n n n n n n k n n k n k k k c n n n n n n k n n z k k z n z n n k n c n n n n n z n n n n n n n n n n n n n n n n n n M n m N n n z z n n n n z z n n n n n n n n n n n n n n n n n n n n n n n n n n n n n n n n n n n n n n m m n n n n n n n n n n n n n n n n n n n n n n n n n n n n n n n n n n n n n n n n n n m m m m m m m m n n n n n n n n c c v ! B n N m m m n n m n n n n n n n n n n n m n n n m n n n n n n n n n n n n n n n n n m m n n n m m m m m m m m m n n n n n n n n n n m m n m n n n n n n n n n n c k k k k n c c l l l j < < < < < , , , , , # # # & C._.T.t.q.y.w.T.).).XXXX].].].]..X.X#X#X#X#X#X#X#X#X#X+X#X#X#X#X#X#X#X#X#X#X].].].].#X#X#X#X].#X#X#X#X#X#X#X#X#X#X#X#X#X#X#X#X#X#X#X].].#X#X#X#X#X].].].].#X#X#X#X#X#X#X#X].]..X#X#X#X].#X#X#X#X#X#X#X].]..X#X#X#X#X#X#X#X#X#X#X#X#X#X#X#X#X#X.X].].].#X#X#X].].#X#X#X#X#X#X#X#X#XoXoX#X#X#X#X#X.X].[.R.y.q.z.d.d.d.d.d.d.d.d.d.a.d.d.d.d.d.d.d.d.d.d.d.d.d.a.d.d.d.d.d.d.d.p.a.d.d.d.d.d.d.d.d.d.a.d.d.a.d.a.d.d.d.d.d.d.d.j.d.d.d.p.i.p.a.d.a.a.d.d.a.a.f.d.d.d.d.d.d.d.d.d.d.a.d.d.d.d.f.i.q.u * * & & & & O O O O o o O O O O O O O O O O O O o o o o O O O O O O O O O O O O o O O O O O O O O O & O O & O O O O O O O O & & O : > a f C.V.`.`.[.[.].].].oX.X.X]..X+X].].#X].].#X#X.X.X.X].]..X#X#X#X#XoX.X].].].].[.R.w.=.g.z.d.d.d.d.a.a.d.d.d.a.a.a.a.a.a.d.d.a.a.d.a.a.a.d.d.d.f.a.d.d.a.a.a.a.p.a.a.a.a.a.a.a.a.a.a.a.a.a.a.a.d.d.d.d.a.a.a.d.a.f.f.d.f.d.a.a.a.p.p.a.a.a.a.a.a.a.a.a.a.a.d.a.a.a.a.a.a.a.a.a.a.a.a.a.d.a.a.a.a.a.a.a.a.d.a.a.d.d.d.d.a.d.a.a.a.a.a.a.a.a.a.a.d.d.d.d.f.a.a.a.a.a.d.a.d.d.d.d.a.a.a.a.a.i.a.",
"k c k k k h h k h h h h h k c c c c k c h h h h h k c c k k k k k h h k c k k k k c c k k k k k h k k k k c c c k k c k h k c c h h c c k k n k k k k h h h h h k k h c k k k k c c k k c c c k k k k k c c c n n n n k k k k c c c k k k k k c c c c c k c n c c c k k n n n n n c c n c c k c k c k k n z n n n c c c c k c n n n n k c c k k n n n k k k z n n n c n n n k k n n n n n k n n c k k c k n n n k k n n n n n z n n n n k k k k k n n n n n n n n n n n n n n m M n n n n n n n n n n n n n n n n n n n n n n n n n n n n n n n n n n n z n n M n n n n n n n n n n n n n n n n n n n m m n n n n z n n n n m m n n n n n m m n n n n n n n n n n n n n n n n n n n n n n n n n n n n n m m m m m n n n n n M n k h n n n n m m m m n n n n n m m n n n n m m n n n n m n m m m m N m m n n n n n n n n n n n n n n m m m m m m m m m m m n n n n n n n n n n m m m n n n n n n n n z k k k k k k c c c l l j j < < < < < , , , , # # # . a n.y.B.T.).).`.[.].]..X+X].#X.X#X#X#X#X#X#X#X#X#X#X#X].#X#X#X#X].].].#X#X#X].].].].#X#X#X#X].#X#X.X#X#X]..X].#X#X#X#X#X#X#X#X#X#X#X#X].#X#X#X#X#X#X].].#X].].].#X#X$X#X#X|.#X#X#X#X#X#X#X{.#X#X].#X].].].#X#X#X#X#X#X#X#X#X#X#X#X#X#X#X#X#X#X].].]..X#X#X.X].].#X#X#X#X#X#X#X#X#X].{..X+X#X#X#X{.].[.).B.;.g.d.d.d.d.d.d.a.d.d.d.d.d.d.d.d.a.d.d.d.d.d.d.d.d.d.a.a.d.d.d.d.d.d.d.d.d.d.d.d.a.a.f.d.a.d.d.d.d.d.d.d.d.j.l.d.a.p.u.p.a.d.d.d.d.d.d.a.d.d.d.d.d.d.d.d.d.j.j.d.d.d.d.d.d.d.f.d.a.e.=.; * O O O o o O O O o o o o o O O O & O O O O o X o O O o O o o O O O O O O O & o o O : O & = O O O O O O O & = & O O O & & : > a f C.V.V.~.`.[.].[.].].].].#X#X#X].].#X#X].].].].]..X.X#X#X#X]..X#X#X#X#X#X.X+X.X].].].).B.8.q.g.a.d.d.d.a.a.a.a.d.d.a.d.a.i.a.d.a.a.a.d.d.a.a.d.d.d.a.a.a.a.a.d.d.d.a.i.d.a.a.d.d.a.a.a.a.a.a.a.a.a.a.d.a.a.d.a.a.d.f.a.d.a.f.f.f.d.d.a.a.i.a.a.d.d.a.i.a.i.a.a.d.d.d.a.a.a.a.i.a.a.a.a.a.a.d.a.a.a.a.a.a.a.a.d.d.d.a.d.d.d.d.d.a.d.d.a.a.a.a.a.a.a.a.d.d.f.p.p.a.a.d.d.d.d.d.d.d.a.a.a.a.d.d.a.a.",
"c c c c k k k c c k c k k c c c k h h c k h h h h k c c c c k k h c k h k c c c k k k k k c c k k k k c c c k c k k k c c k k c k c c c c c k n k k k h h k k k k c k k c c k k c c c k c c c k k k k k k k k c c n n c c c c c c n c c n c n c k k k k c c c c k k k k c n c c k k k c M n c c k c n z k k n n n c c h k c n n n n c c c c k k k n n n k k z z k k k n n n k k z n n k k n n n n n z n k k k n k k n n n n n n n n z k n n n k k z n n n n n n n z z n n n n n M n n n n n n n n n n n n n n n n n n n n n n n n n n n n n n n n M n n n n n M n n n n n n n n n n z n n n n n n z n n n n n n n n n n n n n n n n n n n m m n n n n n m n n n n n n n n n n n n n n n n n n n n n n n n n m n n n n n n m m n n n n n n n m n n m m n z n z n n n n n n n n n n n n n n n m m m m m N N m n n n n n n n n n n n n m m n m m n n n m n m m n n n n n n n n n n n m m n n n n n n n z k k k k k k k k k l l j j < < < < < , , , , , # # # - n.`.`.XX[.].].].oXoXoX#X#X#X.X#X#XoX#X#X#X#X#X|.#X#X].].#X#X#X#X].].].#X].#X#X#X#X#X#X#X#X#X].].].|.]..X].].#X|.#X#X#X#X#X#X|.#X#X#X#X#X.X#X#X].].].].[.].#X#X#X`.f f oX#X#X|.#X#X#X#X#X#X|.#X#X].].].].#X#X#X#X#X#X#X#X#X].#X#X#X#X#X#X#X#X.X.X.X].#X#X].].#X#X#X#X#X#X#X#X#X#X.X#X#X#X#X#X].oX.X].[.R.8.8.g.a.a.a.d.a.d.a.d.d.a.a.d.d.d.d.d.a.a.d.d.d.d.d.d.d.a.d.d.d.d.d.d.d.d.d.d.d.d.a.d.d.d.a.a.d.d.d.d.d.d.d.a.a.i.i.i.a.d.f.f.d.d.a.d.d.d.d.a.d.d.d.d.d.d.d.d.a.d.d.d.d.d.d.d.d.a.a.i.8.t * = O O o o o : & o o O O O O O O & O O O o O O O O o o o O O o O O O O O O O o X o & O O & O o O O O O O & = & & O & : a f C.V.R.`.`.[.[.[.].]..X.X.X].]..X#X]..X].#X#X#X.X.X].].].]..X#X#X.X#X#X#X#X#X#X#X#X#X#X#X].`.R.w.=.i.d.f.f.a.d.d.a.a.i.a.i.a.a.a.a.a.d.d.d.d.d.d.a.a.f.d.a.f.d.d.d.d.a.d.d.a.i.d.i.a.a.d.d.a.a.d.f.a.d.a.d.d.a.a.a.a.a.i.a.d.f.a.a.d.f.f.d.a.d.j.j.d.a.d.d.d.a.a.d.d.d.d.a.a.a.p.u.p.d.a.a.d.a.d.d.d.d.d.d.d.a.a.d.a.a.a.a.d.a.d.d.a.a.a.a.d.a.d.a.a.d.d.d.d.a.p.a.a.d.a.a.a.a.a.a.a.d.d.d.a.a.a.a.i.a.",
"k c c k k k h h k c c k c c k c k k k h k k k k k k k k k k c h h c c c k h k c c k k k k k n M c k h k k h h k h k k k c n c k h k k c c n n M k c k h k k k c k k k k k k k c k h k h h k k k k k k c k k k k c c n c c k h k c c k c n n n c k c k k k c c c k k h k c n c k k k c c c c n n n c n n n k k k c c c c n n n n n c k c c c c c n n n n n z n n c k k k n n n c k k k k z n n n n n n n k k h k k k z k z n n n n n z k n n n n n z z n n n z n n n n z z n n n n n n n n n n n n n n n n n n n n n n n n n n n n n z z n n n n n n n n n n n z n n M M n n k k n n n n n n n n n n n n n n n n n n n n n n n n n n n n n n n n m n n n n n n n n n n n n n n n n n n n n n n n n n n n n n n n n n n n n m m m n n n n n m n n n n n n z n n n n n n n n n n n M n n n m m n n n m n m m m m n n n n n n n n n n n n n m m n n n N N m m m m n n n n n n n n n n n m n n n n n n n n n k k c c c k k k l l j j j < < < < < , , , , # # # # m.OX].].].].oXoX#X#X#XoX.X]..X#X#X#X#X#X#X#X].].#X#X#X#X#X#X#X#X#X].].].].].#X#X#X#X.X#X#X#X#X#X#X.X#X#X].].].#X#X#X#X#X#X#X#X#X#X#X#X#X#X#X].].].].].#X].V.f a > o O V.#X]..X#X#X#X.X.X#X].].#X].].].].#X#X#X#X.X].].]..X].].#X#X#X#X#X#X#X#X].].].]..X.X#X#X#X#X#X#X#X#X#X#X#X#X].].+X#X#X#XoX].].[.R.w.i r.f.a.d.d.d.d.d.d.a.p.a.d.d.d.d.d.d.d.d.d.d.d.d.d.d.d.a.a.a.f.d.d.a.f.d.d.d.d.d.d.a.a.d.f.d.d.d.d.a.u.u.u.p.d.d.a.a.d.f.d.d.a.a.d.d.d.d.d.d.d.d.d.d.d.d.d.a.d.d.d.d.d.d.d.d.d.d.a.0.i ; * & O O o O O O O O O O O o O O o O O O & O o O O O o o o X o o o O O o O O O O O O O o O & o o O O O & : : : : > g n.V.V.`.`.[.[.].].].[.].#X].]..X].].].#X#X#X].].#X#X#X#X#XoX.X.X].]..X+X.X#X.X#X+XoX#X+X#X#X#XoX[.).B.;.q.d.a.f.d.a.a.a.f.a.d.p.a.a.a.a.d.d.a.d.d.d.d.d.f.a.f.d.a.a.d.d.a.a.d.d.a.a.a.d.d.a.d.d.d.d.d.a.d.d.a.d.d.d.d.d.a.f.a.a.a.a.a.p.p.a.a.a.a.f.d.d.d.d.d.a.a.d.d.d.d.a.a.a.a.a.a.a.a.d.d.a.a.a.a.a.d.d.d.d.d.d.i.a.a.d.d.d.a.a.a.d.d.d.a.a.p.a.a.a.a.a.a.d.a.d.d.d.a.a.a.a.a.a.a.a.a.d.d.a.d.a.a.a.i.a.",
"k k k k c k k h h h h h k c k k c c c k h h h k k k k k h h k c k h c c c k k k k c c c k k c k k k k k k k h k h k c k k k k c k h k c c c n n n k k k k k k k c c c c c k k k k k k k k k k k c c k k k k c c c c c c c c h h h k k k k k n n c c c c c c c c c c c k k k k k k c c n n c k c n n n n n c k k k k c n n n n n c c c c k k c k n n n n z k n k c c c c c c c c c c c c n n n n z n n n n n c c n n n k z z z n n n n z n n n n n n n n n n n n n n n n n n n n n z n n n n n n n n n n z n n n n n n n n n n n n n n n n n n n n n n n n n n n z n n n n k c k k n n n n n n n n n n n n n n n n n n n n n n n n N N m n n n n n n n n n n n n m m n n n n n m n n n n n n n n n n n n n n n n n n n n z n m m n n n n n m n n n n n n n z n M n n n n n n n n n m m n m m m n n n m n n m m m n n n n n n n n n n n n n n n n n m m m m m n n n n m m n n n n n m n n n n n n n n M n z k k n n c k k l l j j j 2 < < < < < , , , , # # @ s }.{.].+X+X#X#X#X#X#XoX#X].].#X#X#X#X#X.X].].#X#X#X#X].oX#X#X#X#X#X].]..X.X#X#X#X#X#X#X#X#X#X.X.X.X.X].].].].|.#X#X#X#X#X#X#X#X#X#X#X#X#X#X[.].#X].`.V.g : O o O O X a ].].#X#X#X#X+X.X.X#X].].#X+X].].].#X+X#X#X.X].].].].]..X#X#X#X#X#X#X#X].]..X#X#X#X#X#X#X#X#X#X#X#X#X#X#X+X.X#X#X#X#X.X.X.X].[.).B.;.q.g.a.d.d.j.d.d.d.a.d.a.a.d.d.a.d.a.a.d.d.d.a.d.d.d.d.d.d.f.f.d.d.a.f.d.d.a.a.a.d.d.d.d.d.d.d.i.i.u.p.i.d.d.d.d.a.a.d.a.a.a.a.d.d.d.d.d.d.d.d.d.a.d.d.d.d.d.d.d.d.d.d.d.d.d.d.d.a.e.8.w * & X X O O o O O O O O O O O O O O O O O O o O O O o O O o X o o o o o o O O O O O o o o o o O O O O & : a g >.C.V.`.`.[.[.].].].].].].].|.#X].].].].#X].#X#X].].].].].#X].#X#X#X#X#X#X#X#X#X#X.X]..X].#X#X#X#X#X#X].`.).w.-.g.f.d.a.i.p.i.i.i.a.a.i.a.d.a.a.d.a.a.a.a.a.f.a.p.i.a.a.i.a.d.a.a.a.d.a.a.d.d.a.d.d.d.d.a.a.a.a.a.a.d.a.d.a.a.a.a.a.i.a.d.a.a.p.a.a.a.a.a.a.d.d.a.a.d.d.d.d.a.a.a.a.a.a.a.a.a.a.a.a.a.a.a.a.a.a.d.a.d.d.d.a.a.a.a.a.d.a.a.a.d.d.d.d.d.a.a.a.a.a.a.a.a.a.d.d.d.a.a.a.a.a.a.i.a.a.a.a.d.a.a.d.d.a.a.",
"k c c c k k c c c h h h h k k c c k k c k k k c c k c c k h h k c k k k k k c k k k k k k k c k k k k h h h h k k k k c c k k c c k k h h k k k n c c c c k k h k c n c k k k k k c c c n c k k c k k k k c c c k k c c c c k k k k k k h k c c n n c n n k k k k c c k k h h k k c c k k n c c c n n M n c c k k c c c c k k n c c c c k k c c k n z n k k c c c n n c k k c c n n c k c c n n n n n n n n n n n n n z z z n z n n n n n n n n n n n n n n n n n n n n z n n n z z z z n n z n n n n z n n n n n n n n z n z z k n n n n n n z n n n n n n n n n n n n n n c n n z z z n n n n n n n n n n n n n n n n n n n n n n m m n n n n n N m n n n n n n m n n n n n n n n n n n n n n n n m n n n n n n n n n n n n n n n m m m n n n m n n n n n n n n n n n n n n n n n M m n m m n n n n n n n n m m n n m n n n n n n n n n n n n n n m m m m m m n n m m m m m n n n n n n m n n n n n n n z z n n c k k l l l j j j < < < < < , , , , # # # # J.|.{.|.+X#XoX#X#X#X#X#X#X.X#X#X#X#X#X#X#X#X#X#X#X+X].#X#X#X#X#X#X#X#X.X#X#X#X#X#X#X#X#X#X#X].].].].].#X#X#X#X#X#X#X#X#X#X#X#X#X|.#X|.|.#X#X#XV.g > : o o O O o o o O V.#X].#X#X#X.X].].].].#X#X#X#X#X#X#X].#X#X#X#X.X]..X].]..X#X#X#X#X#X#X.X]..X.X#X#X#X#X|.#X#X#X#X#X#X#X#X#X].].#X#X#X#X].].].].[.R.y.;.g.d.d.j.d.d.d.d.d.d.d.d.d.d.d.d.d.a.a.p.p.a.f.d.d.d.d.d.d.d.d.d.d.d.d.a.d.d.d.d.d.j.d.a.p.u.p.a.a.a.a.a.d.d.d.d.d.a.d.a.a.a.a.d.d.d.d.d.d.d.d.d.d.d.d.d.d.d.d.d.d.d.d.d.d.d.d.f.i.q.u * * O o X O O O O O O O O O O & O O O O o O O O O & O O O O O O O o O o o X o X o o o o o o o O O = > g :.C.V.`.`.[.[.].].].].].].].]..X].].#X].]..X+X].].].].].].].].].]..X.X#X#X#X#X#X#X#X#X.X].]..X].#X#X#X#X#X#X+X].`.B.;.0.g.a.i.a.i.i.a.a.a.a.a.i.a.d.d.a.d.d.a.a.d.f.p.a.a.a.d.a.d.d.d.d.d.a.d.d.d.a.d.a.a.d.d.a.d.a.f.d.d.a.d.d.a.a.a.a.a.a.i.a.a.a.a.i.a.a.f.d.f.a.a.a.i.a.a.a.d.d.a.a.d.d.a.a.a.a.a.a.a.a.i.a.i.p.a.p.a.a.a.a.a.a.a.a.a.d.a.a.a.a.a.d.a.a.d.a.a.a.a.a.d.d.a.a.a.a.a.a.a.a.a.a.a.a.a.a.a.d.d.a.a.a.d.d.",
"h k c c c c k k c k k k k k k k k k k k k k k k k c c c k h h k k k h k c k k k k k k k k k k k h k k k h h h h k k k k c c k k c c h h h h h k c c c c k k k k k c c k k k k c k k c c c n c k k k k c k c c n n c c k k k k k k k h h k k c c k c c n n k k c c c k c c k h c c c k k c c c c c c c c c n n c c h h k h c k c k k c c k k c n n n z n n k k c n c k c c k c n n z z k k c k c n n n n n n n n n z n n z n n n n n n n n n n n n n n n n n n n z z n n n n n z z z z n z z n n n n n z z n n n n n n n n n n z n n n n n n n n n n n n n n n n n n n n n n n n n n n n n n n n n m n n n n n n n n n n n n n n n n n n n n n n n n m n n m n n n n n n n n m m n n n n n z n n n n m N n n n n n n n n n n n n n n n n n n n n n m n n n n n n n n n n n n n n n n n n n n n n n n n n n n m m n n n m n m n n n n n n n n n n n m m n n m m m m m m m m m n n n n n n n n m m m n n n n n z z n c k k l l l j j j < < < < , , , , , # @ # @ s OX{.#X#X#X#X#X#X#X#X#X#X#X#X.X#X#X#X#X#X#X#X#X#X#X#X#X].#X#X#X#X#X#X#X#X#X].#X#X#X{.#X#X].].].]..X#X#X#X#X#X#X#X#X#X#X#X#X#X#X|.|.#X#X[.C.g : o o O O o O o O o o X a #X].oXoX#X]..X#X#X].#X#X#X#X#X#X#X#X#X#X#X#X#X#X#X].].#X#X#X#X#X#X#X#X].|.#X#X#X#X#X].].].#X#X#X#X#X].|.].].].].]..X].]..X].].).B.;.t.g.a.d.d.d.d.d.d.d.d.a.f.d.a.d.d.d.a.a.d.a.d.a.d.d.d.d.d.d.d.d.d.d.d.a.d.d.d.j.d.p.u.p.a.d.d.d.d.a.p.d.d.d.d.d.d.d.a.d.d.a.a.a.d.d.d.d.d.d.j.d.d.d.d.d.d.d.a.d.a.d.d.d.a.d.d.d.a.r.;.w ; & = O O O o O O O O O O O O O O O O O & & = : O O O O O O O o O O X X o o o O o O O O O O & > g n.V.R.`.`.[.].].].].].].].].].].].].].].].#X.X].].]..X#X.X.X.X].+X#X.X]..X#X#X#X#X#X.X+X].].].].]..X+X+X#X#X#X#X#X].[.).y.6.g.d.d.p.a.a.a.i.a.a.a.p.p.a.d.a.a.a.a.a.a.a.a.a.f.a.d.a.d.d.a.a.a.d.a.a.d.a.d.d.a.a.a.a.a.a.a.a.a.a.a.a.a.a.a.a.d.a.a.a.d.a.a.a.d.d.d.d.a.a.a.d.d.p.p.d.a.d.d.d.a.d.f.a.a.a.d.a.d.a.a.d.a.d.d.d.d.a.p.a.d.a.a.a.a.a.a.a.a.a.p.a.a.a.a.a.a.p.a.a.a.a.d.a.a.a.a.d.a.a.a.d.d.a.a.d.a.a.a.d.a.d.d.a.",
"h h h k k c k k c k k k k k h h k c k c c k k k k h h k k k h c c k h k n n c k c c k k k k k h k k c c k k h h k c c k k k k k c c c c k h h h h k k c h h k c k k k c k k c k k k c c c n n k k k k k k c c c c c c c k k c c c c k k k k k c c k k n k k k k n n c c c c h h k k k c n k c c k c n k k k c n n c c h h c k c c k k c c c c n n n n n n k k n k c n c k c n n n n z k k k k c k n n n n n n n n n n z z n n c n c k n k k k k n n n n n n n n z n n n n n n n n n n n n k n n n n z z z n n n n n n n z z n n n n n n n k n n n n n n n n n n n n n n n n n n n n n n M n n n n n n n n n n n n n n n z z n n n n n n n n n n n n n n n m n n n n n n n n n m n n n n n n n n n n n n n n n n m n n n n m n n n n n n n n n n n m n n n n m n n n n n n n n n n n n n n n n n n n n n n n n m m N m n m m n n n n n n n n n n n m m m m m m m n m m m m m m n n n n n n n n m m n n n n n n n c k k k l l l j j j < < < < < , , , , # @ @ @ - J.{.#X#X#X#X#X#X#X#X#X#X#X#X#X.X.X].#X#X#X].#X#X#X#X|.#X#X#X#X#X#X].].#X].].oX#X#X].#X#X#X#X#X#X#X#X#X#X].#X#X#X#X#X.X|.].|.$X#X].V.f > O o O O O o o O O O O O O o O V.#X#X{.].].]..X#X#X#X|.#X#X#X#X#X#X#X#X#X#X#X#X#X#X#X#X#X#X#X.X#X].#X#X#X#X#X#X#X#X].].].#X+X#X].].#X#X#X#X#X|.#X+X]..X#X#X].[.).w.8.g.a.d.d.d.d.d.d.d.d.d.d.d.d.d.d.a.a.d.d.d.a.a.d.d.d.a.d.d.d.d.d.d.d.d.d.a.a.u.u.a.d.d.d.d.d.a.a.d.d.a.d.d.d.d.d.d.d.d.d.a.d.d.d.d.d.d.d.d.d.d.d.d.d.d.d.a.a.a.d.d.d.d.d.d.a.a.d.i.q.u ; : & & & O O O o O O O O O o o o O O & O O & & O o o o o o O O O O O o o o o O & & O : > a f n.V.`.`.[.].[.]..XoX#X#X#X#X#X]..X+X].].].].].].].#X#X].].#X#X.X#X#X#X#X#X#X#X].].#X#X#X].].#X#X#XoX]..X+X+X+X.X#X+X#X+X].).B.;.r.d.d.a.a.a.a.a.d.a.a.a.a.a.a.a.a.a.i.a.a.a.d.f.d.f.d.d.d.a.d.d.a.a.d.d.d.d.d.d.a.i.a.d.a.f.a.a.a.a.i.a.d.d.d.a.d.d.a.d.d.d.d.a.d.a.a.a.a.a.i.a.a.d.d.d.a.a.a.d.d.d.d.d.d.d.d.d.d.d.d.d.d.j.j.j.j.d.a.a.a.i.i.a.a.d.d.a.a.a.a.a.f.a.a.d.d.d.a.d.d.a.d.a.a.a.a.a.d.d.d.d.a.a.a.d.p.p.a.p.a.d.d.d.",
"h j j h h h h h k k k c k k c c k k k c c k k c c h h h h h h k k c c c c n n c k k k k c c k k h k c k k k k k k c n n k k k k c n n c c c k h h h h h k h h k k h k c n c c c c k k k c c c k k k h k k c c k k k c c k h c c k k k k k k h k h k c n n k k c n n k c c c k n c k k c c c k n k k c c n c n k c n n k h c k c n k k n c c n n n n n n n n n n n k n n n n n n n n n n n c k k k k n n n n n n z n n n n k k k c c n n n n n n n n n n n z n n z n n n n c c k c n n n n n n k k z z n n n n z n n n n z z n n n n n n n z k z n n n n n M n n n n n n n n n n n n n n n n n n n n n n n n n n n n n n n z z n n n n n n n n n n n n n n m m m n n n n n n n n n n n n n m m n n n n n n n n n M n n n n n n n n n n n n n n n n n m n n n n n n n m n n n n n n n n n n n n z z z n M n m m n m m m m m m m n n N m m m n n n n n n n n n n n n n n n n m m n n n n n n n n n m n n n n n n n k k k k k j j j j j < < < < < < , , , # @ @ @ @ E $X{.#X+X#X#X#X#X#X+X#X#X#X].#X.X].].#X#X#X].]..X|.#X#X].#X#X#X#X#X].].].].].#X#X].#X#X#X].].].+X].].].{.].oX#X].].].{.$X#XV.n.a : o O o o & & O O O O O O O o o O   f $X{.#X].].]..X#X#X#X#X#X|.].].].#X#X#X#X#X#X#X#X#X#X#X#X#X#X+X#X#X#X#X#X#X#X#X#X#X#X#X].].].].].].#X#X#X#X#X#X#X#X#X#X#X#X.X[.`.B.;.g.d.d.d.d.d.d.d.d.d.d.d.a.f.d.d.a.d.d.d.d.d.d.d.d.d.d.d.d.d.d.d.d.d.a.u.u.p.a.d.d.d.d.d.d.a.d.d.d.d.a.a.d.d.d.d.d.d.d.a.d.d.d.d.a.a.a.d.d.d.d.d.a.a.a.a.d.d.a.a.a.d.d.a.d.a.a.d.i.q.i ; & & O O & O o O o O O O O O o O o o O O o O o o X o o o o O O O O O o O O & & : > a f n.V.V.V.R.`.[.].].].]..X.X].#X#X#X#X#X#X#X#X#X].].]..X.X].].].].#X#X].].].+X#X#X#X#X#X.X.XoX]..X.X#X#X#X#X#X+X.X.X.X.X+X+X+X+X.X).T.8.9.g.d.d.d.d.d.d.d.a.a.a.a.a.a.a.a.i.i.a.d.d.d.d.d.a.d.a.i.i.d.d.d.d.d.d.d.d.f.d.a.i.a.a.a.a.a.a.a.a.a.a.a.a.d.d.a.a.i.i.a.i.a.a.a.i.i.i.i.a.a.d.d.d.a.a.i.i.i.a.a.a.a.a.a.a.d.a.d.d.d.d.d.d.d.d.d.d.d.a.a.a.i.a.a.d.d.a.a.a.i.a.a.a.a.a.a.d.a.a.a.a.i.d.a.a.a.a.d.a.d.d.a.d.d.a.d.u.i.a.a.i.d.d.",
"k l h h j h h h h j h k k c c c c k k k k k k k k h k k h h h k k c k c c c c c c c c k k k c n c k h k c c k k k k k k k h h k k k c c c c c h k h h h k c k k h h h c c k c n n c c k k k k k h k k c c c c c k k c c k k c k k k h k c c c c c c k c c c c n n n k k k k k c c k k c c c k c c k k c c n n n n c c h h k k c n n n k n n k k n n n n n n n k n n k k k n n z z n n n n k k k k z z z n n M n n n n n n n k k k k z n n n n k z n n n n n z z n z k n c c k k k k n n c c n k k z k z n n n n n n n n z n n n n n n n n n n n n n n n n n n n n n n n n n m n n n n n n M n n M n n n n n n n n n n z n n n n n n n n n n n n n n n n n n m m N n n n n n n n n n n n n n m m m m n n n n n n n n n n n n n n n n n n n n n n n n m n n n n n n n m m n n n n n n n n n n n n z z z n n m m n n n n n m m m N n n n n n m m m m n n m n n n n n m m m n n n m n n n n n n n m n n n n n n n n k k c k l l l j j j < < < < < < , , , # # @ @ @ 3 }.{.#X+X#X#X#X#X#X#X#X#X#X].].].+X].#X|.#X#X].].#X#X#X#X#X#X#X#X#X].].].].].#X#X#X].[.]..X].#X]..X].].{.].].].].#X#X`.n.a = o X + O o o O O O O O O O O O o o o O o > ].#X#X#X#X#X#X#X#X#X].#X.X].].].#X#X#X#X#X#X#X#X#X#X#X#X#X#X#X#X#X#X#X#X#X#X].#X#X#X#X#X].#X#X#X].|.#X+X#X#X#X#X#X#X#X#X#X].].`.R.;.8.g.a.d.d.d.d.d.a.d.d.d.d.d.d.d.d.a.d.a.d.d.d.d.d.d.d.d.d.j.d.d.p.u.p.a.d.d.d.d.a.d.d.a.d.a.d.a.d.a.a.a.a.d.a.d.a.d.d.d.a.i.i.a.a.a.a.d.d.a.d.d.i.i.i.i.a.a.a.a.a.a.a.a.a.a.a.a.f.r.8.t * = & O O o o o o o o O O o o o O o O & O o o X X o O O O O & O O O : & = > a f n.C.V.R.`.`.`.`.[.].].].].].].].[.].]..X.X.X].].#X#X#X+X#X#X.X.X].].].#X.X].].].[.].].].].].].].].]..X#X.X]..X].]..X.X.X].#X+X+X+X+XXXXX_.t.r.a.d.d.d.a.d.d.a.a.a.i.i.i.a.a.i.i.i.a.a.d.a.a.d.d.f.d.d.i.u.d.a.a.a.i.a.a.a.a.a.a.a.a.a.d.a.i.a.a.a.a.i.d.a.d.a.a.i.u.i.i.a.i.u.u.i.i.i.i.i.i.i.a.a.a.a.a.i.i.i.a.i.i.i.i.a.a.i.i.i.a.a.a.a.a.a.i.i.i.a.a.a.i.a.d.a.i.i.i.a.i.i.i.a.i.i.i.i.i.i.i.i.i.a.a.i.a.i.i.d.a.i.i.i.a.a.i.i.a.i.i.i.a.",
"h h c c k h l h h k k k k c k k c c c c k h h c k h k k h k k k k k c k k k k k k c c k k k c c n n n k c c k n n c k k k h h h h k k h c c c c c c k h h c c c c c k k c k k n c c n n c k c c k h k k k k k k k c c k k c c k k k k k n n c c c c c c k c c c n n n k k k k c k c c c c c c k c c c c k k k n n c c c c c k k z n n n k n n n n z n k k n n n n n n n k k k z n n n n c c z z n n n n n z n n n n n n n n n z z n n n n n n n z k n n n n n n M n n n n n z n n k n c k c c k n z z z z n n n n n c c z n n n z n n M n n n n n n n n n n n n n n n n n n n M n n n n n n n n n n n n n n n n n n n n n n n n n n n n n n n n n n n n n n m m n m m n n n n n n n n n n n n m m N m m n n n n n n n n n n n n n n n n n n n n n m n n n n n n n n n n n n N n n n n n n n n n n n n z n n n n n n m m n n m n n n n n z n n m m m m m n n M n n n n m n n n n n n n n n n n M n n n n z n n z k k c k k l l l j j j 2 < < < < , , , , # @ @ @ @ J.$X{.].].#X#X#X#X#X#X#X#X#X#X#X#X#X].].|.|..X.X].#X.X].].].].#X].].].].].].#X#X#X#X].].#X|.#X#X].].].].{.#X#X].V.f > o   o o o o o o o o O o O O O O o o O O O O O X n.#XoX#X#X#X#X].].[.].#X#X#X].#X#X#X|.#X#X#X#X#X#X#X#X#X#X#X#X#X#X].].#X].#X#X#X]..X#X#X].].#X].#X#X].#X#X#X#X#X#X#X+X].#X].].[.R.w.=.i.d.d.f.a.f.d.a.a.d.d.d.d.d.d.d.d.d.d.a.d.d.a.d.j.l.x.d.a.u.u.i.d.d.d.d.d.a.a.a.a.a.u.u.i.i.p.i.i.i.i.i.i.u.a.a.i.i.a.a.u.u.u.u.u.u.u.i.i.i.i.i.i.u.i.u.i.u.i.i.u.u.i.i.i.i.i.i.i.q.u ; & & O & O O X o o o o o o X O O o o O O O o X o o o O o & & ; ; ; > y g n.C.V.V.V.~.`.`.[.[.[.[.].[.[.].].[.[.[.[.].].].].].].].+X.X#X#X#X#X#X].].].].].].].[.[.[.[.[.[.[.].].].].].].].].].[.[.].].].].]..XXX@X@X_.T.g.g.f.d.d.a.a.a.a.i.i.u.u.u.u.u.i.a.i.i.i.i.u.u.i.a.d.d.f.d.a.a.i.a.i.u.i.u.i.u.i.i.i.a.a.d.d.d.a.d.d.a.p.i.i.i.i.i.u.u.u.e.e.e.u.u.i.u.e.u.e.e.i.e.e.e.u.u.u.u.e.e.e.e.e.e.e.e.u.i.u.i.i.i.i.i.a.i.i.u.u.u.u.i.i.a.i.u.i.i.u.u.u.u.i.i.e.i.e.e.e.e.e.e.e.e.e.e.e.e.e.u.u.i.i.u.e.u.i.e.e.e.e.e.e.e.",
"k h h c c c k k h h k k k k k c k k c c c c h h h h h h h k c k k k c k k k k h h h k k c k k c n n n n n n n c c k c k k c c k h k h h k k k k c c c k h h k c c k h h k k k c c n n n k k c n n c k k k k h h k c k k c c c k k k k k c c n c c k k c c k k k k k c n n c k k k k k c k k k k k c c n n k k z z k n n c k k c k k k n n n n n n k n n n z k n n n n n n z k n n n n c c n n n n n n n n n z k n n n z n n n n n n n M n n n n n n n n n n n n n n n n n n n n n n n n c c k k n n n n n n n n n k k k n n n n z z n n z n z n n n n n z n n n n n n n n n n n n n n n n n n n n n n n n n n n n n n n n n n n n n n n n n n n n n n n n n n n n n n n n n n n n n n n n n n m m m n m n n n n n n n n n n n n n n n n n n n n n n n n n n m m n n z n n n n n n n n n n n M M n n n n n n n m m m m m n n n n n n n m n n m m m n n n n n n m n n n z n N n n n n z n N n n n n n n n n n n n n n c k k k k l j j j j j < < < , , , , , # @ @ @ E $X{.].].|.#X#X#X#X#X#X#X#X#X#X#X].].].#X#X#X#X#X].].].].].].].].].].].|.#X#X#X#X#X#X#X#X#X#X{.].{.#X#X].C.f a = + o O O o O o o o o O O O O O o O O O o o O o O O   9 #X].].]..X].].].].].].#X#X].].].].].#X#X#X#X#X#X#X#X#X#X#X#X.X].].#X#X#X#X#X.X].].#X.X#X#X#X#X#X].].].]..X#X#X#X#X#X#X#X].].[.).B.;.q.g.i.a.a.d.d.d.d.a.a.a.a.d.d.a.d.d.d.d.d.d.d.j.d.a.u.u.i.d.d.d.a.d.f.a.a.a.p.p.u.u.u.u.u.u.u.u.e.e.e.e.e.e.e.e.e.e.e.e.e.e.e.e.e.e.e.e.e.e.e.e.e.e.e.e.e.e.e.e.e.e.e.r.e.e.e.e.i.0.=.w * & O O O O X o o + o o o o o X X X X X + o o X o o O * * ; w t p f C.V.V.V.V.).).`.`.`.`.[.[.[.`.[.`.`.[.[.`.`.`.[.[.[.[.[.[.].].].+X+X.X#X.X].].].[.[.[.[.[.[.[.[.[.[.[.[.[.[.[.[.[.[.[.[.[.[.[.XXXXXXXXXXXX_.T.r.r.i.a.i.i.u.i.u.e.e.e.e.e.e.e.e.e.e.e.u.u.e.e.u.u.u.u.i.i.a.i.i.i.u.a.u.u.e.e.e.e.e.e.u.a.a.a.d.d.d.d.a.a.p.i.u.u.u.u.e.e.e.e.e.e.e.e.e.0.e.e.e.e.e.e.e.e.e.e.e.e.e.e.e.e.e.e.e.e.e.e.e.e.e.e.e.e.e.e.e.e.e.e.e.e.e.e.e.e.u.u.e.e.e.e.e.e.e.0.0.0.0.0.0.0.e.e.e.e.e.e.e.e.e.e.e.e.e.e.e.e.e.0.0.e.e.e.",
"k c k h k c c c k h k k k k k k k k k h h c c k h h h h h k c c k k k c c c k h h h h k c c k k k c c c n n c k k n c k k k k k k c k k k k c c c k k c c k c c k h h k k k k c c n n k k k c n n c c c k k k k h h k c c k k k k c c k k h k c c c c k k k k k k k k c c c c c c k k c k k k c c c c n n k z n n n n n n c c c k k n n n n n n k k k c n n k k z n z h k c n n n n c k k n n n n n k n n n n k k n n n n n z z z n n n n n n n n n n n k k n n z z n n n n n n M M z k c c k n n n n n n n n n n n n k n n n n n n z n n n k k n n M n n n n n n n n n n n n n n n n n n n n n n n n n n n z n n n n n n n n n n n n n n n n n n n n n n n n n n n n n n n m n m m m n n n n n n n n n m n n n n n n n n n n n n n n n n n n n n n n n n n n n B n n n m m n m m m n n n n B N n n n n m m n n m N m m m n n n n n n n m m m m m m n n n n n n n n n n n n m n n m m n n N m n n n n n n n n n n c k k k k k l l l j j < < < < < , , , , , @ @ @ - '.{.{.].].].#X#X#X#X.X#X#X#X#X#X].#X#X#X#X#X|.#X#X].].].].].].#X#X#X#X#X#X#X#X#X#X#X#XoX{.].#X#X].V.f a O + + o O O O O o o o o o o o O O O O o X o O o o o O O O o o C.#X].].].].].].#X].].#X#X#X#X].].#X#X#X#X#X#X].].].#X#X#X.X.X.X.X#X#X#XoX#X.X].].#X#X#X#X#X#X#X#X#X].#X#X#X#X#X#X#X#X#X].].].`.).w.;.g.d.d.d.d.d.d.d.p.f.d.d.d.a.d.d.d.d.d.l.j.a.u.p.a.f.d.d.d.a.a.f.d.d.f.a.a.p.u.u.e.e.e.0.0.0.e.e.0.0.0.0.0.0.0.0.e.e.0.0.0.0.0.0.0.0.0.0.0.9.9.9.9.9.9.9.0.0.9.0.9.9.0.0.e.e.e.e.e.8.y * * o O O o o X o + o o X o X X X X o o + X o O O * * ; t u ;.q.y.B.B.V.V.V.V.V.V.V.J.P.`.`.`.`.`.`.V.V.V.V.V.V.V.`.`.`.`.`.`.[.[.].].].].].].[.[.`.`.`.`.`.`.[.`.`.`.`.`.`.`.`.`.`.`.`.`.).`.).).XX).).T.t.q.q.8.0.e.e.e.e.e.0.0.0.0.0.0.0.9.9.0.0.e.e.e.e.e.e.e.e.e.e.e.e.u.i.i.a.i.e.e.e.e.e.0.9.0.0.e.e.e.e.i.a.d.a.a.a.a.i.u.u.e.e.e.0.0.9.9.9.0.0.0.0.9.9.9.9.9.9.9.9.9.9.9.9.9.9.9.9.9.9.9.9.9.9.0.0.0.9.0.0.e.e.e.0.0.0.0.9.0.0.e.e.e.e.e.e.e.e.0.0.9.7.7.7.9.9.9.9.9.7.7.9.9.9.9.9.9.9.9.9.9.9.9.9.9.9.9.9.9.9.9.",
"k k k h h k c c c k k k k k k h k k h h h c c c c c h h h h c k h k k k c k k k h k k k c c c k k k k c c c k c c k c k k k k k k k k c c c c c c c h k c k c c k h h h k c c c c c k k k c k k k c c k k h c c k k k c k h h k c k k k n k k k k k k k k k k k k c c k k c n n c k c c c k k c n c k k k c n n n n n n n n c c c c c n n n n n k h k c c c k k h k n n k k k c n z k k c c n n n n z n n n n k n n n n k k k n n z n n n n n n n c k c c c k n n n z z n n n n n n n k k k z n n z n n n n n n n n z n n n n n n M z n n n n z n n n n n n n n z n n z n M n n n n n n n n n n n n n n n n n n n n n n n n n n n n n n n n n n n n n m n n n n n n n n n n n n n n n n n n n m m n n n m n n n n n n m m n n n n n n n n n n n n n n n n n n n n n m m m m m n m m m n n m n n n n n n n n m m n m m m m n n n n n n n n n n m m n n n m n m m n m m m n n n n n n N n n n n m n n n n n n n n k k k k k k k l l j j j < < < < < , , , , , # @ @ @ E #X{.].].].].#X].].].].#X#X#X#X#X].#X#X#X.X].oX#X#X#X].].].#X#X#X#X#X#X].].].#X].].].].#X#X`.n.a : X X o o o o o O O O O O o o o o O O O O O o X X X o O O O o O o   f #X[.].].#X].#X].#X#X#X#X#X#X#X#X#X#X#X#X|.].].[.].].#X#X.X.X#X#X#X#X.X].#X#X]..X#X#X#X.X.X#X#X#X#X#X#X#X#X#X#X#X#X#X#X+X].].[.).B.;.r.z.d.d.d.d.d.d.a.f.d.d.d.d.d.j.l.l.d.p.u.p.a.d.d.d.d.f.a.d.d.d.d.d.a.i.i.u.e.e.9.9.9.9.9.9.9.9.8.6.8.9.9.8.8.9.8.8.8.8.8.8.8.9.9.9.6.6.8.8.8.8.8.6.6.8.6.6.6.6.6.6.6.9.9.9.9.0.q.8.i ; * O o X X X o o o + + X X X X o o X   X o X * * ; y i 8.q.r.r.q.B.).V.V.V.V.V.V.V.V.V.V.V.V.V.V.V.V.V.V.C.V.V.V.V.V.V.V.V.V.~.`.[.[.].].[.].[.`.`.V.V.V.V.V.V.V.V.V.V.V.V.V.V.V.V.V.V.V.V.V.).R.B.w.y.;.=.=.=.8.8.8.8.8.9.8.8.8.8.8.8.8.8.8.8.8.9.9.9.0.0.0.0.0.9.9.9.0.e.e.e.e.i.u.e.e.e.9.9.9.8.8.8.9.9.0.e.e.u.i.a.a.a.i.u.e.e.0.9.9.8.8.8.8.6.9.9.7.9.9.8.8.6.6.6.6.6.8.6.8.6.8.8.6.8.6.6.6.8.6.6.6.8.9.8.9.9.9.9.9.9.8.8.8.8.8.8.9.9.9.e.e.e.0.9.9.7.6.6.6.6.=.6.6.6.6.6.6.6.6.6.6.8.8.8.8.6.6.6.6.6.6.6.6.6.6.6.6.",
"h k c h h h k c k k k k k c k k c k k h h h h h h c h h h h k k c c c k h k k h h k c c k h k c k k k k k c k c c c c k k k k c c k k k k c k k h h h k k k c c c k h h k k k c k c c k n n k k k c k k c c k k c k k k k h k k c c k k n n n n k k k k c c k k k k c c n c k c c c c k k k k k k c k k k k c n n n n z k n c n n k k k k k n n c k k k c c c c k k c n c c c n k k k c c c n z z n n n n n n n n n n n k k c c n c n k z n n n n n c c c c k n n n n n n n n n M M n n n n n n n n n z k z z n n n n z n n n n n n z n n n n n n n M n n n n z n n n n n n n n n n N n n n n n n n n n n n n z n n n n n n n n n n n n n n n n n n n n n n n n n n n n n n n n n n n n n n n n m m n n n n n n n n m m m m n n n n n n n n n n n n n n n n n n n n n n m m n n m n n n n n n n n n n n n n n n n m m m n n n n n n n n n n n m n n n n n m m m n m m n n n n n n n m n n m n n n n n n n n n n k k k k k k k l l l l j < < < < < , , , , , # @ # @ 3 '.{.].].#X|.].].].].].].].#X#X#X].#X].].#X#X#X].#X].]..X].].#X#X#X.X].].].].].].].#X[.V.f > + + + o o o o o o O O O O o o o X o o o O o o o X X o X o o O O O o O o : `.].].].#X].].].].#X#X#X#X#X#X#X#X.X]..X].].].].].].]..X]..X#X#X.X].].]..X#X#X.X].#X#X#X#X#X.X].].].#X].]..X#X#X#X#X#X#X+X].].[.R.y.;.g.a.d.d.d.d.d.a.a.a.d.d.d.d.d.a.u.u.i.a.f.f.a.a.f.a.d.d.d.d.d.d.f.i.i.i.e.e.9.9.8.8.6.6.6.6.6.6.=.6.6.6.6.=.6.=.=.=.6.6.6.6.6.6.=.=.=.=.i i i =.=.=.=.=.=.=.=.=.=.=.=.=.6.6.8.8.8.=.w * O X X X o o X + X X X X X X X X o X   X * ; y i ;.8.9.0.u.e.q.w.B.V.C.C.n.n.n.n.n.C.C.V.V.V.C.C.C.n.n.n.n.n.n.C.C.C.C.C.V.V.V.R.`.`.[.`.`.`.V.V.V.C.C.C.C.C.C.C.C.V.C.C.C.C.C.C.C.C.C.V.C.y.f i i u i i i i i i =.i =.=.=.=.=.=.=.=.=.=.6.6.6.6.6.8.8.9.9.7.9.8.8.8.9.9.9.0.e.e.e.e.0.9.9.8.6.6.=.6.6.6.9.0.e.e.e.u.i.i.e.e.e.e.0.9.8.6.6.6.6.6.6.6.6.6.8.6.6.=.=.=.=.=.=.=.=.6.=.=.=.=.i i i =.=.=.=.6.6.6.8.6.6.6.6.6.6.6.6.=.=.6.6.6.9.9.9.9.9.9.8.6.=.i i i i i i i i i i i =.=.=.=.=.=.=.=.=.=.i i i i i i i i =.",
"k k k k k k k h k k k k k k k c k k l l l h k c k c k k h h k k k k c c c k k k h h k k k k k h k k k k h k c k k k c c k k k c c c c k h k k k k k h k k k k c c c k k c k h k k k k k c c c h h k c c c k h k k k h h h k c n n n c k c c c n c k h h k k c k k h k c c c k k c c c c c c k k k k c k k k k c k n n k k n n n n c k k k k k c c c c k c c c c k k k c c c c n c k c c c k c c n n n n c c k k k n n M n n n z n z k k h k z z n n c k k k c n n n n n z n n n n n n n n n n n n n n k k n n n n n n n n n n n z n n n n n n n n n n n n n n z n n n n n n n n z n n n n n n n n n n n n n n n n n n n n n z n n n n n n n n n n n n n n n n n n n n n n n n n n n n n n n n n n n n n n n n n n n m m m N N m m m n n n n n n n n m m n n n n n n n n n n n n n n n n m m m m n n n n n n n n n n n n n n m n m n n n n n n n n n n n m n m m m m m m m m n n n n n n n n m m n n n z n n n n n n c c k k k k l l l j j < < < < , , , , , # @ @ # @ m.#X{.].].].].].].].].#X].].{.#X#X#X#X#X#X#X#X#X#X|.].].].].].].#X#X#X].].#X#X#XJ.f > O   o O o o o o o O O O & O o o X o o o o o o o o O o o o X X o o O O O O O O X n.#X].#X].#X]..X].#X#X#X#X#X#X#X#X#X].].].].].+X#X#X#X#X#X#X#X#X].oX#X#X#X#X#X#X#X#X#X#X#X#X#X#X]..X#X#X].#X#X#X#X#X#X#X#X+X].].).B.;.r.d.d.d.d.d.d.d.d.j.d.d.p.u.u.p.a.a.d.d.d.d.d.d.d.d.d.d.d.a.a.d.d.a.u.u.e.9.8.6.i i i i i i i i p p u i i i i i i u u i i i i i i u p p y y y y y u u i i u y y y p p p p i i ;.6.=.u * o X X                       X       X ; t p p p i =.8.9.0.0.9.8.w.C.n.E E f f f f E n.n.n.n.n.n.n.f f f g f E f n.n.n.{ n.C.C.V.V.R.R.V.V.V.V.C.n.n.E f f n.n.n.n.n.{ f f n.n.n.n.n.f a y y y y t t t t t y y y p p u p y p p p p p p p p i i i i i 8.6.6.6.6.6.;.i i =.6.7.9.0.0.9.9.8.6.=.i i p p p i 6.8.9.e.e.e.e.e.e.e.9.9.9.6.=.i i i i i =.6.6.6.=.=.i i u y p u i i i i i i p y y y y p u i i i i p p i i i i i p i i i i i i ;.6.8.8.8.6.6.=.i p y y y y t t t y y y y y y p i i i p p y p p y y y y y y p p ",
"k k k k k h h h k k c k k k k k k l l j l h h k k k k h k k k k k k k c c c c k h h h h h c c c c k k k h h h k k k c c k k c c k k c c k k k k h k k c c k k c c c k c k k c k k k c k k c c k k k c c c k k k c c k h k k c c n n c c c k k c c k k k k k k k k h h h k k k c c k k k c k c k c c k k k k k c k k k k k k c z n n n z k k k k c k k n c c c k c k k c c n n n c k c c c c k k c k n c c k k k c c c n n n n n n z k c c k k n c k k k k z n n n n n n z n n n n n n n n z z n n n n z k c c n c k n n n n n n n n n n n n n n n n n n n n n z z n n n n n n n n n n n n n n n n n n n n n n n n n n n n n n n n n n n n n n n n n n n z n n n n n n n n n n n n n M n n n n n n n n n n n n n n n n m m N N N N m m n n n n n n n m m n n n n n n n n n n n n n n n n n m m n n m m n n n n n n n n n n n m m m m m n n n n n n n n n n m n m m m m m m N m m n n m n n n n n n n n z n M n n n n n c c c k h l l l l l j 2 < < < , , , , , # # # @ s OX{.|.{.{.{.].].].].].].].].#X#X#X#X#X#X#X#X#X#X.X.X].].].].].].].{.#X|.`.C.a : + o o O o o o o X o o o o o o O o o o o o O O o X o o o X X X o O o O O O O o o o X > '.{.].#X#X#X.X.X#X#X#X#X#X#X#X#X|.].].].].#X].#X#X#X#X#X#X#X#X#X#X#X#X#X#X#X#X#X#X#X#X#X#X#X#X.X#X#X.X.X].]..X].]..XoX#XoX.X].`.R.y.q.z.d.d.d.d.d.j.d.d.u.u.u.a.f.d.d.d.d.d.d.d.d.d.a.a.d.d.d.a.a.d.a.a.i.e.9.8.=.y y y 6 y p u y y 6 y y t u u p t 6 y y y y y p p t 6 y 6 6 6 6 6 6 t y y t 6 6 6 6 6 6 6 6 y y p =.;.i ; X X     > 3 > > > > > > O   + + > > > w p y 6 y y y i 8.9.9.q.;.y.f 9 a 9 9 9 9 a a f { y.y.f E f 9 9 9 9 9 s g g g 3 9 9 a n.C.V.V.V.V.V.C.n.n.g 9 a a 9 a f f f a a d 9 a f g f a > > 6 : = : 7 6 > 7 7 6 6 6 ; ; ; > 6 6 6 6 6 y y y y 6 6 y p p p i =.=.=.i y p p p =.8.9.9.9.9.6.6.=.i t 6 6 6 y y p =.6.9.0.0.e.e.0.9.6.6.=.i i y y y y y p i i i i i i t y 6 6 t t p u u u t 6 6 6 6 6 6 6 t p y t y y y y i y 6 y y 6 ; y y y y =.6.8.6.6.=.i t 6 6 6 6 6 6 7 6 $ ; ; ; 6 6 6 y p t 6 y 6 6 ; 6 6 6 6 6 6 6 6 ",
"k k k k k h h k k k k k c k k k k l l l j j h k k k c c c k k k h h k k k c c c c k h h h h c c c k k k h k k k c c c c k k k c c c c c k c k h k h k k c k k c c c h k k k k k k k k k k k k c c k k c c k k k c c c c c c k k k c c c c c h h k k c c c c c k k k k k k k k k k k k k c k c c k k k k k k k k k k k k k c c k k n n n n c c k c c c k c n n z n z k k k k n n n k k k k k k k k k k k k k c c c n c c k n n n n n n k c c z n n k n n n n n n z z z z k z n n n n n n n k z n z n n n n n n n k k n n n n n n n n n n z n n n n n n n n n n n z n n n n n n n n n n n n n n n n n n n n n n n n n n n n n n n n n n n n n n n n n n n z n n n n n n n n n n n n n n n m n n n n n n n n n n n n n n n n m N N m m m n n n n n n n n m m n n n n z z n n n n n n n n n n n n m n m m n n n n n n n n n n n n n m m n n n n n n n n n m n n n n m n n n m N m m m m n m n n n n n n n n n n M n n n n n c k k k k l l l l j j < < < < , , , , , , # @ # J.#X{.].oX#X.X].].#X.X.X].].#X#X#X#X#X#X#X#X#X#X#X#X#X#X].].].#X#X].V.g : o   + O O O o o O O O o o X X o o o o o o o o O O & O o O O o o X X O O O O o X o X X o o X n.#X].#X#X#X#X#X.X.X#X#X#X#X#X#X#X#X#X].].+X#X#X#X#X#X#X#X#X#X#X#XoX#X#X#X#X#X#X#X#X#X.X.X#X.X.X.X.X].].].].].#X.X].+X#XoX.X].[.).C.;.g.l.d.d.d.d.p.u.i.a.d.d.d.f.d.d.d.d.d.d.a.a.a.d.a.d.d.d.d.d.a.i.i.e.0.9.8.i t ;X X^ + > t ; $ M.|.V.; t t ; $ M.;X[.P.g + 6 y $ M. XI.;X[.;X|.M.$ ; y * n. XI.I.;X;X;X;X[.+Xi i =.i t X       P. XU.I.;X;XI. Xn.+ + % ;X%XM.$ y ; a  X;X^ y 8.6.7.8.=.g a V.U.I.;XI.I.|.{ > s f f f a O {  XI.;XE = a g 9 d I.I.s f n.C.C.C.C.n.n.E 9 % M. XI.I.9 > a g > P. XP.% > a > + { U.;Xa   {  XP.I.P.I.[.[.;X9 +   ^  XP.I.;X;X;X;X;X%X^   n.%X#Xg p i i i p 6 ;X|.B.p 8.9.9.9.9.6.=.i y 6 :X;X;X|.^ ; i =.6.8.q.0.9.9.6.6.i i y $ g ;X[.;Xn.$ y p p p p ; 6 P.;X;XM.$ 6 y y w $ M.;X;X;X;X;XP.7 ; ; f ;X Xn.; y ; ^  X;Xa + :X XP.w i =.6.6.6.=.y g  XI.I.I.[.[.[.;Xf + + d  X;Xf ; y $ n. X;Xd + P. X;X;X;X;X;X;X",
"l l l k l l k k k k k c c c c k k k k l l l h k h k c k k k k k c c c k h h k c c c k h h h k c k k k k k k k k k c c c k k h k c c c k k k c k k k h k c c c k k k k h h h k k k k k k c k h k c c k k k k k k c c c c c k k c k c c c k k h h h k c c k k c c c c c c k c c k k c n c k k k k h h k k k k c k c k k k k c c k z z n n n c c k k k c n k k n n z n n n c k k k n n k k c n n c k c k k c c c n c c c c k k n n n n z k n n n n n n n n n n n n n n n n z k z n n n n n c c n n n n z z n n n n k k z n n n n n n n n n n n n n z z n n z z n n n n n n n n n n n n n n n n n n n n n n n n n n n n n n n n n n n n n n n n n n n n n n n n n n n n n n n n n n n n n n n m n n n n n n n n n n n n n n n n n m m m n n n n n n m m m n m m m n n n n n n n n n n n z n n n n m n m N N N m n n n n n n n n n n m m n n n n n n n n n n n n n n n n n n m m m m m m n n n m n n n n n n n n n z n n n n k k c k k l l l l l j < < < < , , , , , , # # @ E OX].#X#X#X#X#X].]..X#X.X].]..X#X#X#X#X#X#X#X#X#X#X#X#X#X#X[.C.n.a O   X o o O O O o o o O O O O o X X X o o o o o O o O O o X o o O o X X o o X o o o o o o O o o X a {.#X#X#X+X].].].]..X#X#X#X#X#X#X].].].].].#X#X#X#X#X#X#X#X#X#X#X#X#X#X#X#X#X.X+X#X#X#X.X#X#X#X#X#X#X#X#X.X#X#X#X.X].#X#X.X].].`.R.8.t.g.a.i.u.u.p.a.d.d.d.a.d.a.d.a.d.d.d.d.d.d.a.a.d.a.d.d.d.a.d.a.i.e.0.9.=.i 6  XU.P.M.>   9 M.I. X:X: ; + a M. XM.Y ;XP.{ $ ; + M. XI.d 9 9 P. XV.9 + + {  XU.{ 9 a a g g g y =.=.i y *     + :X XY.9 3 3 > :X XP.% %  X XM.$ y ; a  X X^ y ;.8.6.-.=.p 6 :X XY.9 9 9 P. X:X9 > g > a M.U.I.]  XI.M.> > > d I.I.d d n.n.C.C.n.n.f > d M. XY M.%XP.{ # 3 % I. XI.M.9 . > M.Y.I.U.a   { U.I.Y 9 9 9 { U.I.^   {  XI.{ 9 a a a a g 6 + {  X Xa y p u p y 6  X X:Xp 8.8.9.9.6.6.=.p y :X X{ % P.;Xg t i =.6.8.8.9.7.6.i i w > n.P.I.d  X;XM.9 ; p y $ { P. Xd I. X:Xa $ > a M. XM.9 a 9 { %XP.d + d  X X{ $ > $ ^  X X9 + P. XP.7 i =.-.-.=.i y g  XU.M.9 9 9 9 I. Xn.  d  X X^ $ t + {  XU.d   P. XU.d 9 a a a ",
"l l l l k k k k k k k k k c c c k k k k k k k k k k k h h h l h k c c c k h k h h k k h h h k c k k k k k k h k k h h k c k h h k c c c k k c c c k h h k c c k h c c k h h h h c c k c c k k k k k k k k k k k k k c c c k h h k c c k k h h h k c c c c k c c c c c c c c n n n k k k k k k k k k k k n n c c k c c k k c k n z z n n n c k h h k c n n k n n n n n n c k k k c c n n n n n n n c c k k n n n n n n n n n n n n n z z n n z z z z z n n n n n n n n n n n n n n n n c c c c c c c k z z n n n n n n z z n n n n n n n n n n n z z n k k k z n n n n n n n n n n n M n z n n n n n n n n n n n n n n n n N N n n n n n z z n n n n n n n n n n n n n n n n n n n n n n n n n n n n n n n n n n n n n n m m m m n n n n n n n n n m m m m m n m m n n n n n n n n n n n n n n n n n n m m m m m n n n n n n n n n m m n n n n n n n n n n n n n n m m m m n n n n n n n m m n n n n n n n n n n n n n n c c c k k k l l j j < < < < < < , , , , , , @ @ 1 ~.#X{.#X]..X]..X].].].].].]..XoX{.|.{.#X#X#X#X].#X&X#X[.V.a + X X X O O O O o o o o o X o o o o X X o o o X o X X X X X X o X X X o o X X o o X o X X X X o o o o o & V.#X]..X#X#X#X.X.X#X#X#X#X#X].].].].].|.#X].#X#X.X|.#X].#X#X#X#X#X#X#X#X#X#X#X#X#X#X#X#X#X#X.X#X#X#X#X#X#X#X#X#X+X].].#XoX.X].[.).w.y.g.i.i.a.a.d.d.d.d.d.d.d.d.d.d.d.d.d.d.d.d.d.a.a.a.a.f.d.a.a.a.i.e.9.8.=.p 6 U.I.U.U.] 9 {  XI.U.:X$ % s M. XM.> + { :XU.d %   M.U.I.> + + 9 M. XM.d   { U.U.d   ; ; ; t y i =.6.=.i w X   + :XU.M.+ . .   M.%X X> % U. XM.$ y ; a  X X^ y =.6.6.=.i p : M.U.M.% % % 9 :X%X{ 9 % 9 }  XM.d   { :X X{ 3 + d I.I.a a f n.n.n.n.f 9 d :XP.{ % a M.P.I.q % # I.U.U.U.{ 9 ]  XI.Y.U.s   { U.I.5   +   9 I.U.M.  { U.I.0   & & ; ; ; > $ {  X Xa 6 y y y w 6  X X:Xy 8.8.9.9.8.6.i y y I. XY   :X%X^ ; i i =.8.8.7.6.=.i w 6 {  XP.f   { J. X{ 6 ; a ^ ;XI.n.  f M.U.M.a + d  X X{   $ + 6 M.M.f   d U. X{ + > + d U. X9 + :XU.P.; p i =.=.=.i 6 d  XU.{ + $ + $ I. XM.+ d  XU.d $ > + {  X Xd   Y.U.I.>   $ & : ",
"l k k l k c c k k k k h h k c c c k k k k k k k k k h k c h h h h h k c c h h h h h h k c c k k k k k k k k h k k h h h k k k h k k c c c k k c c k h h k k c c k c c c c k h h k c c c k k k k k h h h k k c c c k c k c c h h h k c k k h h h k c c k k k k k k c c c c c n n c c c k k k k k k k k k n M n k k c n n k k c n z z k c k k k h k k c k n n n n n n n k k k c n k k n n n n k c k k k c n n n n n n n c c n n n n n z z n n n z k k k k k k k c n n n n n n n c n n z k k k c c c c n n n z z n n n n n n n n n n z n n n n n n n n n n k k n n z n n n z n n n n n n n z n n n n n n n n n n n n n n n n m N n n n n n n n n n n n n n n m n n n n n n n n n n n n n n n n n n n n n n m m m n n n n n n m m m n n n n n n n n n n n m m n n n m m n n n n n n n n n n n n n n n n n n n n n m n n n n n n z n n m m n n n n n n n n n n m n n n n m m n m n n n n n n n n n n n n n n n n n n n n z z k k k k h k l l l j j < < < < < < , , , , , @ # @ >.$X{.{.oX.X].].].]..X.X].#X#X#X#X].].].].#X$X$X].n.f > O X o o o o O o O O o o O o o O O O X X o O O o o X o X X X X X X X X o X X X X o o o o o X o o O O o O o o X g #X].].#X#X#X#X#X#X#X#X.X].].#X#X#X#X#X#X#X#X#X#X#X#X#X#X#X#X#X#X#X].#X#X#X#X#X#X#X#X#X#X#X#X#X#X#X#X#X#X#X#X.X]..X].]..X].].].).B.i g.d.a.d.d.a.d.d.d.d.d.d.d.d.d.d.d.d.d.d.a.d.d.d.d.a.d.a.a.a.i.a.e.9.6.=.p 7  XU.U.U.U.U.U.U.I.U.:X+ > I.U.M.  + O   d U.U.9   M.U.I.> O :   d  XU.:X  {  XU.d   ; ; ; y i i 6.6.8.=.u ;   + :XU.M.+   .   M. X X> % I. X:X% $ + d  X X^ y =.6.6.=.i y $ M.U.M.% > > + ] U. XM.  P. XI.3 O > + q U. X{ . Y I.I.a 9 f f >.E f g a I. Xn.  & &   {  XI.% . I.U.I.U.U.U.U.I.I.I.U.s   { U.I.9   $   9 I.U.M.  { U.I.q   + + $ ; w > $ {  X X9 ; 6 ; w ; 6  X XM.y i 6.9.9.6.=.i p ; d I.:X} ;XV.6 $ w y i =.6.6.=.i p ; M. XI.9 + $ + 9 U. XM.  M. X Xd + ; $ $ :X XP.+ d  X X{   $ $ +   + $ $ a I. X} + + + ]  X:X> + :XU.P.: p i i =.i i 6 g  XU.} + + + $ I. XM.+ d  X X{ + +   { %XM.>   :XU.I.>   + O $ ",
"h l l h k k k k k k k h h h h k k h k k k k k k k h k k c c c k h k h h h h h h h k c k k c k c k k k k k k h k c k c c h h k k k h k c k k c k k k h k k k c c c c k k c c k k k k c c k h k c c h h h k k k c k k k k k k k c k k c c k c c c k k c k k k k k k k k k c c n c n n c c c c c k k k c z n n c k c c c c k k n n n k k n c k k k k k k c k n n n z n n k k z z z z k k k k k k k c c n n n n n n k k k k c n n n n n n n n n n n n k h h k k k k k k z n n n n n n n z k k k c c c c k n n z n n k n n n n n n n n z n n z z n n n n n n n n n n z n n n n n n n n n n n n n n n n n n n n n n n n z n z n n z n n n n n n n n n n n n n n n n n n n m n n n n z n n z z z n n n n n n m m m n n n n n n n n n n n M n z z z n n n z n n n n n n n n n n n n n n n n n n n n n n n n n n n n n n n n n n m N m n z n n n n n n n n n n n n n n m n m m n n n n n n n n n n m n n n n n n n n n n n z n n n k k k k k k l j j j j < < < < < , , , , @ # # @ 3 }.{.#X#X#X#X{.oX#X#X#X#X#X#X#X].].#X#X&XoXV.n.a X   X o + X X X o o o o o o o o o o O O O o X O O o o X X o O o   X X X X X o X   X o o o o o o o O O O o o O O o o : ~.#X].#X#X#X#X#X#X#X#X].#X#X#X#X#X#X#X].#X#X#X].].].#X#X].].].#X#X].].#X#X#X#X#X#X#X#X#X#X#X#X#X#X#X#X#X#X#X#X#X#X.X]..X.X].].`.T.;.8.z.a.d.a.d.d.d.d.d.d.d.d.d.d.d.d.d.d.d.d.d.d.d.d.d.d.d.d.d.a.i.e.9.6.=.p 6  X X} % M.%XM.% M. X:X+ 3 I.U.M.  + O   d U.U.9   M.U.I.> + ; + d  XU.M.  { U.U.{ > 9 9 a 6 p i 6.6.6.=.i y ; $ :XU.I.{ f { Y I.} % $ : > M. XP.q { I.;X^ 6 p 6.6.6.=.i y $ M.U.M.% > > O ] U. X{   P.U.I.3 O > + q U. X{   Y I.I.a > g f f f f a a I.U.{ . = =   {  XI.% . I.U.Y.5 ]  XM.% M.U.U.a   { U.I.5     O ] U.Y.%   E U.I.{ 9 d d d a ; ; + {  X X9 + 6 a 6 $ 6  X X:Xy i 6.6.9.8.=.i ; $ 9 I.U.U.P.+   6 a y p i =.=.=.i p $ M. XI.6 + : + 9 I. XM.  M. XU.d + > : % P. XP.+ 9 :X X:X^ { { ^ f > $ ; + a I.I.{ 9 { U.M.% + + :XU.P.$ y i i i i p ; g  XU.P.{ { { {  Xd % $ $ 9 P.U.{ 9 M.I.M.$   + :XU.I.{ f { { { ",
"h l l l l h k k c k k h h h h h k k h k k h h h k h l k k k h h h k k k k k k h h k c c k k k k k k c c c k h h k k k c k k k k k k k k k k k k h h k h k k c k c c k k h k c k k k c k k h k k c k h k c k k k k k k k k k k k k k c c c k c c c c k c n n k k k k k k k k k c c c k k c k c c k k k n n k k k k k k k k k c n n k c c n k c c h k h h k k k z n n n n n n z k c c c c k k k k n n n n n M n n k k c k k k c k c k n n n n n M n k k k k k k k c z z n n n n n n n z n n c k k k k k n n n n n n n n n n n n z z z n n z z n n n n n n n n n n z n n n n n n n n n n n n n n n n n z n n n n n n n z z n n n n n n n n n n n n n n n n n n n n n n n n n m n m m n n n n n n n n n n m m m m n n n n n n n n n n M n n n n z n n n n n n n n n n m n n n n n n n n m n n n n n m n n n n n n n n n n n n n m N m n z n m n n n n n n n m n n m n n m m n n n n n n z n m m n n n n n n z z n n n n n n M M n k k k k k l l l j j < < < < < , , , , # # # @ m.$X{.{.#X#X#X#X#X#X#X].].].].].#X].`.C.a O + o O O o o o o X X X o O o o X X o o o o o o o X o o O o X X o o X   X X X X o o X   X o X X X o O O O o X X o o o O O   n.$X].#X#X#X#X#X#X#X.X]..X].+X#X.X#X].|.#X#X#X.X].].].#X].].].].#X#X].].#X#X#X#X#X#X#X#X#X#X.X#X#X#X#X#X#X#X#X#X#X#X#X#X.X.X].[.R.w.;.g.g.d.d.a.f.d.d.d.d.a.d.d.d.d.d.a.d.d.d.d.d.d.d.a.a.d.d.d.a.i.e.0.8.=.p 6  X X{   f |.f   M. X:X+ 3 I.U.M.+ + +   d U.U.9   M.U.Y.> + ; + d  XU.M.. { U.I. X X X|.%Xg y =.6.8.8.6.=.i y : P.U.I.P.P.P.P. XY.% $ ; $ 9 ;X XU. X XM.; p i 6.6.6.=.i y $ M.U.M.% : > + Y U.U.{   P.U.I.9 + % + q U. X{   Y U.I.s > g g g g g 9 9 I.U.{   + + . { U.I.% . P.U.Y.@ a P.{   { U.U.a   { U.I.] a 9 M. XM.9     E U.Y.I.I.;X;X;XV.: ;   {  XU.q + M.%XM.+ %  X X:Xy i 8.8.8.8.i p a M.%XM.{  XP.%   { %XV.y i i =.i i p $ M. XI.9   O   9 I.U.M.  M. XU.d + $ $ % Y. XP.$ $ $ M.;XI.I.;XI. X{ + $ ;   f U.U.U.I. X7   & + :XU.P.$ y i i i i p ; g  XU.I.:XV.M.P. Xa + ; ;   d  XU.U.U.M.  + $ + :XU.I.I.P.P.[.P.",
"c k h l h k k k k k c c k h h h h h l k k h h k k k k k k h l l k k k k k k k k c k k k c k k k c k k k k k k c k k k h c c c k k h h h k k h k k c c k k h k k k k k c c k k k k k c c k k k k c k h h k k k c n n k k k k c k k k k k k c c c c n n k n n c k k k k k k k k c c c k k k k k c c k k k k n n c k k k k k k n n n c n k k k k c k c k c c k k k z n n n n n n n n n c n c k k k c n z z n n n n n n n n c k k k k k k k k k z k k n n M n n k k n n n n n n k k k z z n n k k h k k k z n n n n n n n n n n n n z z n n n n n n n n n n n n z n n n n n n n n n n n n n n n n z n n z z n n n n n n m n n n n n n n n n n n n n n n n n n n m n n n n n n n n n m m n n n z z n n n n n m m n n n n n n z n n n z n m n n m n n n n n n n n n n n n n m m n n n n n n n n n m m n n n n n n n n n n m n n n n n n n n n n n n n n n n n m m n n m n n n n n m n n n n n n n n n n n n n n n z n n M n n n z n n k k c c l l l j j < < < < , , , , , , @ # @ s OX{.#X#X#X].].].#X#X].].#X#X{.C.a : o   o o o o o o o o o O o o o O o o o X o o o o o o X X X o o X X X X X X X X X X X X X X     X o o o o O X o X X o O O O o O o 9 ].oX]..X#X#X#X.X.X#X].].].].].].#X#X#X#X#X#X#X].].].].#X].].[.].#X#X#X#X#X#X#X#X#X#X&X#X.X].#X#X#X#X#X#X#X.X+X#X#X#X#X#X#X#X].).B.;.q.z.a.d.d.d.d.a.a.d.d.a.p.d.a.d.d.a.d.d.d.d.d.a.d.a.a.a.a.a.a.e.9.8.=.p 6 ;X X{ + : : $ + M. XM.+ 9 I.U.I.P.J.V.J.Y.I.U.9   M.U.P.% + ; + d  XI.M.  { U.U.} 9 d d f t p 6.6.9.q.6.6.i p > P.U.M.% $ $ + M. XI.d $ y ; $ }  XU.d ; p 6.8.8.9.6.6.i y $ :XU.M.% : : . Y U.U.{   P.U.I.P.P.P.P.I.U. X{   Y U.U.s > a a g a a > 9 I.I.P.:XM.M.:XI.I.I.% . I.U.Y.% + $ $   } U.U.a   | U.Y.I.I.U.I.U.]   +   { U.Y.Y % % : : ; ; ;   {  XU.] :X X X X{ 0  X XM.y i 8.8.8.6.i t P. XU.9 + Y  XM.+ { %XV.t i i =.i i p $ M.U.I.P.V.V.M.P.I.U.M.  M.U.U.P.P.P.P.Y.U.U.Y.$ > ; : > : > $ 7 P.U.M.$ ; ; $ 9 Y.U.M.$ $ ; $ O :XU.P.$ y p i i i p ; d  XU.{ + $ $ % U. XM.> ; ; $ > I.U.M.$ $ ; ; + :XU.I.9 + $ : : ",
"k k h h k k k k h k k k c h h h h h h k k h h h k k k h l l l l h k k h k k k k k k k k k k h k c k h k c k k k k c c k k k c k k k c k k k k k c c k c k h h c c k h k c c k k c c k k k c c c k k h h h k k c n n n n c k k k k h h h k c c c n n z n n c k c c c k k k k k k k k c c c c c c k k k k k k k k k c c k k k n n n k c k h h c k k k k h k k k c z z n n n n n n c n c c c h h k k k n z n n n n n n n n c k k k k c c k k n k k z n n n n n z k k n n n n n n z z n n z n c k k c c c n k z n n n n n n n n z n n n n n n n z z n n n n n n n n n n n n n n n n n n n n n n n n n z n n n n n n n n m N N n M n n n n n n n n n n n n n n n m m m n n n n n n n n n n n n n n n n n n n n n n n n n n n n n n m n m m m n m m m m n n n n m n n n n n n n n m n n n n n n n m m n n n n n n n n n m n n m n n n n n n n n n n n n n n m n n n m m n n n n n n n n n n n n n n n n n n n n n n n n n n n n n n z z k c k k l l l j < < < < < , , , , , # # # # J.$X].].].].].].].].#X].C.g a O   o o o o O O O o o o o o o o o X X X o o o o o o o o o o o X X X X o o X X X X X X X     o o X X X o o X X o o o o o o o o o o O O o V.].].].#X#X#X#X.X+X#X#X].].].].#X#X].#X.X#X#X].].].].].#X#X].].].#X#X#X#X#X.X#X#X#X#X#X#X]..X#X#X.X.X#X#X#X#X+X#X#X#X#X#X{.].[.R.w.;.g.a.d.a.a.a.d.a.a.d.a.d.d.d.d.d.d.d.d.d.d.d.d.d.a.a.a.d.a.i.e.9.6.=.p 7 U. X{ + > ; ; $ M. XM.+ 9 I.U.Y.{ n.n.{ M.I.U.9   M.U.Y.% + ;   a  XU.M.  { U.U.d + ; > t p i 8.9.9.9.7.6.i p 7 P.U.M.+ $ :   {  XU.^ ; y y + {  X Xg y 8.6.9.0.0.9.6.i p ; :XU.M.% : :   d U. Xn.  P.U.I.M.{ n.n.M.I. X{   Y U.U.s > a a a a a > 9 I.I.P.{ { { { :XI.I.% . P.U.Y.% $ & $ + { U.U.a   | U.I.d 3 9 P. X} +     { U.I.d   & ; ; ; ; :   { U.U.U. XM.d  X XU.U. XM.y i =.6.6.6.=.t M. X Xd   + Y U.M.I.{ ; y i i =.i i p $ M.U.I.M.n.n.n.M.I.U.M.  M.U.U.P.M.M.M.M.I.U.Y.$ : $ $ $ > > $ > P. XP.$ ; ; $ > I.U.M.+ ; ; $ $ :XU.P.$ y p i i p p ; d  XU.{ + : : % I. XI.6 ; 6 ; % I.U.M.+ ; ; ; + :XU.I.> + ; ; 6 ",
"h h k k k k k k k l h h h c c k k k c k k h k k h k k h h h h h h k h k k k k k k k k c k k k h h h h c c k k k k k k k k k k k k k c k h h h k k k k k k k k k k k k k k k k c n k k k k k c c c k h h h k k c k c n n k k k k c k k h h h h k k c n k k c c c k n c c n c k k h h k k k c k k k k k k k h k k k k k k n n z z c c k k h k k k c n n k k k k k k z n n k k z k k k k k h h k c k k n n z n n n n n n n k k c k k k c n n n n z z z n n n n n z k c n n n n n z n n n n n n n n n c n n n z n z z k k k z z n z n n n n n n n n z n n n z z n n n n z n n n n n n n n n n n n n n n n n z n n n n n n n n n n n n n n n n n n n n n n n n n n n n n n n n n m n n n n n n n n n n n n m n n n n n n n n n n n m m m n n m m n m m m m n n n n n n n n n n n n n n n n n n n n m m n n n n m m n n n n n n n n n n n n m N m m m m m N m N m n n n n n n n n n n n n n n m m n m m n n n n n n n n n n n n n n z k k k k k l l l j j j < < < < , , , , # # # @ E |.{.].].].'.#X].V.f a O       + o o o o O o o o X X o o X o o X X o o X o X X o o X o X o o X o X o X X o X X o X X X X X X X X X o o X X X o o o o X X o O o O O X a #X].#X#X#X#X#X.X].oX#X].].].].]..X].]..X#X#X#X#X#X]..X#X#X].#X#X#X#X#X]..X#X#X#X#X.X#X#X].#X#X#X#X#X.X#X#X#X+X.X#X#X#X#X#X.X].`.B.;.w.g.a.d.a.a.d.d.d.d.d.d.d.d.d.d.d.a.d.d.d.a.d.a.a.d.a.d.d.i.e.9.6.6.i 6 U. X{ $ y t 6 $ M. XM.+ 9 I.U.} + + +   d U.I.9   M.U.Y.%   o   {  XM.d   { U.U.d   : ; 6 y u i 8.9.9.9.6.=.i 6 P.U.} + + $   {  X X^ ; p y $ {  X Xd p 6.7.0.e.0.9.7.=.p ; :XU.M.+ + + . {  XP.d   P.U.Y.%   + . 5 I. X{   Y U.U.9 + > > > > > % 9 I.U.{   +     Y U.I.% . Y.U.Y.% ; ; ; + } U.U.a   } U.I.>   + 9 P. XM.%   { U.I.d   + + $ $ $ &   { U.I.U.Y.9   f P. XU. XM.y i 6.7.7.6.6.y 7 %X Xd     %  X X X^ + y i =.=.=.i i $ M. XI.>   +   % Y.U.}   } U.U.d   $ $ + :X XY.+ > C.n.^ $ ; $ % P. XI.$ ; t ; 6 I.U.M.+ ; ; ; $ :XU.Y.+ ; ; t y t y ; d  XU.{   $ + $ I. XI.6 w t ; % U. XM.$ ; ; ; O :XU.U.>   $ $ ; ",
"k l h k k k k k k l l h h k k k k k c k h h k k k k k k k k k k k k k c k k k k k k k k k c c h j h k c k k k k k k k k k k h h h k k k k h k c h h k k k k k h k k k k k k k c n n k k k c c c c k h h k k k c c c c k c c k k c c k k h h h k k c k k k k k k k z n c n n c k k k k k k k k k k k k k k k k c c c c c c n n z k k k k k k k k n n n n z n n n k z k k k z k k k k k k k c c z k k z k k k z n n n n k k k n c k c n n n n n n n k k z z n n n k k c n n z z n n z z z n n n z n n n n n k c k k k k k n n n n k k z n n n M B n n n z z z n n n n z n n n n z z n n n n n n n n n n n z z n n n n n n n n n z n n n n n n n n n n n n n n n n n n n n n n m n m n n n n n m m m n n m n n n n n n n n n m m m m n n n n n n n n m m m m m n n n n n n n n n n n n n n n n n n n n n n m m m m n n n n n n n n n n m m N N m m m m m m m N N n n n n n n n n n n n n m m m m m n n n n n n n n n n n n n n n n k k k k k k k l j j j < < < < , , , , , # # @ , '.{.{.{.#X[.C.a O     o X X X X o o o X o O o X X o o o o o X X o o o o o X X X X o o X X X X X X X X o X o X X X X X X o o o X o o X o o X X o X X X X o o o O O X : V.#X].oX#X#X#XoX].].].].].].].].].+X.X.X[.#X#X#X#X#X#X#X#X#X#X#X#X#X.X.X]..X.X#X.X].].].].#X#X#X#X#X#X#X].+X#X#X#X#X#X#X#X.X].[.).y.;.g.a.a.d.a.a.d.a.a.d.d.d.d.d.a.a.d.a.a.d.d.d.d.a.a.d.d.a.i.e.9.8.6.i 6 ;X X{ ; p y y ; M. XM.+ 9  X XM.$ > ;   d  X X9   M.U.I.d 9 9 { P.M.> +   {  XU.} 9 g g g g g p 8.q.0.0.7.6.i 6 P. XY.a a a 9 :X XM.a 6 p p ; n.%X Xg p 8.0.e.e.e.e.7.6.i 7 P. XY.d 9 9 M.P.M.3 o + P. XP.% O : O 3 I. X{   ]  XU.{ 9 d d d d d 9 9 I.U.{   ; :   { U.P.% . P.U.P.: ; w t $ M.U.U.a   }  XU.6 $ ; + M. X X9   {  XU.{ 9 a a a a g >   {  XU.Y.9 + ;   a P.U. X:Xy i 6.8.9.7.6.p ; M. XM.a a {  XM.I.%X^ w i =.-.-.i i ; M. XI.7 $ ; $ > I. XM.  M.U. Xd $ ; ; $ :X XP.+ > V.%X Xd g a d  XI.{ ; y y ; 6 I. XM.$ 6 t ; $ :XU.I.9 a a a a g a $ d  XU.M.9 d a d  XP.{ > y y w ;  X XM.$ 6 t t $ P.U.U.] a d g g ",
"l l k k k k k h l l h h h h h k k k k k k k k k k c c c k h h k k h h k k k k k k k c c k c k h h c c k k k k k c k h k k k k j h c k k k k k k h h h k k k k k h k k h k k k k c c c c k k c c c c k k k c c k c c k k c c k c k k c k h h k h k c c n c k k k c c c k c c k k k c c c c k c k k k c k k c c c c k k k c n n n c c k k k k c c k k z k k k k k k k k k c n n z k c k n c n n z k n n n n k k k z n n k c c c c c k c c c n n n n n z k k k n n k c c k k k z n z z n k n n n k n n n n k k k k k c n n n n n n c c c n c z n n n n n n n n n n n z z n n n n n n n n n n n n n n n n n n n n n n n n n n n n n n n n n n n n n n n n n n n n n n n n n m m n n n n n n n n n n n n n n n n n n n n n n n n n n n n n n n n n n n n m n m m n n n n n n n m n n n n n n n n n n n n n n m m m m n n n n n n n n n n m n m m m m m m N m n n n n z n n n n n n n n n n n n n n n n n n n n n n n n n n z n n n n n n k k k k k l l j j < < < < < , , , , # # # @ E %X`.`.n.a o     X X X X X X X X o X X o o X X X o o o o X X X o o X X X X o o o o o X X X X X o X o X X X X X X X o o o o o o X X X X X o o X X X X X O O O O O o X f #X].oX#X#X#X.X.XoX.X].].#X].].+X#X#X#X#X#X#X#X#X#X#X+X#X#X#X#X#X#X#X#X#X#X.X.X#X.X.X].].#X#X].#X#X#X#X#X#X#X#X#X#X#X#X.X.X].[.).B.;.t.g.a.a.d.a.a.d.d.d.d.d.d.d.d.a.a.d.d.a.d.d.d.d.d.d.a.a.i.e.0.9.8.i t |.%Xn.; i i i w n. XM.O 6 [.;XM.; y t $ g |.[.9   M.I.P.I.;X[. X{   & 6 * ^ I.P.I.;X;X;X;X;X@X^ =.r.e.e.9.6.i y :X;X;X;X;X;X;X;XP.> ; p i i ; y.|.[.p i 9.e.r.r.r.r.0.8.i 6 P. X X X X|. X{   = 9 & V.I.P.> : > > > P.;Xf   Y  XI.U. X X X X|.%Xn.>  X%Xn.+ w w + f  XP.$ + :X;XV.; t y y ; n.;X;Xa   M. X X6 ; y ; n.%X;X9   {  XP.I.;X;X;X;X;X-Xf   {  XI.6 $ t t 6 $ % ;X;Xf y i 6.8.8.8.8.;.p $ M.|.;X;X%X{   { #Xp y 8.8.8.6.=.i ; M. XP.6 ; t ; 6 P. Xn.  n.;X;Xg ; y t $ :X X:X$ > + ^ ;X|.|.|.;X X{ + y u u t 6 P.;XM.$ y y y ; :X XI. X;X X X;X%XV.+ d  XI.I. X X|.;X Xd $ y u p y ; P. XM.; p y y ; :XU.I.;X;X;X;X;X",
"h l k l k k k k c k h h j j l k l k k k k h k k c c k k c c h h c c h h h k k k k k h k c k k k h k k c k k h k k k k k c k k k c c k c c c c h k k h k c c c c h h h k c c k c k h k k c c c c c c c k c c c c k k k k k k c c c k k h h h c c k k c c c c c k k c c k k h h k k c k c c k n n c c c n c c c c k k k k c n n n n n k k k k k c k c n n n n c c c k k k c c z n k k c c c c c n c c k c n n k k n n n c c c c c k c h k k h k c n n n n k n n n n n n n k k n n n z n c c k k k k n n n k k h k k c n c c c n n c n n c c c n n z n n n n n n n n n z n n n n M n n n M n n n n n n M M n n n n n n n n n n n n n n n n n n n n n n n n n n n n n n n n n m m m n n n n n n n n n n n n n n n n n n n n n n n n n n n n n n n n n n n n n n m m n n n n n m m m B m n n m N N n n n n n m m m n n n n n n n n n n n n m m m m n n m m m m n n z z n n n n n n n n n n n n n n n n n n n n n n M n n n n n n n n n n k k c k k l l j j < < < < < , , , , , # , @ 3 m.3 = +   X + + X X X X o X o X o X X o o o o o X o X X X X o o X X X X X X X X X o X X X X o o o O o X   X X o o o O O o o O X X X X o O O O o X X X X o o O o o o : `.#X#X#X#X#X#X#X#X.X].].#X#X#X#X#X#X#X#X#X#X#X#X#X#X.X#X#X#X#X#X#X#X#X#X#X#X#X#X#X#X.X.X.X+X#X.X#X#X#X#X#X#X#X#X#X#X#X#X].].].[.R.y.8.g.a.a.a.a.f.d.a.d.d.d.d.d.a.d.a.d.d.d.d.a.a.d.d.d.d.a.u.e.e.9.8.8.p y.y.p p i =.=.u y p y t t y a y t p p y 6 y y ; ; > 7 7 > 7 6 6 ; ; y y t 6 6 6 7 7 6 6 6 y p p 9.e.e.r.e.9.8.p p g a a 6 6 6 a y t i i =.=.p y p p p 8.0.e.e.i.e.r.0.9.8.p p g a g g a s 3 9 a g > 9 a a > a a a > 9 a > > 9 s a s a a s a a a 6 > ^ ^ p ; y y ; 6 a y ; ; y a y ; y u u t y a a ; ; p f f y p i y p ^ ^ y ; 6 y 6 6 6 y 6 6 y y ; ; 6 a y ; y y y p y ; p y t i =.6.6.9.9.8.8.8.p y y y y y 6 6 6 y y 8.8.8.8.8.8.8.u p f g t y y y ; y a 6 ; 6 a y w t u y ; y g y ; p y ; y 6 6 6 6 y y p =.=.i i t y p y y i i u t y a a a a a g g g a ; 6 y 6 6 6 6 y a a 6 p =.i i i y p g y y i i i t y y 6 6 6 6 6 6 ",
"c k k l l h j l l l l k k k k k l l l k k h k k k k h h k c c c k c c h h k c c c k h k c c c k k k c c k h k k k k k k k c c k c c k k c c c k h h h c c c c c c h h h k c k c k k k k k c c k h h h k c c c c c k h h h h h k k k h h h h h c k c c k c c c c c k c c k h h k c k c k h k k c c n c c n n c k h h h h h c c c c c k k k c c c c c c n n c n n c c k k k c k c n c c n c c c n n c n c k n n k k n n n c c c c c c k h k c k k k c n n n c c n n n n n n n n n n n n c c c c c c c n n n n c c c k c c n n n n n n n n n n n n n n n n n n n k k z z z z n n n n n n n n n k k z n n n n n n n n n n n n n m M n n n n n n n n n n n n n z z n n n n n n n n m m N m n n n n n n n n n n n n n n n n n n n n n n n n n n n m m m n n n n n n n n n n n n n n n n n n n n n m n n n n n m N n n n n m n n n n n n n n n m m n n n n n n M n n n n n n n n n n n n n n n n n n n n n n n n n n n M n n n n n n n n n n c c k l l l j j < < < < < < , , , , , # @ # - # . + X X   + X X X o o X o X o o o o o o X X X X X X X X o X   X X X X X X X X X X X X X X X X X X X + o o o o o O o o o o X X X X X X X X o X X X X X o o o o O + n.#X#X#X#X#X#X#X#X#X#X].].].|.#X#X#X#X#X#X.X#X#X#X#X#X#X]..X#X#X#X#X#X#X#X#X#X#X#X#X#X#X#X#X#X#X#X#X#X#X#X#X#X#X#X#X#X#X#X.X.XXX).B.=.i.d.d.d.d.f.d.d.d.d.d.d.d.a.d.d.a.d.d.d.d.a.a.d.d.d.a.i.u.e.0.9.9.8.i p i 8.8.8.8.8.i i i i i p p i i i i i i p p p p y y 6 t t t y y p p i i u y y y y y p i i ;.8.r.r.i.u.e.0.9.8.i p y y y y y p p i 8.8.8.8.8.i i i 8.9.e.p.a.a.a.u.e.0.8.8.i p p y a g g g f f f f g a g g g f f g g a g g g a a a g g a g a a a a y y p i i i u y y y y p y y y p i i i i p p p i i p y p i =.=.;.i p u i i p p p p p y y y p p u i p y p i i i i i i i p p i =.6.6.9.9.0.9.9.6.6.i p p p p i i i i 8.8.9.9.9.9.9.7.6.i p p i i i i p y y y p y y y p i i i i y y y i i i i p p p p p i i 8.6.6.8.i i i i i i =.=.i i y y y y t t t y y y i u y y y y y y p p i 6.6.6.=.=.i p p i i =.=.i i p p p y p p p p ",
"k k k h l j l l l l l l k k k k k h h h k k k h h h k k h c c c c c c c h h h k k k c k k c c c k k k k h h h k h h k k h k k k c c c k k c c c h h h h k k k c c c h h h c c k h k k k k k k k k h h h k h k c c c c k h h h h k k c c c k k k h c c c k k k c c c k k c h k c k k k k h k c n n c c k n n c c c k h h h k k k k k k k c c c c c k k k c c c c n c c k k k c c c n n n n c c k n n n n k k n c n c c n c c c n n n c k n n n n c k k k n c c n n n n n n n n n n n k k c c c c c n n n n n n n n n c n n n n n n k n n k k n n n n n n n n n n n z z k z n n n n n n n n n z z n n z n n n n n n n n n n n n M n n n n n n n n n n n n n n n n n n n n n n n n n m m n n n n n n n n n m n n n n n n n n n n n n n n n n m n m m n n n n n n m m n n n n m n n n n n n n n n n n B N n m n n n n n m m m n n n n n n n n n n n n n n n n n n M B m n n n n n n n n n n n n n n n n n n n n n M M n n n n n n n n n c c c c c l l l 2 2 < < < < < , , , , # # # @ # o .     X + + X X X X O o o o o o o o X X X X X X o o X o X   X X X X X o X X X o X o X X X X X X + + + X X X o o o X o o X X X X X X X X X o o X o o o O o o o O X > ]..X#X#X#X#X#X#X#X.X].].].#X#X#X#X#X#X.X]..X#X#X#X.X].].].].+X.X#X#X#X#X#X#X#X#X#X#X#X#X#X#X#X#X#X#X#X#X#X#X]..XoX#X+X+X+XXXXX_.z.7.7.d.a.d.d.d.d.a.a.d.a.d.d.a.d.d.d.d.d.d.d.a.a.a.d.d.a.a.u.e.r.q.q.y.^ ^ ^ ^ ^ ^ ^ ^ ^ ^ ^ ^ f ^ ^ f f f f f f g g g g g g a g g g g g g g g g g g a g g g g g 8.8.q.r.r.r.t.r.w.w.y.^ d d g g g g f f ^ y.y.y.^ ^ ^ ^ ^ ^ y.w.t.t.r.r.r.r.r.y.y.^ ^ f f f { { { { { { { { ] Y E { n.{ { ] Y E f E Y Y E f f f f f f f g g f f f f f g g g d g g g d d g g g g g g d d f g g d ^ ^ :.y.^ f ^ f f f f d d g f g g g g g g g g d g g g g i i g g g g g 8.8.9.9.0.0.q.q.q.y.^ ^ d f ^ ^ f y.y.8.8.q.0.r.q.q.8.8.^ ^ f f f g g g g g g g g g g g g g g g g g g g g g d g g f f f f ^ y.8.y.^ f ^ ^ f f ^ ^ ^ f g d d g g i i i i i i i g g d g g g g g f f ^ ^ ^ ^ ^ f f f f f f ^ ^ f f d d g g g g g "
};
