/* XPM */
static const char *eyes[] = {
/* columns rows colors chars-per-pixel */
"32 32 5 1 ",
"  c #22222222CCCC",
". c #857F857FE3BA",
"X c #F977F977FE7D",
"o c white",
"O c None",
/* pixels */
"OOOOOOOOOOOOOOOOOOOOOOOOOOOOOOOO",
"OOOOOOOOOOOOOOOOOOOOOOOOOOOOOOOO",
"OOOOOOOOOOOOOOOOOOOOOOOOOOOOOOOO",
"OOOOOOOOOOOOOOOOOOOOOOOOOOOOOOOO",
"OOOOOOOOOOOOOOOOOOOOOOOOOOOOOOOO",
"OOOOOOOOOOOOOOOOOOOOOOOOOOOOOOOO",
"OOOOOOOOOOOOOOOOOOOOOOOOOOOOOOOO",
"OOOOOOOOOOOOOOOOOOOOOOOOOOOOOOOO",
"OOOOOOOOOOOOOOOOOOOOOOOOOOOOOOOO",
"OOOOOOOOOOoooOOOOOOOoooOOOOOOOOO",
"OOOOOOOOoooooooOOOoooooooOOOOOOO",
"OOOOOOOoooooooooOoooooooooOOOOOO",
"OOOOOOOoooooooooooooooooooOOOOOO",
"OOOOOOooooX. .XoooooX. .XooOOOOO",
"OOOOOOoooo.   .ooooo.   .ooOOOOO",
"OOOOOOoooo     ooooo     ooOOOOO",
"OOOOOOOooo.   .ooooo.   .oOOOOOO",
"OOOOOOOoooX. .XoOoooX. .XoOOOOOO",
"OOOOOOOOoooooooOOOoooooooOOOOOOO",
"OOOOOOOOOOoooOOOOOOOoooOOOOOOOOO",
"OOOOOOOOOOOOOOOOOOOOOOOOOOOOOOOO",
"OOOOOOOOOOOOOOOOOOOOOOOOOOOOOOOO",
"OOOOOOOOOOOOOOOOOOOOOOOOOOOOOOOO",
"OOOOOOOOOOOOOOOOOOOOOOOOOOOOOOOO",
"OOOOOOOOOOOOOOOOOOOOOOOOOOOOOOOO",
"OOOOOOOOOOOOOOOOOOOOOOOOOOOOOOOO",
"OOOOOOOOOOOOOOOOOOOOOOOOOOOOOOOO",
"OOOOOOOOOOOOOOOOOOOOOOOOOOOOOOOO",
"OOOOOOOOOOOOOOOOOOOOOOOOOOOOOOOO",
"OOOOOOOOOOOOOOOOOOOOOOOOOOOOOOOO",
"OOOOOOOOOOOOOOOOOOOOOOOOOOOOOOOO",
"OOOOOOOOOOOOOOOOOOOOOOOOOOOOOOOO"
};
