/* XPM */
static const char *frightened[] = {
/* columns rows colors chars-per-pixel */
"32 32 2 1 ",
"  c #2850FF",
". c None",
/* pixels */
"................................",
"................................",
"................................",
"................................",
"................................",
"................................",
".............      .............",
"..........            ..........",
"........                ........",
".......                  .......",
"......                    ......",
".....                      .....",
".....                      .....",
"....                        ....",
"....                        ....",
"...                          ...",
"...                          ...",
"...                          ...",
"...                          ...",
"...                          ...",
"...                          ...",
"...                          ...",
"...                          ...",
"...                          ...",
"...                          ...",
"...                          ...",
"...                          ...",
"...                          ...",
"...                          ...",
"...                          ...",
"................................",
"................................"
};
